public/luts/cinematic.cube
TITLE "Cinematic"
LUT_3D_SIZE 9
DOMAIN_MIN 0.0 0.0 0.0
DOMAIN_MAX 1.0 1.0 1.0
0 0 0
0.040327 0 0
0.18126 0 0
0.322727 0 0
0.464655 0 0
0.606973 0 0
0.749609 0 0
0.892491 0 0
1 0 0
0 0.09831 0
0.045458 0.097271 0
0.1879 0.09605 0
0.330634 0.094683 0
0.473586 0.093207 0
0.616687 0.091657 0
0.759862 0.090069 0
0.90304 0.08848 0
1 0.086925 0
0 0.234156 0
0.054702 0.232649 0
0.197838 0.231081 0
0.341023 0.229489 0
0.484184 0.227908 0
0.627251 0.226375 0
0.77015 0.224925 0
0.91281 0.223595 0
1 0.222421 0
0 0.36891 0
0.065316 0.367342 0
0.20833 0.365835 0
0.35115 0.364425 0
0.493705 0.363148 0
0.635922 0.362039 0
0.77773 0.361135 0
0.919056 0.360472 0
1 0.360086 0
0 0.503943 0
0.074555 0.502722 0
0.216632 0.501684 0
0.358272 0.500864 0
0.499405 0.500298 0
0.639957 0.500021 0
0.780205 0.500068 0
0.921291 0.50043 0
1 0.501072 0
0 0.640627 0
0.079677 0.640162 0
0.22 0.64 0
0.360496 0.640165 0
0.5019 0.640633 0
0.644104 0.641368 0
0.787001 0.642334 0
0.930481 0.643494 0
1 0.644812 0
0 0.780303 0
0.082616 0.780872 0
0.225084 0.781695 0
0.368206 0.782735 0
0.511872 0.783957 0
0.655975 0.785325 0
0.800405 0.786802 0
0.945057 0.788352 0
1 0.78994 0
0 0.923161 0
0.093321 0.92444 0
0.237555 0.925852 0
0.382079 0.92736 0
0.526784 0.928928 0
0.671561 0.93052 0
0.816303 0.932101 0
0.960902 0.933634 0
1 0.935083 0
0 1 0
0.10852 1 0
0.253297 1 0
0.397999 1 0
0.542519 1 0
0.686748 1 0
0.830578 1 0
0.9739 1 0
1 1 0
0 0 0.139942
0.040579 0 0.139131
0.181702 0 0.137447
0.323333 0 0.135
0.465402 0 0.131897
0.607836 0 0.128245
0.750564 0 0.124154
0.893512 0 0.119732
1 0 0.115086
0 0.09798 0.13394
0.04625 0.096875 0.130625
0.188799 0.0956 0.126801
0.331615 0.094192 0.122577
0.474626 0.092687 0.11806
0.61776 0.09112 0.11336
0.760945 0.089528 0.108583
0.904108 0.087946 0.103838
1 0.086411 0.099234
0 0.233654 0.120961
0.055757 0.232122 0.116365
0.198917 0.230541 0.111624
0.342103 0.228949 0.106846
0.48524 0.22738 0.10214
0.628258 0.225871 0.097613
0.771084 0.224458 0.093374
0.913646 0.223177 0.089531
1 0.222064 0.086191
0 0.368373 0.105119
0.066356 0.366822 0.100465
0.209313 0.365344 0.096031
0.352051 0.363974 0.091923
0.494499 0.36275 0.088251
0.636586 0.361707 0.085122
0.778238 0.360881 0.082643
0.919383 0.360308 0.080925
1 0.360025 0.080074
0 0.50351 0.09053
0.075305 0.502348 0.087043
0.217241 0.501379 0.084138
0.358717 0.500641 0.081924
0.499661 0.50017 0.080509
0.64 0.5 0.08
0.780473 0.500158 0.079606
0.921856 0.500619 0.078454
1 0.501347 0.076632
0 0.640437 0.081311
0.079858 0.640071 0.080213
0.22006 0.64002 0.07995
0.360876 0.640292 0.07927
0.502564 0.640855 0.077863
0.645016 0.641672 0.07582
0.788123 0.642708 0.073231
0.931777 0.643926 0.070186
1 0.64529 0.066775
0 0.780465 0.078837
0.083374 0.781125 0.077188
0.226077 0.782026 0.074936
0.369395 0.783132 0.072171
0.513222 0.784407 0.068982
0.657448 0.785816 0.06546
0.801966 0.787322 0.061695
0.946667 0.788889 0.057777
1 0.790481 0.053797
0 0.923578 0.071054
0.09472 0.924907 0.067734
0.239065 0.926355 0.064113
0.383662 0.927887 0.060282
0.528403 0.929468 0.056331
0.673181 0.93106 0.052349
0.817886 0.932629 0.048428
0.962412 0.934137 0.044657
1 0.93555 0.041126
0 1 0.058853
0.110144 1 0.05488
0.254908 1 0.05091
0.39956 1 0.047033
0.543993 1 0.043339
0.688099 1 0.039918
0.831768 1 0.03686
0.974894 1 0.034255
1 1 0.032193
0 0 0.279771
0.040899 0 0.278652
0.182202 0 0.276697
0.323991 0 0.274014
0.466192 0 0.270713
0.608733 0 0.2669
0.751544 0 0.262684
0.894551 0 0.258174
1 0 0.253476
0 0.097626 0.272878
0.047081 0.096459 0.269378
0.189729 0.095135 0.265406
0.33262 0.09369 0.26107
0.47568 0.09216 0.256479
0.61884 0.09058 0.251741
0.762025 0.088988 0.246963
0.905164 0.087418 0.242253
1 0.085907 0.237721
0 0.233141 0.259423
0.056823 0.231588 0.254765
0.2 0.23 0.25
0.343177 0.228412 0.245235
0.486282 0.226859 0.240577
0.629243 0.225379 0.236136
0.771987 0.224006 0.232019
0.914444 0.222778 0.228335
1 0.22173 0.225191
0 0.36784 0.243521
0.06738 0.36631 0.23893
0.210271 0.364865 0.234594
0.352919 0.363541 0.230622
0.495252 0.362374 0.227122
0.637199 0.361401 0.224202
0.778687 0.360656 0.221969
0.919645 0.360178 0.220533
1 0.36 0.220001
0 0.503096 0.229287
0.076009 0.501995 0.225986
0.217798 0.501101 0.223303
0.359101 0.500449 0.221348
0.499847 0.500076 0.220229
0.640052 0.500017 0.219957
0.780846 0.500282 0.219295
0.922514 0.500838 0.217905
1 0.501649 0.215877
0 0.640279 0.220838
0.079967 0.640017 0.22005
0.220233 0.640078 0.219806
0.361357 0.640452 0.218869
0.503317 0.641106 0.217236
0.646003 0.642001 0.214998
0.789308 0.643103 0.212244
0.933123 0.644374 0.209064
1 0.64578 0.20555
0 0.78066 0.21835
0.084216 0.781405 0.216487
0.22714 0.78238 0.21405
0.370643 0.783548 0.211131
0.514617 0.784872 0.207819
0.658955 0.786318 0.204204
0.803547 0.787849 0.200377
0.948286 0.789429 0.196428
1 0.791021 0.192446
0 0.924014 0.209966
0.09616 0.925387 0.206533
0.240603 0.926868 0.202831
0.385261 0.92842 0.198949
0.530027 0.930009 0.194978
0.674792 0.931597 0.191007
0.819449 0.93315 0.187126
0.963888 0.934629 0.183426
1 0.936001 0.179997
0 1 0.197509
0.111768 1 0.193527
0.256506 1 0.189579
0.401096 1 0.185754
0.54543 1 0.182142
0.689399 1 0.178834
0.832896 1 0.17592
0.975813 1 0.173489
1 1 0.171632
0 0 0.419491
0.041283 0 0.418076
0.182759 0 0.415862
0.324695 0 0.412957
0.46702 0 0.40947
0.609661 0 0.405508
0.752547 0 0.40118
0.895604 0 0.396594
1 0 0.391857
0 0.09725 0.411749
0.047949 0.096026 0.408077
0.190687 0.094656 0.403969
0.333644 0.093178 0.399535
0.476746 0.091627 0.394881
0.619922 0.090039 0.390117
0.7631 0.08845 0.38535
0.906207 0.086896 0.380689
1 0.085414 0.376241
0 0.23262 0.39786
0.057897 0.231051 0.393154
0.201083 0.229459 0.388376
0.344243 0.227878 0.383635
0.487307 0.226346 0.379039
0.630203 0.224899 0.374696
0.772857 0.223571 0.370714
0.915199 0.2224 0.367201
1 0.221422 0.364265
0 0.367313 0.38194
0.068385 0.365808 0.377423
0.211201 0.3644 0.373199
0.35375 0.363125 0.369375
0.49596 0.36202 0.36606
0.637759 0.36112 0.363361
0.779075 0.360462 0.361387
0.919836 0.360082 0.360245
1 0.360015 0.359963
0 0.502701 0.368103
0.076667 0.501667 0.365
0.218298 0.500851 0.362553
0.359421 0.50029 0.360869
0.499961 0.500019 0.360058
0.640217 0.500072 0.35982
0.781319 0.50044 0.358901
0.92326 0.501087 0.357284
1 0.501976 0.355059
0 0.640156 0.360467
0.08 0.64 0.36
0.220514 0.640171 0.359571
0.361935 0.640645 0.358388
0.504153 0.641384 0.356539
0.647061 0.642354 0.354116
0.790551 0.643517 0.351207
0.934516 0.644839 0.347904
1 0.646282 0.344296
0 0.780885 0.357787
0.085137 0.781712 0.355719
0.22827 0.782757 0.353108
0.371945 0.783982 0.350045
0.516055 0.785352 0.346621
0.660491 0.78683 0.342924
0.805146 0.788382 0.339045
0.94991 0.78997 0.335075
1 0.791559 0.331103
0 0.924466 0.348836
0.097638 0.925879 0.345302
0.242166 0.927389 0.341528
0.386873 0.928958 0.337606
0.531651 0.93055 0.333624
0.676391 0.93213 0.329674
0.820986 0.933662 0.325845
0.965328 0.935109 0.322227
1 0.936436 0.318911
0 1 0.336158
0.113387 1 0.332178
0.258087 1 0.328261
0.402602 1 0.324499
0.546824 1 0.32098
0.690645 1 0.317796
0.833957 1 0.315035
0.976652 1 0.31279
1 1 0.311148
0 0 0.559107
0.041728 0 0.557408
0.183368 0 0.554947
0.325445 0 0.551833
0.467885 0 0.548172
0.610617 0 0.544074
0.753569 0 0.539646
0.896669 0 0.534997
1 0 0.530234
0 0.096852 0.550557
0.04885 0.095575 0.546725
0.19167 0.094165 0.542494
0.334684 0.092658 0.537973
0.47782 0.09109 0.53327
0.621005 0.089498 0.528493
0.764167 0.087917 0.52375
0.907234 0.086383 0.519149
1 0.084933 0.514798
0 0.232092 0.536276
0.058977 0.230511 0.531534
0.202162 0.228919 0.526757
0.345298 0.227351 0.522053
0.488313 0.225844 0.517531
0.631135 0.224433 0.513298
0.773691 0.223154 0.509463
0.915911 0.222045 0.506134
1 0.22114 0.503419
0 0.366793 0.52038
0.069366 0.365317 0.51595
0.2121 0.36395 0.51185
0.354542 0.362729 0.508187
0.496621 0.36169 0.505069
0.638264 0.360868 0.502604
0.7794 0.3603 0.5009
0.919956 0.360022 0.500067
1 0.360067 0.499832
0 0.502328 0.506983
0.077273 0.501363 0.50409
0.21874 0.50063 0.50189
0.359673 0.500163 0.50049
0.5 0.5 0.5
0.64049 0.500163 0.499591
0.78189 0.50063 0.498425
0.92409 0.501363 0.496592
1 0.502328 0.494181
0 0.640067 0.500201
0.080067 0.640022 0.499945
0.2209 0.6403 0.49925
0.362604 0.640868 0.49783
0.505069 0.64169 0.495776
0.648187 0.642729 0.493178
0.79185 0.64395 0.490125
0.93595 0.645317 0.486708
1 0.646793 0.483017
0 0.78114 0.497151
0.086134 0.782045 0.494888
0.229463 0.783154 0.492114
0.373298 0.784433 0.488918
0.517531 0.785844 0.485391
0.662053 0.787351 0.481623
0.806757 0.788919 0.477703
0.951534 0.790511 0.473722
1 0.792092 0.46977
0 0.924933 0.487668
0.099149 0.926383 0.484042
0.24375 0.927917 0.480208
0.388493 0.929498 0.476256
0.53327 0.93109 0.472275
0.677973 0.932658 0.468356
0.822494 0.934165 0.464588
0.966725 0.935575 0.461062
1 0.936852 0.457869
0 1 0.474805
0.114997 1 0.470836
0.259646 1 0.466962
0.404074 1 0.463272
0.548172 1 0.459857
0.691833 1 0.456806
0.834947 1 0.454211
0.977408 1 0.45216
1 1 0.450744
0 0 0.698622
0.042232 0 0.696652
0.184028 0 0.693957
0.326237 0 0.690645
0.468784 0 0.686824
0.611599 0 0.682602
0.754609 0 0.678087
0.897742 0 0.673387
1 0 0.66861
0 0.096436 0.689307
0.049782 0.095109 0.685328
0.192676 0.093662 0.680986
0.335739 0.09213 0.676391
0.478899 0.09055 0.671651
0.622085 0.088958 0.666873
0.765223 0.087389 0.662166
0.908241 0.085879 0.657638
1 0.084466 0.653397
0 0.231559 0.674676
0.06006 0.22997 0.66991
0.203236 0.228382 0.665146
0.346339 0.22683 0.660491
0.489297 0.225352 0.656055
0.632036 0.223982 0.651945
0.774487 0.222757 0.64827
0.916575 0.221712 0.645137
1 0.220885 0.642655
0 0.366282 0.658845
0.070323 0.364839 0.654516
0.212966 0.363517 0.650551
0.355293 0.362354 0.647061
0.497231 0.361384 0.644153
0.63871 0.360645 0.641935
0.779657 0.360171 0.640514
0.92 0.36 0.64
1 0.360156 0.639611
0 0.501976 0.645929
0.077827 0.501087 0.64326
0.21912 0.50044 0.641319
0.359856 0.500072 0.640217
0.500058 0.500019 0.639952
0.640869 0.50029 0.639276
0.782553 0.500851 0.637873
0.925 0.501667 0.635833
1 0.502701 0.633247
0 0.640015 0.640044
0.080245 0.640082 0.639795
0.221387 0.640462 0.638844
0.363361 0.64112 0.637199
0.50606 0.64202 0.63495
0.649375 0.643125 0.632188
0.793199 0.6444 0.629001
0.937423 0.645808 0.625481
1 0.647313 0.621717
0 0.781422 0.636446
0.087201 0.7824 0.633999
0.230714 0.783571 0.631072
0.374696 0.784899 0.627753
0.519039 0.786346 0.624134
0.663635 0.787878 0.620304
0.808376 0.789459 0.616353
0.953154 0.791051 0.612372
1 0.79262 0.60845
0 0.925414 0.626466
0.100689 0.926896 0.622759
0.24535 0.92845 0.618875
0.390117 0.930039 0.614903
0.534881 0.931627 0.610932
0.679535 0.933178 0.607055
0.823969 0.934656 0.603359
0.968077 0.936026 0.599936
1 0.93725 0.596876
0 1 0.613452
0.116594 1 0.609505
0.26118 1 0.605683
0.405508 1 0.602077
0.54947 1 0.598775
0.692957 1 0.595869
0.835862 1 0.593449
0.978076 1 0.591603
1 1 0.590424
0 0 0.838041
0.042791 0 0.835813
0.184736 0 0.832896
0.327067 0 0.829399
0.469714 0 0.82543
0.612603 0 0.821096
0.755663 0 0.816506
0.898822 0 0.811768
1 0 0.80699
0 0.096001 0.828003
0.050741 0.094629 0.823888
0.193701 0.09315 0.819449
0.336805 0.091597 0.814792
0.479982 0.090009 0.810027
0.623159 0.08842 0.805261
0.766265 0.086868 0.800603
0.909227 0.085387 0.79616
1 0.084014 0.792041
0 0.231021 0.813064
0.061142 0.229429 0.808286
0.204302 0.227849 0.803547
0.347363 0.226318 0.798955
0.490255 0.224872 0.794617
0.632905 0.223548 0.790643
0.77524 0.22238 0.78714
0.917189 0.221405 0.784216
1 0.22066 0.78198
0 0.36578 0.797341
0.071251 0.364374 0.793123
0.213795 0.363103 0.789308
0.355998 0.362001 0.786003
0.497789 0.361106 0.783317
0.639095 0.360452 0.781357
0.779845 0.360078 0.780233
0.92005 0.360017 0.779958
1 0.360279 0.779301
0 0.501649 0.784948
0.078324 0.500838 0.782514
0.219436 0.500282 0.780846
0.359966 0.500017 0.780052
0.500229 0.500076 0.779809
0.641348 0.500449 0.778876
0.783303 0.501101 0.777247
0.925986 0.501995 0.775012
1 0.503096 0.77226
0 0.64 0.779999
0.080533 0.640178 0.779556
0.221969 0.640656 0.778359
0.364202 0.641401 0.776499
0.507122 0.642374 0.774065
0.650622 0.643541 0.771148
0.794594 0.644865 0.767838
0.93893 0.64631 0.764225
1 0.64784 0.760399
0 0.78173 0.775674
0.088335 0.782778 0.773054
0.232019 0.784006 0.769984
0.376136 0.785379 0.766553
0.520577 0.786859 0.762852
0.665235 0.788412 0.758971
0.81 0.79 0.755
0.954765 0.791588 0.751029
1 0.793141 0.747148
0 0.925907 0.765233
0.102253 0.927418 0.761456
0.246963 0.928988 0.757531
0.391741 0.93058 0.753549
0.536479 0.93216 0.749601
0.68107 0.93369 0.745775
0.825406 0.935135 0.742162
0.969378 0.936459 0.738852
1 0.937626 0.735935
0 1 0.752103
0.118174 1 0.748189
0.262684 1 0.74443
0.4069 1 0.740917
0.550713 1 0.73774
0.694014 1 0.734988
0.836697 1 0.732753
0.978652 1 0.731124
1 1 0.730191
0 0 0.977368
0.043404 0 0.974894
0.185488 0 0.971768
0.327934 0 0.968099
0.470671 0 0.963993
0.613626 0 0.95956
0.756728 0 0.954908
0.899904 0 0.950144
1 0 0.945377
0 0.09555 0.966649
0.051726 0.094137 0.962412
0.194743 0.092629 0.957886
0.33788 0.09106 0.953181
0.481065 0.089468 0.948403
0.624225 0.087887 0.943662
0.76729 0.086355 0.939065
0.910187 0.084907 0.93472
1 0.083578 0.930735
0 0.230481 0.951444
0.062222 0.228889 0.946667
0.205356 0.227322 0.941966
0.348368 0.225816 0.937448
0.491186 0.224407 0.933222
0.633736 0.223132 0.929395
0.775949 0.222026 0.926077
0.917751 0.221125 0.923374
1 0.220465 0.921396
0 0.36529 0.93587
0.072149 0.363926 0.931777
0.214585 0.362708 0.928123
0.356656 0.361672 0.925016
0.49829 0.360855 0.922564
0.639416 0.360292 0.920876
0.77996 0.36002 0.92006
0.920213 0.360071 0.919823
1 0.360437 0.918908
0 0.501347 0.924042
0.078763 0.500619 0.921856
0.219685 0.500158 0.920473
0.36 0.5 0.92
0.500509 0.50017 0.919576
0.641924 0.500641 0.918397
0.784138 0.501379 0.916551
0.927043 0.502348 0.914131
1 0.50351 0.911225
0 0.640025 0.919939
0.080925 0.640308 0.919229
0.222643 0.640881 0.917797
0.365122 0.641707 0.915732
0.508251 0.64275 0.913124
0.651923 0.643974 0.910064
0.796031 0.645344 0.906641
0.940465 0.646822 0.902945
1 0.648373 0.899068
0 0.782064 0.914841
0.089531 0.783177 0.912058
0.233374 0.784458 0.908855
0.377613 0.785871 0.905322
0.52214 0.78738 0.90155
0.666846 0.788949 0.897628
0.811624 0.790541 0.893647
0.956365 0.792122 0.889696
1 0.793654 0.885866
0 0.926411 0.903972
0.103838 0.927946 0.900135
0.248583 0.929528 0.896181
0.39336 0.93112 0.8922
0.53806 0.932687 0.888283
0.682577 0.934192 0.884519
0.826801 0.9356 0.880999
0.970625 0.936875 0.877813
1 0.93798 0.87505
0 1 0.890762
0.119732 1 0.88689
0.264154 1 0.883205
0.408245 1 0.879796
0.551897 1 0.876753
0.695 1 0.874167
0.837447 1 0.872127
0.979131 1 0.870724
1 1 0.870048
0 0 1
0.044066 0 1
0.186282 0 1
0.328835 0 1
0.471654 0 1
0.614667 0 1
0.757802 0 1
0.900987 0 1
1 0 1
0 0.095083 1
0.052732 0.093634 1
0.195798 0.092101 1
0.338959 0.09052 1
0.482144 0.088928 1
0.625281 0.08736 1
0.768296 0.085852 1
0.91112 0.08444 1
1 0.083161 1
0 0.22994 1
0.063296 0.228352 1
0.206396 0.226802 1
0.34935 0.225325 1
0.492085 0.223957 1
0.634529 0.222735 1
0.77661 0.221695 1
0.918256 0.220872 1
1 0.220303 1
0 0.364812 1
0.073013 0.363494 1
0.215333 0.362334 1
0.357264 0.361368 1
0.498733 0.360633 1
0.639669 0.360165 1
0.78 0.36 1
0.920485 0.360162 1
1 0.360627 1
0 0.501072 1
0.07914 0.50043 1
0.219864 0.500068 1
0.360064 0.500021 1
0.500893 0.500298 1
0.642592 0.500864 1
0.785053 0.501684 1
0.928167 0.502722 1
1 0.503943 1
0 0.640086 1
0.081417 0.640472 1
0.223405 0.641135 1
0.366117 0.642039 1
0.509443 0.643148 1
0.653275 0.644425 1
0.797506 0.645835 1
0.942027 0.647342 1
1 0.64891 1
0 0.782421 1
0.090785 0.783595 1
0.234775 0.784925 1
0.379124 0.786375 1
0.523724 0.787908 1
0.668466 0.789489 1
0.813243 0.791081 1
0.957947 0.792649 1
1 0.794156 1
0 0.926925 1
0.105439 0.92848 1
0.250207 0.930069 1
0.39497 0.931657 1
0.53962 0.933207 1
0.68405 0.934683 1
0.82815 0.93605 1
0.971813 0.937271 1
1 0.93831 1
0 1 1
0.121264 1 1
0.265586 1 1
0.40954 1 1
0.553017 1 1
0.69591 1 1
0.83811 1 1
0.97951 1 1
1 1 1
