public/luts/cinematic.cube
TITLE "Cinematic"
LUT_3D_SIZE 17
DOMAIN_MIN 0.0 0.0 0.0
DOMAIN_MAX 1.0 1.0 1.0
0 0 0
0 0 0
0.040327 0 0
0.110722 0 0
0.18126 0 0
0.251931 0 0
0.322727 0 0
0.393638 0 0
0.464655 0 0
0.53577 0 0
0.606973 0 0
0.678256 0 0
0.749609 0 0
0.821024 0 0
0.892491 0 0
0.964001 0 0
1 0 0
0 0.029549 0
0 0.029255 0
0.042207 0.028897 0
0.113045 0.028477 0
0.183996 0.028002 0
0.25505 0.027475 0
0.326198 0.026901 0
0.397432 0.026284 0
0.468741 0.02563 0
0.540118 0.024941 0
0.611552 0.024224 0
0.683036 0.023482 0
0.75456 0.02272 0
0.826115 0.021943 0
0.897692 0.021154 0
0.969282 0.020359 0
1 0.019562 0
0 0.09831 0
0 0.097816 0
0.045458 0.097271 0
0.116638 0.096681 0
0.1879 0.09605 0
0.259235 0.095383 0
0.330634 0.094683 0
0.402087 0.093956 0
0.473586 0.093207 0
0.545123 0.092439 0
0.616687 0.091657 0
0.688269 0.090865 0
0.759862 0.090069 0
0.831455 0.089272 0
0.90304 0.08848 0
0.974608 0.087696 0
1 0.086925 0
0 0.166456 0
0 0.165811 0
0.049737 0.165131 0
0.121157 0.164422 0
0.192628 0.163686 0
0.264142 0.162929 0
0.335689 0.162155 0
0.407261 0.161369 0
0.478849 0.160576 0
0.550442 0.159779 0
0.622034 0.158983 0
0.693614 0.158193 0
0.765173 0.157413 0
0.836703 0.156649 0
0.908194 0.155903 0
0.979638 0.155181 0
1 0.154487 0
0 0.234156 0
0 0.233413 0
0.054702 0.232649 0
0.126259 0.23187 0
0.197838 0.231081 0
0.269429 0.230286 0
0.341023 0.229489 0
0.412611 0.228695 0
0.484184 0.227908 0
0.555734 0.227133 0
0.627251 0.226375 0
0.698726 0.225637 0
0.77015 0.224925 0
0.841515 0.224243 0
0.91281 0.223595 0
0.984028 0.222986 0
1 0.222421 0
0 0.301584 0
0 0.300792 0
0.060009 0.299996 0
0.131602 0.299199 0
0.203186 0.298407 0
0.274752 0.297624 0
0.346291 0.296855 0
0.417793 0.296103 0
0.489251 0.295375 0
0.560654 0.294673 0
0.631995 0.294003 0
0.703263 0.293369 0
0.77445 0.292775 0
0.845547 0.292227 0
0.916545 0.291728 0
0.987435 0.291283 0
1 0.290896 0
0 0.36891 0
0 0.368121 0
0.065316 0.367342 0
0.136842 0.366579 0
0.20833 0.365835 0
0.279768 0.365116 0
0.35115 0.364425 0
0.422465 0.363767 0
0.493705 0.363148 0
0.56486 0.36257 0
0.635922 0.362039 0
0.706882 0.361559 0
0.77773 0.361135 0
0.848457 0.360771 0
0.919056 0.360472 0
0.989515 0.360242 0
1 0.360086 0
0 0.436306 0
0 0.43557 0
0.070279 0.434861 0
0.141637 0.434182 0
0.212926 0.433537 0
0.284136 0.432932 0
0.355258 0.432371 0
0.426284 0.431858 0
0.497204 0.431398 0
0.568009 0.430995 0
0.638691 0.430655 0
0.709239 0.43038 0
0.779647 0.430177 0
0.849903 0.430049 0
0.919999 0.43 0
0.990106 0.430035 0
1 0.430151 0
0 0.503943 0
0.003376 0.503312 0
0.074555 0.502722 0
0.145643 0.502178 0
0.216632 0.501684 0
0.287511 0.501245 0
0.358272 0.500864 0
0.428906 0.500547 0
0.499405 0.500298 0
0.569758 0.500121 0
0.639957 0.500021 0
0.71001 0.500003 0
0.780205 0.500068 0
0.850636 0.500212 0
0.921291 0.50043 0
0.992155 0.500718 0
1 0.501072 0
0 0.571992 0
0.006965 0.571518 0
0.077802 0.571099 0
0.148518 0.570741 0
0.219104 0.570448 0
0.28955 0.570225 0
0.359849 0.570076 0
0.42999 0.570005 0
0.500053 0.570018 0
0.570335 0.570112 0
0.640849 0.570283 0
0.711582 0.570527 0
0.782519 0.57084 0
0.853648 0.571216 0
0.924955 0.571652 0
0.996427 0.572142 0
1 0.572683 0
0 0.640627 0
0.009283 0.640358 0
0.079677 0.640162 0
0.149919 0.640041 0
0.22 0.64 0
0.290128 0.640043 0
0.360496 0.640165 0
0.431091 0.640364 0
0.5019 0.640633 0
0.572909 0.64097 0
0.644104 0.641368 0
0.715473 0.641824 0
0.787001 0.642334 0
0.858675 0.642892 0
0.930481 0.643494 0
1 0.644135 0
1 0.644812 0
0 0.710016 0
0.010018 0.710006 0
0.080235 0.710078 0
0.150687 0.710229 0
0.221362 0.710454 0
0.292245 0.710748 0
0.363323 0.711108 0
0.434583 0.711528 0
0.506011 0.712004 0
0.577594 0.712531 0
0.649318 0.713106 0
0.721169 0.713723 0
0.793134 0.714378 0
0.8652 0.715067 0
0.937353 0.715784 0
1 0.716526 0
1 0.717289 0
0 0.780303 0
0.01166 0.780553 0
0.082616 0.780872 0
0.153762 0.781254 0
0.225084 0.781695 0
0.29657 0.78219 0
0.368206 0.782735 0
0.439978 0.783326 0
0.511872 0.783957 0
0.583875 0.784625 0
0.655975 0.785325 0
0.728156 0.786052 0
0.800405 0.786802 0
0.87271 0.78757 0
0.945057 0.788352 0
1 0.789144 0
1 0.78994 0
0 0.851408 0
0.015607 0.851869 0
0.087149 0.852383 0
0.158836 0.852945 0
0.230654 0.853551 0
0.302589 0.854196 0
0.374629 0.854876 0
0.44676 0.855587 0
0.518968 0.856323 0
0.591239 0.85708 0
0.66356 0.857853 0
0.735919 0.85864 0
0.8083 0.859433 0
0.880691 0.86023 0
0.953078 0.861026 0
1 0.861816 0
1 0.862595 0
0 0.923161 0
0.021346 0.923782 0
0.093321 0.92444 0
0.165395 0.925132 0
0.237555 0.925852 0
0.309788 0.926596 0
0.382079 0.92736 0
0.454415 0.928138 0
0.526784 0.928928 0
0.59917 0.929723 0
0.671561 0.93052 0
0.743943 0.931314 0
0.816303 0.932101 0
0.888627 0.932876 0
0.960902 0.933634 0
1 0.934371 0
1 0.935083 0
0 0.995391 0
0.02836 0.99612 0
0.100616 0.996872 0
0.172925 0.997642 0
0.245275 0.998425 0
0.317651 0.999217 0
0.39004 1 0
0.46243 1 0
0.534806 1 0
0.607154 1 0
0.679462 1 0
0.751715 1 0
0.8239 1 0
0.896005 1 0
0.968014 1 0
1 1 0
1 1 0
0 1 0
0.036137 1 0
0.10852 1 0
0.180911 1 0
0.253297 1 0
0.325664 1 0
0.397999 1 0
0.470289 1 0
0.542519 1 0
0.614677 1 0
0.686748 1 0
0.758719 1 0
0.830578 1 0
0.902309 1 0
0.9739 1 0
1 1 0
1 1 0
0 0 0.069985
0 0 0.069777
0.040445 0 0.069333
0.110889 0 0.068666
0.181473 0 0.06779
0.252188 0 0.066718
0.323024 0 0.065465
0.393972 0 0.064042
0.465023 0 0.062465
0.536169 0 0.060746
0.6074 0 0.058899
0.678708 0 0.056938
0.750083 0 0.054875
0.821516 0 0.052725
0.892999 0 0.050501
0.964522 0 0.048217
1 0 0.045886
0 0.029457 0.068371
0 0.029141 0.067422
0.042478 0.028761 0.066282
0.113356 0.028322 0.064966
0.184343 0.027828 0.063485
0.25543 0.027285 0.061855
0.326608 0.026696 0.060088
0.397868 0.026066 0.058198
0.469201 0.025399 0.056198
0.540599 0.024701 0.054102
0.612051 0.023975 0.051924
0.683549 0.023225 0.049676
0.755085 0.022458 0.047373
0.826648 0.021676 0.045028
0.898231 0.020885 0.042654
0.969823 0.020088 0.040265
1 0.019292 0.037875
0 0.098148 0.064445
0 0.097636 0.062909
0.045849 0.097076 0.061227
0.117058 0.096471 0.059413
0.188346 0.095827 0.057482
0.259703 0.095148 0.055445
0.331121 0.094439 0.053318
0.402592 0.093704 0.051113
0.474104 0.092948 0.048843
0.545651 0.092174 0.046523
0.617223 0.091389 0.044166
0.68881 0.090595 0.041786
0.760403 0.089798 0.039395
0.831995 0.089002 0.037007
0.903575 0.088212 0.034637
0.975135 0.087432 0.032297
1 0.086667 0.030001
0 0.166241 0.058723
0 0.165584 0.056752
0.050213 0.164894 0.054681
0.121651 0.164174 0.052523
0.193138 0.163431 0.050293
0.264664 0.162668 0.048004
0.336221 0.16189 0.045669
0.407799 0.161101 0.043302
0.47939 0.160305 0.040916
0.550984 0.159508 0.038525
0.622572 0.158714 0.036142
0.694146 0.157927 0.033781
0.765696 0.157152 0.031455
0.837214 0.156393 0.029179
0.90869 0.155655 0.026964
0.980116 0.154942 0.024826
1 0.154259 0.022777
0 0.233906 0.051719
0 0.233155 0.049466
0.055228 0.232386 0.047158
0.126793 0.231603 0.04481
0.198377 0.230811 0.042434
0.26997 0.230015 0.040045
0.341563 0.229218 0.037655
0.413147 0.228426 0.035279
0.484714 0.227643 0.032929
0.556253 0.226873 0.03062
0.627757 0.226122 0.028365
0.699216 0.225392 0.026176
0.770621 0.22469 0.024069
0.841963 0.224019 0.022056
0.913233 0.223384 0.020151
0.984422 0.222789 0.018367
1 0.222239 0.016718
0 0.301316 0.043948
0 0.300522 0.041565
0.06055 0.299725 0.039174
0.132141 0.298929 0.036788
0.20372 0.29814 0.03442
0.275278 0.297361 0.032083
0.346805 0.296597 0.029792
0.418294 0.295853 0.027559
0.489734 0.295133 0.025399
0.561117 0.294442 0.023325
0.632434 0.293783 0.021349
0.703676 0.293162 0.019487
0.774833 0.292583 0.01775
0.845897 0.292051 0.016154
0.91686 0.29157 0.014711
0.98771 0.291145 0.013434
1 0.290779 0.012338
0 0.368641 0.035923
0 0.367855 0.033565
0.065838 0.367081 0.031243
0.137352 0.366324 0.028972
0.208824 0.365588 0.026764
0.280245 0.364878 0.024633
0.351605 0.364198 0.022593
0.422895 0.363552 0.020657
0.494107 0.362946 0.018839
0.565232 0.362384 0.017152
0.63626 0.36187 0.01561
0.707183 0.361409 0.014226
0.777991 0.361005 0.013014
0.848676 0.360662 0.011987
0.919228 0.360386 0.011158
0.989638 0.360181 0.010542
1 0.360051 0.010152
0 0.436053 0.02816
0 0.435326 0.025979
0.070747 0.434626 0.023879
0.142083 0.433959 0.021876
0.213346 0.433327 0.019981
0.284527 0.432736 0.018209
0.355618 0.432191 0.016573
0.426609 0.431696 0.015087
0.497491 0.431255 0.013764
0.568255 0.430873 0.012618
0.638892 0.430554 0.011661
0.709394 0.430303 0.010909
0.779751 0.430125 0.010374
0.849954 0.430023 0.010069
0.920008 0.430003 0.009993
0.990197 0.430066 0.009836
1 0.430208 0.009481
0 0.503724 0.021173
0.003786 0.503107 0.019321
0.074935 0.502532 0.017597
0.145991 0.502005 0.016014
0.216943 0.501529 0.014586
0.287783 0.501109 0.013326
0.358502 0.500749 0.012247
0.429091 0.500454 0.011363
0.499541 0.500229 0.010688
0.569843 0.500078 0.010235
0.639988 0.500006 0.010018
0.710049 0.500016 0.009959
0.780325 0.500108 0.009729
0.850834 0.500278 0.009305
0.921561 0.50052 0.008699
0.992494 0.500831 0.007922
1 0.501206 0.006984
0 0.571825 0.015476
0.007262 0.571369 0.014107
0.078059 0.57097 0.012911
0.148732 0.570634 0.011902
0.219272 0.570364 0.011093
0.289669 0.570166 0.010497
0.359915 0.570043 0.010128
0.43 0.57 0.01
0.500122 0.570041 0.009899
0.570484 0.570161 0.009597
0.641074 0.570358 0.009105
0.711878 0.570626 0.008435
0.782882 0.570961 0.007598
0.854073 0.571358 0.006606
0.925437 0.571812 0.005469
0.996962 0.572321 0.004199
1 0.572877 0.002807
0 0.640528 0.011583
0.009433 0.640283 0.01085
0.079776 0.640112 0.010336
0.149965 0.640018 0.010053
0.220016 0.640005 0.009987
0.290226 0.640075 0.009811
0.360673 0.640224 0.009439
0.431343 0.640448 0.008881
0.502221 0.64074 0.008149
0.573295 0.641098 0.007254
0.64455 0.641517 0.006208
0.715975 0.641992 0.005021
0.787554 0.642518 0.003705
0.859274 0.643091 0.002272
0.931122 0.643707 0.000731
1 0.644362 0
1 0.645049 0
0 0.710003 0.01001
0.010064 0.710021 0.009947
0.080363 0.710121 0.009698
0.150892 0.710297 0.009257
0.221639 0.710546 0.008634
0.29259 0.710863 0.007842
0.363732 0.711244 0.00689
0.43505 0.711683 0.005792
0.506532 0.712177 0.004557
0.578164 0.712721 0.003196
0.649933 0.713311 0.001723
0.721824 0.713941 0.000146
0.793825 0.714608 0
0.865922 0.715307 0
0.938101 0.716034 0
1 0.716783 0
1 0.717551 0
0 0.78038 0.00905
0.011962 0.780654 0.008365
0.082984 0.780995 0.007513
0.154192 0.781397 0.006507
0.225571 0.781857 0.005357
0.29711 0.78237 0.004075
0.368793 0.782931 0.002673
0.440608 0.783536 0.00116
0.512541 0.78418 0
0.584578 0.784859 0
0.656707 0.785569 0
0.728913 0.786304 0
0.801183 0.787061 0
0.873503 0.787834 0
0.945861 0.78862 0
1 0.789414 0
1 0.790211 0
0 0.851558 0.006104
0.016114 0.852038 0.004905
0.087706 0.852569 0.003578
0.159439 0.853146 0.002134
0.231299 0.853766 0.000584
0.303271 0.854424 0
0.375343 0.855114 0
0.447502 0.855834 0
0.519732 0.856577 0
0.592022 0.857341 0
0.664358 0.858119 0
0.736725 0.858908 0
0.809111 0.859704 0
0.881502 0.860501 0
0.953885 0.861295 0
1 0.862082 0
1 0.862857 0
0 0.923367 0.001581
0.022004 0.924001 0
0.094015 0.924672 0
0.16612 0.925373 0
0.238306 0.926102 0
0.31056 0.926853 0
0.382868 0.927623 0
0.455217 0.928406 0
0.527593 0.929198 0
0.599982 0.929994 0
0.672372 0.930791 0
0.744748 0.931583 0
0.817097 0.932366 0
0.889406 0.933135 0
0.96166 0.933887 0
1 0.934616 0
1 0.935318 0
0 0.995636 0
0.029119 0.996373 0
0.101395 0.997132 0
0.173719 0.997906 0
0.246079 0.998693 0
0.318462 0.999487 0
0.390853 1 0
0.463239 1 0
0.535607 1 0
0.607943 1 0
0.680234 1 0
0.752465 1 0
0.824625 1 0
0.896698 1 0
0.968672 1 0
1 1 0
1 1 0
0 1 0
0.036945 1 0
0.109332 1 0
0.181723 1 0
0.254104 1 0
0.326462 1 0
0.398783 1 0
0.471054 1 0
0.543261 1 0
0.61539 1 0
0.687429 1 0
0.759364 1 0
0.831181 1 0
0.902866 1 0
0.974407 1 0
1 1 0
1 1 0
0 0 0.139942
0 0 0.139652
0.040579 0 0.139131
0.111072 0 0.138391
0.181702 0 0.137447
0.252458 0 0.136312
0.323333 0 0.135
0.394318 0 0.133523
0.465402 0 0.131897
0.536578 0 0.130133
0.607836 0 0.128245
0.679168 0 0.126248
0.750564 0 0.124154
0.822015 0 0.121978
0.893512 0 0.119732
0.965047 0 0.11743
1 0 0.115086
0 0.029357 0.138071
0 0.029019 0.137056
0.042764 0.028618 0.135854
0.11368 0.02816 0.134481
0.184701 0.027649 0.132948
0.25582 0.02709 0.13127
0.327027 0.026486 0.129459
0.398313 0.025843 0.12753
0.469669 0.025165 0.125496
0.541086 0.024457 0.123371
0.612555 0.023722 0.121167
0.684067 0.022966 0.118899
0.755613 0.022194 0.116581
0.827184 0.021408 0.114224
0.898771 0.020615 0.111844
0.970364 0.019818 0.109453
1 0.019022 0.107066
0 0.09798 0.13394
0 0.097451 0.132353
0.04625 0.096875 0.130625
0.117487 0.096257 0.12877
0.188799 0.0956 0.126801
0.260178 0.094911 0.124732
0.331615 0.094192 0.122577
0.403101 0.093449 0.120348
0.474626 0.092687 0.11806
0.546182 0.091909 0.115726
0.61776 0.09112 0.11336
0.689351 0.090325 0.110974
0.760945 0.089528 0.108583
0.832533 0.088733 0.1062
0.904108 0.087946 0.103838
0.975659 0.087171 0.101512
1 0.086411 0.099234
0 0.166022 0.128066
0 0.165353 0.126059
0.050695 0.164652 0.123957
0.122151 0.163924 0.121773
0.193652 0.163174 0.119522
0.26519 0.162405 0.117215
0.336755 0.161623 0.114868
0.408338 0.160831 0.112493
0.479931 0.160034 0.110103
0.551524 0.159238 0.107714
0.623109 0.158446 0.105337
0.694676 0.157662 0.102986
0.766216 0.156892 0.100676
0.837721 0.15614 0.098419
0.909181 0.15541 0.096229
0.980587 0.154707 0.09412
1 0.154035 0.092104
0 0.233654 0.120961
0 0.232896 0.118688
0.055757 0.232122 0.116365
0.12733 0.231335 0.114006
0.198917 0.230541 0.111624
0.270511 0.229744 0.109233
0.342103 0.228949 0.106846
0.413682 0.228159 0.104477
0.48524 0.22738 0.10214
0.556768 0.226616 0.099847
0.628258 0.225871 0.097613
0.699699 0.22515 0.095451
0.771084 0.224458 0.093374
0.842403 0.223799 0.091396
0.913646 0.223177 0.089531
0.984806 0.222597 0.087791
1 0.222064 0.086191
0 0.301047 0.11314
0 0.300251 0.110754
0.061092 0.299454 0.108363
0.132679 0.29866 0.105981
0.204252 0.297874 0.103622
0.2758 0.2971 0.101299
0.347316 0.296342 0.099027
0.418789 0.295606 0.096817
0.49021 0.294895 0.094684
0.561572 0.294214 0.092642
0.632864 0.293568 0.090703
0.704079 0.292961 0.088882
0.775205 0.292397 0.087192
0.846236 0.291882 0.085646
0.917161 0.291419 0.084258
0.987973 0.291014 0.083041
1 0.29067 0.082009
0 0.368373 0.105119
0 0.367591 0.102772
0.066356 0.366822 0.100465
0.137857 0.366071 0.098214
0.209313 0.365344 0.096031
0.280714 0.364643 0.09393
0.352051 0.363974 0.091923
0.423316 0.363342 0.090026
0.494499 0.36275 0.088251
0.565592 0.362204 0.086612
0.636586 0.361707 0.085122
0.70747 0.361265 0.083794
0.778238 0.360881 0.082643
0.848878 0.360561 0.081682
0.919383 0.360308 0.080925
0.989744 0.360128 0.080384
1 0.360025 0.080074
0 0.435804 0.097411
0 0.435085 0.095256
0.071208 0.434396 0.093187
0.14252 0.43374 0.091219
0.213757 0.433122 0.089365
0.284908 0.432546 0.087638
0.355966 0.432017 0.086051
0.426921 0.43154 0.084619
0.497764 0.431118 0.083354
0.568486 0.430757 0.082271
0.639078 0.430461 0.081382
0.709532 0.430234 0.080702
0.779838 0.430081 0.080244
0.849986 0.430007 0.08002
0.920045 0.430015 0.079962
0.990316 0.430105 0.079737
1 0.430273 0.079318
0 0.50351 0.09053
0.004186 0.502907 0.088721
0.075305 0.502348 0.087043
0.146326 0.501837 0.085511
0.217241 0.501379 0.084138
0.288041 0.500979 0.082938
0.358717 0.500641 0.081924
0.42926 0.50037 0.08111
0.499661 0.50017 0.080509
0.56991 0.500045 0.080134
0.64 0.5 0.08
0.710116 0.500039 0.079904
0.780473 0.500158 0.079606
0.851057 0.500352 0.079119
0.921856 0.500619 0.078454
0.992855 0.500952 0.077621
1 0.501347 0.076632
0 0.571664 0.084992
0.007546 0.571227 0.083681
0.078302 0.570849 0.082547
0.148931 0.570535 0.081604
0.219423 0.570289 0.080866
0.28977 0.570115 0.080345
0.359962 0.570019 0.080057
0.430013 0.570004 0.079989
0.500218 0.570073 0.079818
0.57066 0.57022 0.07945
0.641324 0.570441 0.078897
0.712197 0.570732 0.078169
0.783266 0.571089 0.077278
0.854518 0.571506 0.076235
0.925938 0.571979 0.075052
0.997513 0.572504 0.073739
1 0.573077 0.072308
0 0.640437 0.081311
0.009566 0.640217 0.08065
0.079858 0.640071 0.080213
0.149992 0.640004 0.080012
0.22006 0.64002 0.07995
0.290352 0.640117 0.079706
0.360876 0.640292 0.07927
0.431618 0.640539 0.078652
0.502564 0.640855 0.077863
0.573701 0.641234 0.076915
0.645016 0.641672 0.07582
0.716494 0.642165 0.074588
0.788123 0.642708 0.073231
0.859888 0.643296 0.07176
0.931777 0.643926 0.070186
1 0.644592 0.068521
1 0.64529 0.066775
0 0.71 0.08
0.010139 0.710046 0.079884
0.080517 0.710172 0.079569
0.151122 0.710374 0.079065
0.22194 0.710647 0.078384
0.292957 0.710986 0.077536
0.36416 0.711387 0.076533
0.435536 0.711845 0.075387
0.50707 0.712357 0.074108
0.57875 0.712917 0.072708
0.650562 0.713521 0.071198
0.722492 0.714164 0.06959
0.794527 0.714842 0.067894
0.866654 0.715551 0.066122
0.938858 0.716286 0.064285
1 0.717042 0.062395
1 0.717815 0.060462
0 0.780465 0.078837
0.012288 0.780763 0.078094
0.083374 0.781125 0.077188
0.154642 0.781547 0.076132
0.226077 0.782026 0.074936
0.297666 0.782555 0.073612
0.369395 0.783132 0.072171
0.441252 0.783751 0.070624
0.513222 0.784407 0.068982
0.585292 0.785097 0.067257
0.657448 0.785816 0.06546
0.729677 0.786559 0.063602
0.801966 0.787322 0.061695
0.8743 0.7881 0.05975
0.946667 0.788889 0.057777
1 0.789684 0.055789
1 0.790481 0.053797
0 0.851715 0.075712
0.016638 0.852213 0.074468
0.08828 0.85276 0.0731
0.160057 0.853352 0.071619
0.231956 0.853985 0.070036
0.303964 0.854655 0.068363
0.376067 0.855356 0.066611
0.448252 0.856084 0.06479
0.520504 0.856835 0.062913
0.592811 0.857604 0.060991
0.665159 0.858386 0.059034
0.737534 0.859178 0.057055
0.809924 0.859975 0.055064
0.882313 0.860771 0.053072
0.95469 0.861563 0.051092
1 0.862347 0.049133
1 0.863117 0.047209
0 0.923578 0.071054
0.022676 0.924225 0.069437
0.09472 0.924907 0.067734
0.166854 0.925618 0.065955
0.239065 0.926355 0.064113
0.311338 0.927113 0.062218
0.383662 0.927887 0.060282
0.456021 0.928674 0.058316
0.528403 0.929468 0.056331
0.600794 0.930265 0.054338
0.673181 0.93106 0.052349
0.745549 0.93185 0.050376
0.817886 0.932629 0.048428
0.890178 0.933393 0.046518
0.962412 0.934137 0.044657
1 0.934858 0.042856
1 0.93555 0.041126
0 0.995884 0.065291
0.029886 0.996629 0.063429
0.102179 0.997393 0.061517
0.174517 0.998172 0.059569
0.246886 0.998962 0.057595
0.319273 0.999758 0.055606
0.391664 1 0.053613
0.464046 1 0.051629
0.536404 1 0.049663
0.608727 1 0.047728
0.680999 1 0.045834
0.753208 1 0.043994
0.825339 1 0.042217
0.897381 1 0.040516
0.969318 1 0.038902
1 1 0.037385
1 1 0.035978
0 1 0.058853
0.037754 1 0.056872
0.110144 1 0.05488
0.182533 1 0.052889
0.254908 1 0.05091
0.327255 1 0.048954
0.39956 1 0.047033
0.471811 1 0.045158
0.543993 1 0.043339
0.616094 1 0.041589
0.688099 1 0.039918
0.759995 1 0.038338
0.831768 1 0.03686
0.903406 1 0.035495
0.974894 1 0.034255
1 1 0.03315
1 1 0.032193
0 0 0.20987
0 0 0.2095
0.040731 0 0.208903
0.111271 0 0.208093
0.181945 0 0.207083
0.252743 0 0.205886
0.323656 0 0.204516
0.394675 0 0.202987
0.465792 0 0.201312
0.536997 0 0.199505
0.608281 0 0.197579
0.679635 0 0.195547
0.751051 0 0.193424
0.822519 0 0.191222
0.89403 0 0.188956
0.965575 0 0.186638
1 0 0.184282
0 0.029249 0.207748
0 0.028889 0.206668
0.043062 0.028469 0.205407
0.114015 0.027992 0.203977
0.185071 0.027465 0.202394
0.256221 0.02689 0.200669
0.327456 0.026272 0.198817
0.398766 0.025617 0.196851
0.470144 0.024928 0.194784
0.54158 0.02421 0.192631
0.613064 0.023468 0.190404
0.684589 0.022706 0.188117
0.756144 0.021928 0.185784
0.827721 0.021139 0.183418
0.899312 0.020344 0.181033
0.970906 0.019547 0.178641
