public/luts/cinematic.cube
TITLE "Cinematic"
LUT_3D_SIZE 5
DOMAIN_MIN 0.0 0.0 0.0
DOMAIN_MAX 1.0 1.0 1.0
0 0 0
0.18126 0 0
0.464655 0 0
0.749609 0 0
1 0 0
0 0.234156 0
0.197838 0.231081 0
0.484184 0.227908 0
0.77015 0.224925 0
1 0.222421 0
0 0.503943 0
0.216632 0.501684 0
0.499405 0.500298 0
0.780205 0.500068 0
1 0.501072 0
0 0.780303 0
0.225084 0.781695 0
0.511872 0.783957 0
0.800405 0.786802 0
1 0.78994 0
0 1 0
0.253297 1 0
0.542519 1 0
0.830578 1 0
1 1 0
0 0 0.279771
0.182202 0 0.276697
0.466192 0 0.270713
0.751544 0 0.262684
1 0 0.253476
0 0.233141 0.259423
0.2 0.23 0.25
0.486282 0.226859 0.240577
0.771987 0.224006 0.232019
1 0.22173 0.225191
0 0.503096 0.229287
0.217798 0.501101 0.223303
0.499847 0.500076 0.220229
0.780846 0.500282 0.219295
1 0.501649 0.215877
0 0.78066 0.21835
0.22714 0.78238 0.21405
0.514617 0.784872 0.207819
0.803547 0.787849 0.200377
1 0.791021 0.192446
0 1 0.197509
0.256506 1 0.189579
0.54543 1 0.182142
0.832896 1 0.17592
1 1 0.171632
0 0 0.559107
0.183368 0 0.554947
0.467885 0 0.548172
0.753569 0 0.539646
1 0 0.530234
0 0.232092 0.536276
0.202162 0.228919 0.526757
0.488313 0.225844 0.517531
0.773691 0.223154 0.509463
1 0.22114 0.503419
0 0.502328 0.506983
0.21874 0.50063 0.50189
0.5 0.5 0.5
0.78189 0.50063 0.498425
1 0.502328 0.494181
0 0.78114 0.497151
0.229463 0.783154 0.492114
0.517531 0.785844 0.485391
0.806757 0.788919 0.477703
1 0.792092 0.46977
0 1 0.474805
0.259646 1 0.466962
0.548172 1 0.459857
0.834947 1 0.454211
1 1 0.450744
0 0 0.838041
0.184736 0 0.832896
0.469714 0 0.82543
0.755663 0 0.816506
1 0 0.80699
0 0.231021 0.813064
0.204302 0.227849 0.803547
0.490255 0.224872 0.794617
0.77524 0.22238 0.78714
1 0.22066 0.78198
0 0.501649 0.784948
0.219436 0.500282 0.780846
0.500229 0.500076 0.779809
0.783303 0.501101 0.777247
1 0.503096 0.77226
0 0.78173 0.775674
0.232019 0.784006 0.769984
0.520577 0.786859 0.762852
0.81 0.79 0.755
1 0.793141 0.747148
0 1 0.752103
0.262684 1 0.74443
0.550713 1 0.73774
0.836697 1 0.732753
1 1 0.730191
0 0 1
0.186282 0 1
0.471654 0 1
0.757802 0 1
1 0 1
0 0.22994 1
0.206396 0.226802 1
0.492085 0.223957 1
0.77661 0.221695 1
1 0.220303 1
0 0.501072 1
0.219864 0.500068 1
0.500893 0.500298 1
0.785053 0.501684 1
1 0.503943 1
0 0.782421 1
0.234775 0.784925 1
0.523724 0.787908 1
0.813243 0.791081 1
1 0.794156 1
0 1 1
0.265586 1 1
0.553017 1 1
0.83811 1 1
1 1 1
