public/luts/cool.cube
TITLE "Cool"
LUT_3D_SIZE 17
DOMAIN_MIN 0.0 0.0 0.0
DOMAIN_MAX 1.0 1.0 1.0
0 0.01 0.07289
0.060453 0.01 0.072265
0.121516 0.01 0.071641
0.182579 0.01 0.071016
0.243642 0.01 0.070392
0.304705 0.01 0.069767
0.365768 0.01 0.069143
0.426831 0.01 0.068518
0.487894 0.01 0.067894
0.548957 0.01 0.067269
0.61002 0.01 0.066645
0.671083 0.01 0.06602
0.732146 0.01 0.065396
0.793209 0.01 0.064771
0.854272 0.01 0.064147
0.915335 0.01 0.063522
0.976398 0.01 0.062897
0 0.071875 0.070677
0.05824 0.071875 0.070053
0.119303 0.071875 0.069428
0.180366 0.071875 0.068804
0.241429 0.071875 0.068179
0.302492 0.071875 0.067554
0.363555 0.071875 0.06693
0.424618 0.071875 0.066305
0.485681 0.071875 0.065681
0.546744 0.071875 0.065056
0.607807 0.071875 0.064432
0.66887 0.071875 0.063807
0.729933 0.071875 0.063183
0.790996 0.071875 0.062558
0.852059 0.071875 0.061934
0.913122 0.071875 0.061309
0.974185 0.071875 0.060685
0 0.13375 0.068464
0.056027 0.13375 0.06784
0.11709 0.13375 0.067215
0.178153 0.13375 0.066591
0.239216 0.13375 0.065966
0.300279 0.13375 0.065342
0.361342 0.13375 0.064717
0.422405 0.13375 0.064093
0.483468 0.13375 0.063468
0.544531 0.13375 0.062844
0.605594 0.13375 0.062219
0.666657 0.13375 0.061595
0.72772 0.13375 0.06097
0.788783 0.13375 0.060346
0.849846 0.13375 0.059721
0.910909 0.13375 0.059097
0.971972 0.13375 0.058472
0 0.195625 0.066252
0.053815 0.195625 0.065627
0.114878 0.195625 0.065003
0.175941 0.195625 0.064378
0.237004 0.195625 0.063754
0.298067 0.195625 0.063129
0.35913 0.195625 0.062505
0.420193 0.195625 0.06188
0.481256 0.195625 0.061256
0.542319 0.195625 0.060631
0.603382 0.195625 0.060007
0.664445 0.195625 0.059382
0.725508 0.195625 0.058758
0.786571 0.195625 0.058133
0.847634 0.195625 0.057509
0.908697 0.195625 0.056884
0.96976 0.195625 0.05626
0 0.2575 0.064039
0.051602 0.2575 0.063415
0.112665 0.2575 0.06279
0.173728 0.2575 0.062166
0.234791 0.2575 0.061541
0.295854 0.2575 0.060917
0.356917 0.2575 0.060292
0.41798 0.2575 0.059668
0.479043 0.2575 0.059043
0.540106 0.2575 0.058418
0.601169 0.2575 0.057794
0.662232 0.2575 0.057169
0.723295 0.2575 0.056545
0.784358 0.2575 0.05592
0.845421 0.2575 0.055296
0.906484 0.2575 0.054671
0.967547 0.2575 0.054047
0 0.319375 0.061826
0.049389 0.319375 0.061202
0.110452 0.319375 0.060577
0.171515 0.319375 0.059953
0.232578 0.319375 0.059328
0.293641 0.319375 0.058704
0.354704 0.319375 0.058079
0.415767 0.319375 0.057455
0.47683 0.319375 0.05683
0.537893 0.319375 0.056206
0.598956 0.319375 0.055581
0.660019 0.319375 0.054957
0.721082 0.319375 0.054332
0.782145 0.319375 0.053708
0.843208 0.319375 0.053083
0.904271 0.319375 0.052459
0.965334 0.319375 0.051834
0 0.38125 0.059614
0.047177 0.38125 0.058989
0.10824 0.38125 0.058365
0.169303 0.38125 0.05774
0.230366 0.38125 0.057116
0.291429 0.38125 0.056491
0.352492 0.38125 0.055867
0.413555 0.38125 0.055242
0.474618 0.38125 0.054618
0.535681 0.38125 0.053993
0.596744 0.38125 0.053369
0.657807 0.38125 0.052744
0.71887 0.38125 0.05212
0.779933 0.38125 0.051495
0.840996 0.38125 0.050871
0.902059 0.38125 0.050246
0.963122 0.38125 0.049622
0 0.443125 0.057401
0.044964 0.443125 0.056777
0.106027 0.443125 0.056152
0.16709 0.443125 0.055528
0.228153 0.443125 0.054903
0.289216 0.443125 0.054279
0.350279 0.443125 0.053654
0.411342 0.443125 0.05303
0.472405 0.443125 0.052405
0.533468 0.443125 0.051781
0.594531 0.443125 0.051156
0.655594 0.443125 0.050532
0.716657 0.443125 0.049907
0.77772 0.443125 0.049282
0.838783 0.443125 0.048658
0.899846 0.443125 0.048033
0.960909 0.443125 0.047409
0 0.505 0.055188
0.042751 0.505 0.054564
0.103814 0.505 0.053939
0.164877 0.505 0.053315
0.22594 0.505 0.05269
0.287003 0.505 0.052066
0.348066 0.505 0.051441
0.409129 0.505 0.050817
0.470192 0.505 0.050192
0.531255 0.505 0.049568
0.592318 0.505 0.048943
0.653381 0.505 0.048319
0.714444 0.505 0.047694
0.775507 0.505 0.04707
0.83657 0.505 0.046445
0.897633 0.505 0.045821
0.958696 0.505 0.045196
0 0.566875 0.052976
0.040539 0.566875 0.052351
0.101602 0.566875 0.051727
0.162665 0.566875 0.051102
0.223728 0.566875 0.050478
0.284791 0.566875 0.049853
0.345854 0.566875 0.049229
0.406917 0.566875 0.048604
0.46798 0.566875 0.04798
0.529043 0.566875 0.047355
0.590106 0.566875 0.046731
0.651169 0.566875 0.046106
0.712232 0.566875 0.045482
0.773295 0.566875 0.044857
0.834358 0.566875 0.044233
0.895421 0.566875 0.043608
0.956484 0.566875 0.042984
0 0.62875 0.050763
0.038326 0.62875 0.050139
0.099389 0.62875 0.049514
0.160452 0.62875 0.04889
0.221515 0.62875 0.048265
0.282578 0.62875 0.047641
0.343641 0.62875 0.047016
0.404704 0.62875 0.046392
0.465767 0.62875 0.045767
0.52683 0.62875 0.045143
0.587893 0.62875 0.044518
0.648956 0.62875 0.043894
0.710019 0.62875 0.043269
0.771082 0.62875 0.042645
0.832145 0.62875 0.04202
0.893208 0.62875 0.041396
0.954271 0.62875 0.040771
0 0.690625 0.048551
0.036114 0.690625 0.047926
0.097177 0.690625 0.047302
0.15824 0.690625 0.046677
0.219302 0.690625 0.046052
0.280365 0.690625 0.045428
0.341428 0.690625 0.044803
0.402491 0.690625 0.044179
0.463554 0.690625 0.043554
0.524617 0.690625 0.04293
0.58568 0.690625 0.042305
0.646743 0.690625 0.041681
0.707806 0.690625 0.041056
0.768869 0.690625 0.040432
0.829932 0.690625 0.039807
0.890995 0.690625 0.039183
0.952058 0.690625 0.038558
0 0.7525 0.046338
0.033901 0.7525 0.045713
0.094964 0.7525 0.045089
0.156027 0.7525 0.044464
0.21709 0.7525 0.04384
0.278153 0.7525 0.043215
0.339216 0.7525 0.042591
0.400279 0.7525 0.041966
0.461342 0.7525 0.041342
0.522405 0.7525 0.040717
0.583468 0.7525 0.040093
0.644531 0.7525 0.039468
0.705594 0.7525 0.038844
0.766657 0.7525 0.038219
0.82772 0.7525 0.037595
0.888783 0.7525 0.03697
0.949846 0.7525 0.036346
0 0.814375 0.044125
0.031688 0.814375 0.043501
0.092751 0.814375 0.042876
0.153814 0.814375 0.042252
0.214877 0.814375 0.041627
0.27594 0.814375 0.041003
0.337003 0.814375 0.040378
0.398066 0.814375 0.039754
0.459129 0.814375 0.039129
0.520192 0.814375 0.038505
0.581255 0.814375 0.03788
0.642318 0.814375 0.037256
0.703381 0.814375 0.036631
0.764444 0.814375 0.036007
0.825507 0.814375 0.035382
0.88657 0.814375 0.034758
0.947633 0.814375 0.034133
0 0.87625 0.041913
0.029476 0.87625 0.041288
0.090539 0.87625 0.040664
0.151602 0.87625 0.040039
0.212665 0.87625 0.039415
0.273728 0.87625 0.03879
0.334791 0.87625 0.038166
0.395854 0.87625 0.037541
0.456916 0.87625 0.036916
0.517979 0.87625 0.036292
0.579042 0.87625 0.035667
0.640105 0.87625 0.035043
0.701168 0.87625 0.034418
0.762231 0.87625 0.033794
0.823294 0.87625 0.033169
0.884357 0.87625 0.032545
0.94542 0.87625 0.03192
0 0.938125 0.0397
0.027263 0.938125 0.039075
0.088326 0.938125 0.038451
0.149389 0.938125 0.037826
0.210452 0.938125 0.037202
0.271515 0.938125 0.036577
0.332578 0.938125 0.035953
0.393641 0.938125 0.035328
0.454704 0.938125 0.034704
0.515767 0.938125 0.034079
0.57683 0.938125 0.033455
0.637893 0.938125 0.03283
0.698956 0.938125 0.032206
0.760019 0.938125 0.031581
0.821082 0.938125 0.030957
0.882145 0.938125 0.030332
0.943208 0.938125 0.029708
0 1 0.037487
0.02505 1 0.036863
0.086113 1 0.036238
0.147176 1 0.035614
0.208239 1 0.034989
0.269302 1 0.034365
0.330365 1 0.03374
0.391428 1 0.033116
0.452491 1 0.032491
0.513554 1 0.031867
0.574617 1 0.031242
0.63568 1 0.030618
0.696743 1 0.029993
0.757806 1 0.029369
0.818869 1 0.028744
0.879932 1 0.02812
0.940995 1 0.027495
0 0.01 0.133711
0.060243 0.01 0.133087
0.121306 0.01 0.132462
0.182369 0.01 0.131838
0.243432 0.01 0.131213
0.304495 0.01 0.130589
0.365558 0.01 0.129964
0.426621 0.01 0.12934
0.487684 0.01 0.128715
0.548747 0.01 0.128091
0.60981 0.01 0.127466
0.670873 0.01 0.126841
0.731936 0.01 0.126217
0.792999 0.01 0.125592
0.854062 0.01 0.124968
0.915125 0.01 0.124343
0.976188 0.01 0.123719
0 0.071875 0.131498
0.05803 0.071875 0.130874
0.119093 0.071875 0.130249
0.180156 0.071875 0.129625
0.241219 0.071875 0.129
0.302282 0.071875 0.128376
0.363345 0.071875 0.127751
0.424408 0.071875 0.127127
0.485471 0.071875 0.126502
0.546534 0.071875 0.125878
0.607597 0.071875 0.125253
0.66866 0.071875 0.124629
0.729723 0.071875 0.124004
0.790786 0.071875 0.12338
0.851849 0.071875 0.122755
0.912912 0.071875 0.122131
0.973975 0.071875 0.121506
0 0.13375 0.129286
0.055818 0.13375 0.128661
0.116881 0.13375 0.128037
0.177944 0.13375 0.127412
0.239007 0.13375 0.126788
0.30007 0.13375 0.126163
0.361132 0.13375 0.125539
0.422195 0.13375 0.124914
0.483258 0.13375 0.12429
0.544321 0.13375 0.123665
0.605384 0.13375 0.123041
0.666447 0.13375 0.122416
0.72751 0.13375 0.121792
0.788573 0.13375 0.121167
0.849636 0.13375 0.120543
0.910699 0.13375 0.119918
0.971762 0.13375 0.119294
0 0.195625 0.127073
0.053605 0.195625 0.126449
0.114668 0.195625 0.125824
0.175731 0.195625 0.1252
0.236794 0.195625 0.124575
0.297857 0.195625 0.123951
0.35892 0.195625 0.123326
0.419983 0.195625 0.122702
0.481046 0.195625 0.122077
0.542109 0.195625 0.121453
0.603172 0.195625 0.120828
0.664235 0.195625 0.120204
0.725298 0.195625 0.119579
0.786361 0.195625 0.118955
0.847424 0.195625 0.11833
0.908487 0.195625 0.117705
0.96955 0.195625 0.117081
0 0.2575 0.124861
0.051392 0.2575 0.124236
0.112455 0.2575 0.123611
0.173518 0.2575 0.122987
0.234581 0.2575 0.122362
0.295644 0.2575 0.121738
0.356707 0.2575 0.121113
0.41777 0.2575 0.120489
0.478833 0.2575 0.119864
0.539896 0.2575 0.11924
0.600959 0.2575 0.118615
0.662022 0.2575 0.117991
0.723085 0.2575 0.117366
0.784148 0.2575 0.116742
0.845211 0.2575 0.116117
0.906274 0.2575 0.115493
0.967337 0.2575 0.114868
0 0.319375 0.122648
0.04918 0.319375 0.122023
0.110243 0.319375 0.121399
0.171306 0.319375 0.120774
0.232369 0.319375 0.12015
0.293432 0.319375 0.119525
0.354495 0.319375 0.118901
0.415558 0.319375 0.118276
0.476621 0.319375 0.117652
0.537684 0.319375 0.117027
0.598746 0.319375 0.116403
0.659809 0.319375 0.115778
0.720872 0.319375 0.115154
0.781935 0.319375 0.114529
0.842998 0.319375 0.113905
0.904061 0.319375 0.11328
0.965124 0.319375 0.112656
0 0.38125 0.120435
0.046967 0.38125 0.119811
0.10803 0.38125 0.119186
0.169093 0.38125 0.118562
0.230156 0.38125 0.117937
0.291219 0.38125 0.117313
0.352282 0.38125 0.116688
0.413345 0.38125 0.116064
0.474408 0.38125 0.115439
0.535471 0.38125 0.114815
0.596534 0.38125 0.11419
0.657597 0.38125 0.113566
0.71866 0.38125 0.112941
0.779723 0.38125 0.112317
0.840786 0.38125 0.111692
0.901849 0.38125 0.111068
0.962912 0.38125 0.110443
0 0.443125 0.118223
0.044754 0.443125 0.117598
0.105817 0.443125 0.116974
0.16688 0.443125 0.116349
0.227943 0.443125 0.115725
0.289006 0.443125 0.1151
0.350069 0.443125 0.114475
0.411132 0.443125 0.113851
0.472195 0.443125 0.113226
0.533258 0.443125 0.112602
0.594321 0.443125 0.111977
0.655384 0.443125 0.111353
0.716447 0.443125 0.110728
0.77751 0.443125 0.110104
0.838573 0.443125 0.109479
0.899636 0.443125 0.108855
0.960699 0.443125 0.10823
0 0.505 0.11601
0.042542 0.505 0.115385
0.103605 0.505 0.114761
0.164668 0.505 0.114136
0.225731 0.505 0.113512
0.286794 0.505 0.112887
0.347857 0.505 0.112263
0.40892 0.505 0.111638
0.469983 0.505 0.111014
0.531046 0.505 0.110389
0.592109 0.505 0.109765
0.653172 0.505 0.10914
0.714235 0.505 0.108516
0.775298 0.505 0.107891
0.83636 0.505 0.107267
0.897423 0.505 0.106642
0.958486 0.505 0.106018
0 0.566875 0.113797
0.040329 0.566875 0.113173
0.101392 0.566875 0.112548
0.162455 0.566875 0.111924
0.223518 0.566875 0.111299
0.284581 0.566875 0.110675
0.345644 0.566875 0.11005
0.406707 0.566875 0.109426
0.46777 0.566875 0.108801
0.528833 0.566875 0.108177
0.589896 0.566875 0.107552
0.650959 0.566875 0.106928
0.712022 0.566875 0.106303
0.773085 0.566875 0.105679
0.834148 0.566875 0.105054
0.895211 0.566875 0.10443
0.956274 0.566875 0.103805
0 0.62875 0.111585
0.038116 0.62875 0.11096
0.099179 0.62875 0.110336
0.160242 0.62875 0.109711
0.221305 0.62875 0.109087
0.282368 0.62875 0.108462
0.343431 0.62875 0.107838
0.404494 0.62875 0.107213
0.465557 0.62875 0.106589
0.52662 0.62875 0.105964
0.587683 0.62875 0.105339
0.648746 0.62875 0.104715
0.709809 0.62875 0.10409
0.770872 0.62875 0.103466
0.831935 0.62875 0.102841
0.892998 0.62875 0.102217
0.954061 0.62875 0.101592
0 0.690625 0.109372
0.035904 0.690625 0.108747
0.096967 0.690625 0.108123
0.15803 0.690625 0.107498
0.219093 0.690625 0.106874
0.280156 0.690625 0.106249
0.341219 0.690625 0.105625
0.402282 0.690625 0.105
0.463345 0.690625 0.104376
0.524408 0.690625 0.103751
0.585471 0.690625 0.103127
0.646534 0.690625 0.102502
0.707597 0.690625 0.101878
0.76866 0.690625 0.101253
0.829723 0.690625 0.100629
0.890786 0.690625 0.100004
0.951849 0.690625 0.09938
0 0.7525 0.107159
0.033691 0.7525 0.106535
0.094754 0.7525 0.10591
0.155817 0.7525 0.105286
0.21688 0.7525 0.104661
0.277943 0.7525 0.104037
0.339006 0.7525 0.103412
0.400069 0.7525 0.102788
0.461132 0.7525 0.102163
0.522195 0.7525 0.101539
0.583258 0.7525 0.100914
0.644321 0.7525 0.10029
0.705384 0.7525 0.099665
0.766447 0.7525 0.099041
0.82751 0.7525 0.098416
0.888573 0.7525 0.097792
0.949636 0.7525 0.097167
0 0.814375 0.104947
0.031478 0.814375 0.104322
0.092541 0.814375 0.103698
0.153604 0.814375 0.103073
0.214667 0.814375 0.102449
0.27573 0.814375 0.101824
0.336793 0.814375 0.1012
0.397856 0.814375 0.100575
0.458919 0.814375 0.099951
0.519982 0.814375 0.099326
0.581045 0.814375 0.098702
0.642108 0.814375 0.098077
0.703171 0.814375 0.097453
0.764234 0.814375 0.096828
0.825297 0.814375 0.096203
0.88636 0.814375 0.095579
0.947423 0.814375 0.094954
0 0.87625 0.102734
0.029266 0.87625 0.10211
0.090329 0.87625 0.101485
0.151392 0.87625 0.10086
0.212455 0.87625 0.100236
0.273518 0.87625 0.099611
0.334581 0.87625 0.098987
0.395644 0.87625 0.098362
0.456707 0.87625 0.097738
0.51777 0.87625 0.097113
0.578833 0.87625 0.096489
0.639896 0.87625 0.095864
0.700959 0.87625 0.09524
0.762022 0.87625 0.094615
0.823085 0.87625 0.093991
0.884148 0.87625 0.093366
0.945211 0.87625 0.092742
0 0.938125 0.100521
0.027053 0.938125 0.099897
0.088116 0.938125 0.099272
0.149179 0.938125 0.098648
0.210242 0.938125 0.098023
0.271305 0.938125 0.097399
0.332368 0.938125 0.096774
0.393431 0.938125 0.09615
0.454494 0.938125 0.095525
0.515557 0.938125 0.094901
0.57662 0.938125 0.094276
0.637683 0.938125 0.093652
0.698746 0.938125 0.093027
0.759809 0.938125 0.092403
0.820872 0.938125 0.091778
0.881935 0.938125 0.091154
0.942998 0.938125 0.090529
0 1 0.098309
0.02484 1 0.097684
0.085903 1 0.09706
0.146966 1 0.096435
0.208029 1 0.095811
0.269092 1 0.095186
0.330155 1 0.094562
0.391218 1 0.093937
0.452281 1 0.093313
0.513344 1 0.092688
0.574407 1 0.092064
0.63547 1 0.091439
0.696533 1 0.090815
0.757596 1 0.09019
0.818659 1 0.089566
0.879722 1 0.088941
0.940785 1 0.088317
0 0.01 0.194533
0.060033 0.01 0.193908
0.121096 0.01 0.193284
0.182159 0.01 0.192659
0.243222 0.01 0.192034
0.304285 0.01 0.19141
0.365348 0.01 0.190785
0.426411 0.01 0.190161
0.487474 0.01 0.189536
0.548537 0.01 0.188912
0.6096 0.01 0.188287
0.670663 0.01 0.187663
0.731726 0.01 0.187038
0.792789 0.01 0.186414
0.853852 0.01 0.185789
0.914915 0.01 0.185165
0.975978 0.01 0.18454
0 0.071875 0.19232
0.05782 0.071875 0.191695
0.118883 0.071875 0.191071
0.179946 0.071875 0.190446
0.241009 0.071875 0.189822
0.302072 0.071875 0.189197
0.363135 0.071875 0.188573
0.424198 0.071875 0.187948
0.485261 0.071875 0.187324
0.546324 0.071875 0.186699
0.607387 0.071875 0.186075
0.66845 0.071875 0.18545
0.729513 0.071875 0.184826
0.790576 0.071875 0.184201
0.851639 0.071875 0.183577
0.912702 0.071875 0.182952
0.973765 0.071875 0.182328
0 0.13375 0.190107
0.055608 0.13375 0.189483
0.116671 0.13375 0.188858
0.177734 0.13375 0.188234
0.238797 0.13375 0.187609
0.29986 0.13375 0.186985
0.360923 0.13375 0.18636
0.421986 0.13375 0.185736
0.483049 0.13375 0.185111
0.544112 0.13375 0.184487
0.605175 0.13375 0.183862
0.666238 0.13375 0.183238
0.727301 0.13375 0.182613
0.788364 0.13375 0.181989
0.849427 0.13375 0.181364
0.91049 0.13375 0.18074
0.971553 0.13375 0.180115
0 0.195625 0.187895
0.053395 0.195625 0.18727
0.114458 0.195625 0.186646
0.175521 0.195625 0.186021
0.236584 0.195625 0.185397
0.297647 0.195625 0.184772
0.35871 0.195625 0.184148
0.419773 0.195625 0.183523
0.480836 0.195625 0.182898
0.541899 0.195625 0.182274
0.602962 0.195625 0.181649
0.664025 0.195625 0.181025
0.725088 0.195625 0.1804
0.786151 0.195625 0.179776
0.847214 0.195625 0.179151
0.908277 0.195625 0.178527
0.96934 0.195625 0.177902
0 0.2575 0.185682
0.051182 0.2575 0.185057
0.112245 0.2575 0.184433
0.173308 0.2575 0.183808
0.234371 0.2575 0.183184
0.295434 0.2575 0.182559
0.356497 0.2575 0.181935
0.41756 0.2575 0.18131
0.478623 0.2575 0.180686
0.539686 0.2575 0.180061
0.600749 0.2575 0.179437
0.661812 0.2575 0.178812
0.722875 0.2575 0.178188
0.783938 0.2575 0.177563
0.845001 0.2575 0.176939
0.906064 0.2575 0.176314
0.967127 0.2575 0.17569
0 0.319375 0.183469
0.04897 0.319375 0.182845
0.110033 0.319375 0.18222
0.171096 0.319375 0.181596
0.232159 0.319375 0.180971
0.293222 0.319375 0.180347
0.354285 0.319375 0.179722
0.415348 0.319375 0.179098
0.476411 0.319375 0.178473
0.537474 0.319375 0.177849
0.598537 0.319375 0.177224
0.6596 0.319375 0.1766
0.720663 0.319375 0.175975
0.781726 0.319375 0.175351
0.842789 0.319375 0.174726
0.903852 0.319375 0.174102
0.964915 0.319375 0.173477
0 0.38125 0.181257
0.046757 0.38125 0.180632
0.10782 0.38125 0.180008
0.168883 0.38125 0.179383
0.229946 0.38125 0.178759
0.291009 0.38125 0.178134
0.352072 0.38125 0.17751
0.413135 0.38125 0.176885
0.474198 0.38125 0.176261
0.535261 0.38125 0.175636
0.596324 0.38125 0.175012
0.657387 0.38125 0.174387
0.71845 0.38125 0.173762
0.779513 0.38125 0.173138
0.840576 0.38125 0.172513
0.901639 0.38125 0.171889
0.962702 0.38125 0.171264
0 0.443125 0.179044
0.044544 0.443125 0.178419
0.105607 0.443125 0.177795
0.16667 0.443125 0.17717
0.227733 0.443125 0.176546
0.288796 0.443125 0.175921
0.349859 0.443125 0.175297
0.410922 0.443125 0.174672
0.471985 0.443125 0.174048
0.533048 0.443125 0.173423
0.594111 0.443125 0.172799
0.655174 0.443125 0.172174
0.716237 0.443125 0.17155
0.7773 0.443125 0.170925
0.838363 0.443125 0.170301
0.899426 0.443125 0.169676
0.960489 0.443125 0.169052
0 0.505 0.176831
0.042332 0.505 0.176207
0.103395 0.505 0.175582
0.164458 0.505 0.174958
0.225521 0.505 0.174333
0.286584 0.505 0.173709
0.347647 0.505 0.173084
0.40871 0.505 0.17246
0.469773 0.505 0.171835
0.530836 0.505 0.171211
0.591899 0.505 0.170586
0.652962 0.505 0.169962
0.714025 0.505 0.169337
0.775088 0.505 0.168713
0.836151 0.505 0.168088
0.897214 0.505 0.167464
0.958277 0.505 0.166839
0 0.566875 0.174619
0.040119 0.566875 0.173994
0.101182 0.566875 0.17337
0.162245 0.566875 0.172745
0.223308 0.566875 0.172121
0.284371 0.566875 0.171496
0.345434 0.566875 0.170872
0.406497 0.566875 0.170247
0.46756 0.566875 0.169623
0.528623 0.566875 0.168998
0.589686 0.566875 0.168374
0.650749 0.566875 0.167749
0.711812 0.566875 0.167125
0.772875 0.566875 0.1665
0.833938 0.566875 0.165876
0.895001 0.566875 0.165251
0.956064 0.566875 0.164626
0 0.62875 0.172406
0.037907 0.62875 0.171782
0.09897 0.62875 0.171157
0.160032 0.62875 0.170532
0.221095 0.62875 0.169908
0.282158 0.62875 0.169283
0.343221 0.62875 0.168659
0.404284 0.62875 0.168034
0.465347 0.62875 0.16741
0.52641 0.62875 0.166785
0.587473 0.62875 0.166161
0.648536 0.62875 0.165536
0.709599 0.62875 0.164912
0.770662 0.62875 0.164287
0.831725 0.62875 0.163663
0.892788 0.62875 0.163038
0.953851 0.62875 0.162414
0 0.690625 0.170193
0.035694 0.690625 0.169569
0.096757 0.690625 0.168944
0.15782 0.690625 0.16832
0.218883 0.690625 0.167695
0.279946 0.690625 0.167071
0.341009 0.690625 0.166446
0.402072 0.690625 0.165822
0.463135 0.690625 0.165197
0.524198 0.690625 0.164573
0.585261 0.690625 0.163948
0.646324 0.690625 0.163324
0.707387 0.690625 0.162699
0.76845 0.690625 0.162075
0.829513 0.690625 0.16145
0.890576 0.690625 0.160826
0.951639 0.690625 0.160201
0 0.7525 0.167981
0.033481 0.7525 0.167356
0.094544 0.7525 0.166732
0.155607 0.7525 0.166107
0.21667 0.7525 0.165483
0.277733 0.7525 0.164858
0.338796 0.7525 0.164234
0.399859 0.7525 0.163609
0.460922 0.7525 0.162985
0.521985 0.7525 0.16236
0.583048 0.7525 0.161736
0.644111 0.7525 0.161111
0.705174 0.7525 0.160487
0.766237 0.7525 0.159862
0.8273 0.7525 0.159238
0.888363 0.7525 0.158613
0.949426 0.7525 0.157989
0 0.814375 0.165768
0.031269 0.814375 0.165144
0.092332 0.814375 0.164519
0.153395 0.814375 0.163895
0.214458 0.814375 0.16327
0.275521 0.814375 0.162646
0.336584 0.814375 0.162021
0.397647 0.814375 0.161396
0.458709 0.814375 0.160772
0.519772 0.814375 0.160147
0.580835 0.814375 0.159523
0.641898 0.814375 0.158898
0.702961 0.814375 0.158274
0.764024 0.814375 0.157649
0.825087 0.814375 0.157025
0.88615 0.814375 0.1564
0.947213 0.814375 0.155776
0 0.87625 0.163555
0.029056 0.87625 0.162931
0.090119 0.87625 0.162306
0.151182 0.87625 0.161682
0.212245 0.87625 0.161057
0.273308 0.87625 0.160433
0.334371 0.87625 0.159808
0.395434 0.87625 0.159184
0.456497 0.87625 0.158559
0.51756 0.87625 0.157935
0.578623 0.87625 0.15731
0.639686 0.87625 0.156686
0.700749 0.87625 0.156061
0.761812 0.87625 0.155437
0.822875 0.87625 0.154812
0.883938 0.87625 0.154188
0.945001 0.87625 0.153563
0 0.938125 0.161343
0.026843 0.938125 0.160718
0.087906 0.938125 0.160094
0.148969 0.938125 0.159469
0.210032 0.938125 0.158845
0.271095 0.938125 0.15822
0.332158 0.938125 0.157596
0.393221 0.938125 0.156971
0.454284 0.938125 0.156347
0.515347 0.938125 0.155722
0.57641 0.938125 0.155098
0.637473 0.938125 0.154473
0.698536 0.938125 0.153849
0.759599 0.938125 0.153224
0.820662 0.938125 0.1526
0.881725 0.938125 0.151975
0.942788 0.938125 0.151351
0 1 0.15913
0.024631 1 0.158506
0.085694 1 0.157881
0.146757 1 0.157257
0.20782 1 0.156632
0.268883 1 0.156008
0.329946 1 0.155383
0.391009 1 0.154759
0.452072 1 0.154134
0.513135 1 0.15351
0.574198 1 0.152885
0.635261 1 0.15226
0.696323 1 0.151636
0.757386 1 0.151011
0.818449 1 0.150387
0.879512 1 0.149762
0.940575 1 0.149138
0 0.01 0.255354
0.059823 0.01 0.254729
0.120886 0.01 0.254105
0.181949 0.01 0.25348
0.243012 0.01 0.252856
0.304075 0.01 0.252231
0.365138 0.01 0.251607
0.426201 0.01 0.250982
0.487264 0.01 0.250358
0.548327 0.01 0.249733
0.60939 0.01 0.249109
0.670453 0.01 0.248484
0.731516 0.01 0.24786
0.792579 0.01 0.247235
0.853642 0.01 0.246611
0.914705 0.01 0.245986
0.975768 0.01 0.245362
0 0.071875 0.253141
0.057611 0.071875 0.252517
0.118674 0.071875 0.251892
0.179737 0.071875 0.251268
0.2408 0.071875 0.250643
0.301862 0.071875 0.250019
0.362925 0.071875 0.249394
0.423988 0.071875 0.24877
0.485051 0.071875 0.248145
0.546114 0.071875 0.247521
0.607177 0.071875 0.246896
0.66824 0.071875 0.246272
0.729303 0.071875 0.245647
0.790366 0.071875 0.245023
0.851429 0.071875 0.244398
0.912492 0.071875 0.243774
