public/luts/cool.cube
TITLE "Cool"
LUT_3D_SIZE 9
DOMAIN_MIN 0.0 0.0 0.0
DOMAIN_MAX 1.0 1.0 1.0
0 0.01 0.07289
0.121516 0.01 0.071641
0.243642 0.01 0.070392
0.365768 0.01 0.069143
0.487894 0.01 0.067894
0.61002 0.01 0.066645
0.732146 0.01 0.065396
0.854272 0.01 0.064147
0.976398 0.01 0.062897
0 0.13375 0.068464
0.11709 0.13375 0.067215
0.239216 0.13375 0.065966
0.361342 0.13375 0.064717
0.483468 0.13375 0.063468
0.605594 0.13375 0.062219
0.72772 0.13375 0.06097
0.849846 0.13375 0.059721
0.971972 0.13375 0.058472
0 0.2575 0.064039
0.112665 0.2575 0.06279
0.234791 0.2575 0.061541
0.356917 0.2575 0.060292
0.479043 0.2575 0.059043
0.601169 0.2575 0.057794
0.723295 0.2575 0.056545
0.845421 0.2575 0.055296
0.967547 0.2575 0.054047
0 0.38125 0.059614
0.10824 0.38125 0.058365
0.230366 0.38125 0.057116
0.352492 0.38125 0.055867
0.474618 0.38125 0.054618
0.596744 0.38125 0.053369
0.71887 0.38125 0.05212
0.840996 0.38125 0.050871
0.963122 0.38125 0.049622
0 0.505 0.055188
0.103814 0.505 0.053939
0.22594 0.505 0.05269
0.348066 0.505 0.051441
0.470192 0.505 0.050192
0.592318 0.505 0.048943
0.714444 0.505 0.047694
0.83657 0.505 0.046445
0.958696 0.505 0.045196
0 0.62875 0.050763
0.099389 0.62875 0.049514
0.221515 0.62875 0.048265
0.343641 0.62875 0.047016
0.465767 0.62875 0.045767
0.587893 0.62875 0.044518
0.710019 0.62875 0.043269
0.832145 0.62875 0.04202
0.954271 0.62875 0.040771
0 0.7525 0.046338
0.094964 0.7525 0.045089
0.21709 0.7525 0.04384
0.339216 0.7525 0.042591
0.461342 0.7525 0.041342
0.583468 0.7525 0.040093
0.705594 0.7525 0.038844
0.82772 0.7525 0.037595
0.949846 0.7525 0.036346
0 0.87625 0.041913
0.090539 0.87625 0.040664
0.212665 0.87625 0.039415
0.334791 0.87625 0.038166
0.456916 0.87625 0.036916
0.579042 0.87625 0.035667
0.701168 0.87625 0.034418
0.823294 0.87625 0.033169
0.94542 0.87625 0.03192
0 1 0.037487
0.086113 1 0.036238
0.208239 1 0.034989
0.330365 1 0.03374
0.452491 1 0.032491
0.574617 1 0.031242
0.696743 1 0.029993
0.818869 1 0.028744
0.940995 1 0.027495
0 0.01 0.194533
0.121096 0.01 0.193284
0.243222 0.01 0.192034
0.365348 0.01 0.190785
0.487474 0.01 0.189536
0.6096 0.01 0.188287
0.731726 0.01 0.187038
0.853852 0.01 0.185789
0.975978 0.01 0.18454
0 0.13375 0.190107
0.116671 0.13375 0.188858
0.238797 0.13375 0.187609
0.360923 0.13375 0.18636
0.483049 0.13375 0.185111
0.605175 0.13375 0.183862
0.727301 0.13375 0.182613
0.849427 0.13375 0.181364
0.971553 0.13375 0.180115
0 0.2575 0.185682
0.112245 0.2575 0.184433
0.234371 0.2575 0.183184
0.356497 0.2575 0.181935
0.478623 0.2575 0.180686
0.600749 0.2575 0.179437
0.722875 0.2575 0.178188
0.845001 0.2575 0.176939
0.967127 0.2575 0.17569
0 0.38125 0.181257
0.10782 0.38125 0.180008
0.229946 0.38125 0.178759
0.352072 0.38125 0.17751
0.474198 0.38125 0.176261
0.596324 0.38125 0.175012
0.71845 0.38125 0.173762
0.840576 0.38125 0.172513
0.962702 0.38125 0.171264
0 0.505 0.176831
0.103395 0.505 0.175582
0.225521 0.505 0.174333
0.347647 0.505 0.173084
0.469773 0.505 0.171835
0.591899 0.505 0.170586
0.714025 0.505 0.169337
0.836151 0.505 0.168088
0.958277 0.505 0.166839
0 0.62875 0.172406
0.09897 0.62875 0.171157
0.221095 0.62875 0.169908
0.343221 0.62875 0.168659
0.465347 0.62875 0.16741
0.587473 0.62875 0.166161
0.709599 0.62875 0.164912
0.831725 0.62875 0.163663
0.953851 0.62875 0.162414
0 0.7525 0.167981
0.094544 0.7525 0.166732
0.21667 0.7525 0.165483
0.338796 0.7525 0.164234
0.460922 0.7525 0.162985
0.583048 0.7525 0.161736
0.705174 0.7525 0.160487
0.8273 0.7525 0.159238
0.949426 0.7525 0.157989
0 0.87625 0.163555
0.090119 0.87625 0.162306
0.212245 0.87625 0.161057
0.334371 0.87625 0.159808
0.456497 0.87625 0.158559
0.578623 0.87625 0.15731
0.700749 0.87625 0.156061
0.822875 0.87625 0.154812
0.945001 0.87625 0.153563
0 1 0.15913
0.085694 1 0.157881
0.20782 1 0.156632
0.329946 1 0.155383
0.452072 1 0.154134
0.574198 1 0.152885
0.696323 1 0.151636
0.818449 1 0.150387
0.940575 1 0.149138
0 0.01 0.316175
0.120676 0.01 0.314926
0.242802 0.01 0.313677
0.364928 0.01 0.312428
0.487054 0.01 0.311179
0.60918 0.01 0.30993
0.731306 0.01 0.308681
0.853432 0.01 0.307432
0.975558 0.01 0.306183
0 0.13375 0.31175
0.116251 0.13375 0.310501
0.238377 0.13375 0.309252
0.360503 0.13375 0.308003
0.482629 0.13375 0.306754
0.604755 0.13375 0.305505
0.726881 0.13375 0.304256
0.849007 0.13375 0.303007
0.971133 0.13375 0.301758
0 0.2575 0.307325
0.111826 0.2575 0.306076
0.233952 0.2575 0.304827
0.356078 0.2575 0.303578
0.478204 0.2575 0.302329
0.60033 0.2575 0.30108
0.722456 0.2575 0.299831
0.844582 0.2575 0.298582
0.966708 0.2575 0.297333
0 0.38125 0.302899
0.1074 0.38125 0.30165
0.229526 0.38125 0.300401
0.351652 0.38125 0.299152
0.473778 0.38125 0.297903
0.595904 0.38125 0.296654
0.71803 0.38125 0.295405
0.840156 0.38125 0.294156
0.962282 0.38125 0.292907
0 0.505 0.298474
0.102975 0.505 0.297225
0.225101 0.505 0.295976
0.347227 0.505 0.294727
0.469353 0.505 0.293478
0.591479 0.505 0.292229
0.713605 0.505 0.29098
0.835731 0.505 0.289731
0.957857 0.505 0.288482
0 0.62875 0.294049
0.09855 0.62875 0.2928
0.220676 0.62875 0.291551
0.342802 0.62875 0.290302
0.464928 0.62875 0.289053
0.587054 0.62875 0.287804
0.70918 0.62875 0.286555
0.831306 0.62875 0.285306
0.953432 0.62875 0.284057
0 0.7525 0.289624
0.094125 0.7525 0.288375
0.216251 0.7525 0.287126
0.338376 0.7525 0.285876
0.460502 0.7525 0.284627
0.582628 0.7525 0.283378
0.704754 0.7525 0.282129
0.82688 0.7525 0.28088
0.949006 0.7525 0.279631
0 0.87625 0.285198
0.089699 0.87625 0.283949
0.211825 0.87625 0.2827
0.333951 0.87625 0.281451
0.456077 0.87625 0.280202
0.578203 0.87625 0.278953
0.700329 0.87625 0.277704
0.822455 0.87625 0.276455
0.944581 0.87625 0.275206
0 1 0.280773
0.085274 1 0.279524
0.2074 1 0.278275
0.329526 1 0.277026
0.451652 1 0.275777
0.573778 1 0.274528
0.695904 1 0.273279
0.81803 1 0.27203
0.940156 1 0.270781
0 0.01 0.437818
0.120257 0.01 0.436569
0.242383 0.01 0.43532
0.364509 0.01 0.434071
0.486635 0.01 0.432822
0.608761 0.01 0.431573
0.730887 0.01 0.430324
0.853013 0.01 0.429075
0.975139 0.01 0.427826
0 0.13375 0.433393
0.115831 0.13375 0.432144
0.237957 0.13375 0.430895
0.360083 0.13375 0.429646
0.482209 0.13375 0.428397
0.604335 0.13375 0.427148
0.726461 0.13375 0.425899
0.848587 0.13375 0.42465
0.970713 0.13375 0.423401
0 0.2575 0.428968
0.111406 0.2575 0.427719
0.233532 0.2575 0.42647
0.355658 0.2575 0.425221
0.477784 0.2575 0.423972
0.59991 0.2575 0.422722
0.722036 0.2575 0.421473
0.844162 0.2575 0.420224
0.966288 0.2575 0.418975
0 0.38125 0.424542
0.106981 0.38125 0.423293
0.229107 0.38125 0.422044
0.351233 0.38125 0.420795
0.473359 0.38125 0.419546
0.595485 0.38125 0.418297
0.717611 0.38125 0.417048
0.839737 0.38125 0.415799
0.961863 0.38125 0.41455
0 0.505 0.420117
0.102555 0.505 0.418868
0.224681 0.505 0.417619
0.346807 0.505 0.41637
0.468933 0.505 0.415121
0.591059 0.505 0.413872
0.713185 0.505 0.412623
0.835311 0.505 0.411374
0.957437 0.505 0.410125
0 0.62875 0.415692
0.09813 0.62875 0.414443
0.220256 0.62875 0.413194
0.342382 0.62875 0.411945
0.464508 0.62875 0.410696
0.586634 0.62875 0.409447
0.70876 0.62875 0.408198
0.830886 0.62875 0.406949
0.953012 0.62875 0.4057
0 0.7525 0.411266
0.093705 0.7525 0.410017
0.215831 0.7525 0.408768
0.337957 0.7525 0.407519
0.460083 0.7525 0.40627
0.582209 0.7525 0.405021
0.704335 0.7525 0.403772
0.826461 0.7525 0.402523
0.948587 0.7525 0.401274
0 0.87625 0.406841
0.08928 0.87625 0.405592
0.211406 0.87625 0.404343
0.333532 0.87625 0.403094
0.455658 0.87625 0.401845
0.577783 0.87625 0.400596
0.699909 0.87625 0.399347
0.822035 0.87625 0.398098
0.944161 0.87625 0.396849
0 1 0.402416
0.084854 1 0.401167
0.20698 1 0.399918
0.329106 1 0.398669
0.451232 1 0.39742
0.573358 1 0.396171
0.695484 1 0.394922
0.81761 1 0.393673
0.939736 1 0.392424
0 0.01 0.559461
0.119837 0.01 0.558212
0.241963 0.01 0.556963
0.364089 0.01 0.555714
0.486215 0.01 0.554465
0.608341 0.01 0.553216
0.730467 0.01 0.551967
0.852593 0.01 0.550718
0.974719 0.01 0.549469
0 0.13375 0.555036
0.115412 0.13375 0.553787
0.237538 0.13375 0.552538
0.359664 0.13375 0.551289
0.48179 0.13375 0.55004
0.603916 0.13375 0.548791
0.726042 0.13375 0.547542
0.848168 0.13375 0.546293
0.970294 0.13375 0.545044
0 0.2575 0.55061
0.110986 0.2575 0.549361
0.233112 0.2575 0.548112
0.355238 0.2575 0.546863
0.477364 0.2575 0.545614
0.59949 0.2575 0.544365
0.721616 0.2575 0.543116
0.843742 0.2575 0.541867
0.965868 0.2575 0.540618
0 0.38125 0.546185
0.106561 0.38125 0.544936
0.228687 0.38125 0.543687
0.350813 0.38125 0.542438
0.472939 0.38125 0.541189
0.595065 0.38125 0.53994
0.717191 0.38125 0.538691
0.839317 0.38125 0.537442
0.961443 0.38125 0.536193
0 0.505 0.54176
0.102136 0.505 0.540511
0.224262 0.505 0.539262
0.346388 0.505 0.538013
0.468514 0.505 0.536764
0.59064 0.505 0.535515
0.712766 0.505 0.534266
0.834892 0.505 0.533017
0.957018 0.505 0.531768
0 0.62875 0.537335
0.097711 0.62875 0.536086
0.219836 0.62875 0.534837
0.341962 0.62875 0.533587
0.464088 0.62875 0.532338
0.586214 0.62875 0.531089
0.70834 0.62875 0.52984
0.830466 0.62875 0.528591
0.952592 0.62875 0.527342
0 0.7525 0.532909
0.093285 0.7525 0.53166
0.215411 0.7525 0.530411
0.337537 0.7525 0.529162
0.459663 0.7525 0.527913
0.581789 0.7525 0.526664
0.703915 0.7525 0.525415
0.826041 0.7525 0.524166
0.948167 0.7525 0.522917
0 0.87625 0.528484
0.08886 0.87625 0.527235
0.210986 0.87625 0.525986
0.333112 0.87625 0.524737
0.455238 0.87625 0.523488
0.577364 0.87625 0.522239
0.69949 0.87625 0.52099
0.821616 0.87625 0.519741
0.943742 0.87625 0.518492
0 1 0.524059
0.084435 1 0.52281
0.206561 1 0.521561
0.328687 1 0.520312
0.450813 1 0.519063
0.572939 1 0.517814
0.695064 1 0.516565
0.81719 1 0.515315
0.939316 1 0.514066
0 0.01 0.681104
0.119417 0.01 0.679855
0.241543 0.01 0.678606
0.363669 0.01 0.677357
0.485795 0.01 0.676108
0.607921 0.01 0.674859
0.730047 0.01 0.67361
0.852173 0.01 0.672361
0.974299 0.01 0.671112
0 0.13375 0.676679
0.114992 0.13375 0.67543
0.237118 0.13375 0.674181
0.359244 0.13375 0.672932
0.48137 0.13375 0.671682
0.603496 0.13375 0.670433
0.725622 0.13375 0.669184
0.847748 0.13375 0.667935
0.969874 0.13375 0.666686
0 0.2575 0.672253
0.110567 0.2575 0.671004
0.232693 0.2575 0.669755
0.354819 0.2575 0.668506
0.476945 0.2575 0.667257
0.599071 0.2575 0.666008
0.721197 0.2575 0.664759
0.843323 0.2575 0.66351
0.965449 0.2575 0.662261
0 0.38125 0.667828
0.106141 0.38125 0.666579
0.228267 0.38125 0.66533
0.350393 0.38125 0.664081
0.472519 0.38125 0.662832
0.594645 0.38125 0.661583
0.716771 0.38125 0.660334
0.838897 0.38125 0.659085
0.961023 0.38125 0.657836
0 0.505 0.663403
0.101716 0.505 0.662154
0.223842 0.505 0.660905
0.345968 0.505 0.659656
0.468094 0.505 0.658407
0.59022 0.505 0.657158
0.712346 0.505 0.655909
0.834472 0.505 0.65466
0.956598 0.505 0.65341
0 0.62875 0.658977
0.097291 0.62875 0.657728
0.219417 0.62875 0.656479
0.341543 0.62875 0.65523
0.463669 0.62875 0.653981
0.585795 0.62875 0.652732
0.707921 0.62875 0.651483
0.830047 0.62875 0.650234
0.952173 0.62875 0.648985
0 0.7525 0.654552
0.092866 0.7525 0.653303
0.214992 0.7525 0.652054
0.337118 0.7525 0.650805
0.459243 0.7525 0.649556
0.581369 0.7525 0.648307
0.703495 0.7525 0.647058
0.825621 0.7525 0.645809
0.947747 0.7525 0.64456
0 0.87625 0.650127
0.08844 0.87625 0.648878
0.210566 0.87625 0.647629
0.332692 0.87625 0.64638
0.454818 0.87625 0.645131
0.576944 0.87625 0.643882
0.69907 0.87625 0.642633
0.821196 0.87625 0.641384
0.943322 0.87625 0.640135
0 1 0.645701
0.084015 1 0.644452
0.206141 1 0.643203
0.328267 1 0.641954
0.450393 1 0.640705
0.572519 1 0.639456
0.694645 1 0.638207
0.816771 1 0.636958
0.938897 1 0.635709
0 0.01 0.802747
0.118998 0.01 0.801498
0.241124 0.01 0.800249
0.36325 0.01 0.799
0.485376 0.01 0.797751
0.607502 0.01 0.796502
0.729628 0.01 0.795253
0.851754 0.01 0.794004
0.97388 0.01 0.792755
0 0.13375 0.798321
0.114572 0.13375 0.797072
0.236698 0.13375 0.795823
0.358824 0.13375 0.794574
0.48095 0.13375 0.793325
0.603076 0.13375 0.792076
0.725202 0.13375 0.790827
0.847328 0.13375 0.789578
0.969454 0.13375 0.788329
0 0.2575 0.793896
0.110147 0.2575 0.792647
0.232273 0.2575 0.791398
0.354399 0.2575 0.790149
0.476525 0.2575 0.7889
0.598651 0.2575 0.787651
0.720777 0.2575 0.786402
0.842903 0.2575 0.785153
0.965029 0.2575 0.783904
0 0.38125 0.789471
0.105722 0.38125 0.788222
0.227848 0.38125 0.786973
0.349974 0.38125 0.785724
0.4721 0.38125 0.784475
0.594226 0.38125 0.783226
0.716352 0.38125 0.781977
0.838478 0.38125 0.780728
0.960604 0.38125 0.779479
0 0.505 0.785046
0.101296 0.505 0.783797
0.223422 0.505 0.782547
0.345548 0.505 0.781298
0.467674 0.505 0.780049
0.5898 0.505 0.7788
0.711926 0.505 0.777551
0.834052 0.505 0.776302
0.956178 0.505 0.775053
0 0.62875 0.78062
0.096871 0.62875 0.779371
0.218997 0.62875 0.778122
0.341123 0.62875 0.776873
0.463249 0.62875 0.775624
0.585375 0.62875 0.774375
0.707501 0.62875 0.773126
0.829627 0.62875 0.771877
0.951753 0.62875 0.770628
0 0.7525 0.776195
0.092446 0.7525 0.774946
0.214572 0.7525 0.773697
0.336698 0.7525 0.772448
0.458824 0.7525 0.771199
0.58095 0.7525 0.76995
0.703076 0.7525 0.768701
0.825202 0.7525 0.767452
0.947328 0.7525 0.766203
0 0.87625 0.77177
0.088021 0.87625 0.770521
0.210147 0.87625 0.769272
0.332273 0.87625 0.768023
0.454399 0.87625 0.766774
0.576524 0.87625 0.765524
0.69865 0.87625 0.764275
0.820776 0.87625 0.763026
0.942902 0.87625 0.761777
0 1 0.767344
0.083595 1 0.766095
0.205721 1 0.764846
0.327847 1 0.763597
0.449973 1 0.762348
0.572099 1 0.761099
0.694225 1 0.75985
0.816351 1 0.758601
0.938477 1 0.757352
0 0.01 0.92439
0.118578 0.01 0.923141
0.240704 0.01 0.921892
0.36283 0.01 0.920642
0.484956 0.01 0.919393
0.607082 0.01 0.918144
0.729208 0.01 0.916895
0.851334 0.01 0.915646
0.97346 0.01 0.914397
0 0.13375 0.919964
0.114153 0.13375 0.918715
0.236279 0.13375 0.917466
0.358405 0.13375 0.916217
0.480531 0.13375 0.914968
0.602657 0.13375 0.913719
0.724783 0.13375 0.91247
0.846909 0.13375 0.911221
0.969035 0.13375 0.909972
0 0.2575 0.915539
0.109727 0.2575 0.91429
0.231853 0.2575 0.913041
0.353979 0.2575 0.911792
0.476105 0.2575 0.910543
0.598231 0.2575 0.909294
0.720357 0.2575 0.908045
0.842483 0.2575 0.906796
0.964609 0.2575 0.905547
0 0.38125 0.911114
0.105302 0.38125 0.909865
0.227428 0.38125 0.908616
0.349554 0.38125 0.907367
0.47168 0.38125 0.906118
0.593806 0.38125 0.904869
0.715932 0.38125 0.90362
0.838058 0.38125 0.90237
0.960184 0.38125 0.901121
0 0.505 0.906688
0.100877 0.505 0.905439
0.223003 0.505 0.90419
0.345129 0.505 0.902941
0.467255 0.505 0.901692
0.589381 0.505 0.900443
0.711507 0.505 0.899194
0.833633 0.505 0.897945
0.955759 0.505 0.896696
0 0.62875 0.902263
0.096452 0.62875 0.901014
0.218578 0.62875 0.899765
0.340703 0.62875 0.898516
0.462829 0.62875 0.897267
0.584955 0.62875 0.896018
0.707081 0.62875 0.894769
0.829207 0.62875 0.89352
0.951333 0.62875 0.892271
0 0.7525 0.897838
0.092026 0.7525 0.896589
0.214152 0.7525 0.89534
0.336278 0.7525 0.894091
0.458404 0.7525 0.892842
0.58053 0.7525 0.891593
0.702656 0.7525 0.890344
0.824782 0.7525 0.889095
0.946908 0.7525 0.887846
0 0.87625 0.893412
0.087601 0.87625 0.892163
0.209727 0.87625 0.890914
0.331853 0.87625 0.889665
0.453979 0.87625 0.888416
0.576105 0.87625 0.887167
0.698231 0.87625 0.885918
0.820357 0.87625 0.884669
0.942483 0.87625 0.88342
0 1 0.888987
0.083176 1 0.887738
0.205302 1 0.886489
0.327428 1 0.88524
0.449554 1 0.883991
0.57168 1 0.882742
0.693806 1 0.881493
0.815931 1 0.880244
0.938057 1 0.878995
0 0.01 1
0.118158 0.01 1
0.240284 0.01 1
0.36241 0.01 1
0.484536 0.01 1
0.606662 0.01 1
0.728788 0.01 1
0.850914 0.01 1
0.97304 0.01 1
0 0.13375 1
0.113733 0.13375 1
0.235859 0.13375 1
0.357985 0.13375 1
0.480111 0.13375 1
0.602237 0.13375 1
0.724363 0.13375 1
0.846489 0.13375 1
0.968615 0.13375 1
0 0.2575 1
0.109308 0.2575 1
0.231434 0.2575 1
0.35356 0.2575 1
0.475686 0.2575 1
0.597812 0.2575 1
0.719938 0.2575 1
0.842064 0.2575 1
0.96419 0.2575 1
0 0.38125 1
0.104882 0.38125 1
0.227008 0.38125 1
0.349134 0.38125 1
0.47126 0.38125 1
0.593386 0.38125 1
0.715512 0.38125 1
0.837638 0.38125 1
0.959764 0.38125 1
0 0.505 1
0.100457 0.505 1
0.222583 0.505 1
0.344709 0.505 1
0.466835 0.505 1
0.588961 0.505 1
0.711087 0.505 1
0.833213 0.505 1
0.955339 0.505 1
0 0.62875 1
0.096032 0.62875 1
0.218158 0.62875 1
0.340284 0.62875 1
0.46241 0.62875 1
0.584536 0.62875 1
0.706662 0.62875 1
0.828788 0.62875 1
0.950914 0.62875 1
0 0.7525 1
0.091607 0.7525 1
0.213733 0.7525 1
0.335859 0.7525 1
0.457984 0.7525 1
0.58011 0.7525 1
0.702236 0.7525 1
0.824362 0.7525 1
0.946488 0.7525 1
0 0.87625 1
0.087181 0.87625 1
0.209307 0.87625 1
0.331433 0.87625 1
0.453559 0.87625 1
0.575685 0.87625 1
0.697811 0.87625 1
0.819937 0.87625 1
0.942063 0.87625 1
0 1 1
0.082756 1 1
0.204882 1 1
0.327008 1 1
0.449134 1 1
0.57126 1 1
0.693386 1 1
0.815512 1 1
0.937638 1 1
