public/luts/cool.cube
TITLE "Cool"
LUT_3D_SIZE 5
DOMAIN_MIN 0.0 0.0 0.0
DOMAIN_MAX 1.0 1.0 1.0
0 0.01 0.07289
0.243642 0.01 0.070392
0.487894 0.01 0.067894
0.732146 0.01 0.065396
0.976398 0.01 0.062897
0 0.2575 0.064039
0.234791 0.2575 0.061541
0.479043 0.2575 0.059043
0.723295 0.2575 0.056545
0.967547 0.2575 0.054047
0 0.505 0.055188
0.22594 0.505 0.05269
0.470192 0.505 0.050192
0.714444 0.505 0.047694
0.958696 0.505 0.045196
0 0.7525 0.046338
0.21709 0.7525 0.04384
0.461342 0.7525 0.041342
0.705594 0.7525 0.038844
0.949846 0.7525 0.036346
0 1 0.037487
0.208239 1 0.034989
0.452491 1 0.032491
0.696743 1 0.029993
0.940995 1 0.027495
0 0.01 0.316175
0.242802 0.01 0.313677
0.487054 0.01 0.311179
0.731306 0.01 0.308681
0.975558 0.01 0.306183
0 0.2575 0.307325
0.233952 0.2575 0.304827
0.478204 0.2575 0.302329
0.722456 0.2575 0.299831
0.966708 0.2575 0.297333
0 0.505 0.298474
0.225101 0.505 0.295976
0.469353 0.505 0.293478
0.713605 0.505 0.29098
0.957857 0.505 0.288482
0 0.7525 0.289624
0.216251 0.7525 0.287126
0.460502 0.7525 0.284627
0.704754 0.7525 0.282129
0.949006 0.7525 0.279631
0 1 0.280773
0.2074 1 0.278275
0.451652 1 0.275777
0.695904 1 0.273279
0.940156 1 0.270781
0 0.01 0.559461
0.241963 0.01 0.556963
0.486215 0.01 0.554465
0.730467 0.01 0.551967
0.974719 0.01 0.549469
0 0.2575 0.55061
0.233112 0.2575 0.548112
0.477364 0.2575 0.545614
0.721616 0.2575 0.543116
0.965868 0.2575 0.540618
0 0.505 0.54176
0.224262 0.505 0.539262
0.468514 0.505 0.536764
0.712766 0.505 0.534266
0.957018 0.505 0.531768
0 0.7525 0.532909
0.215411 0.7525 0.530411
0.459663 0.7525 0.527913
0.703915 0.7525 0.525415
0.948167 0.7525 0.522917
0 1 0.524059
0.206561 1 0.521561
0.450813 1 0.519063
0.695064 1 0.516565
0.939316 1 0.514066
0 0.01 0.802747
0.241124 0.01 0.800249
0.485376 0.01 0.797751
0.729628 0.01 0.795253
0.97388 0.01 0.792755
0 0.2575 0.793896
0.232273 0.2575 0.791398
0.476525 0.2575 0.7889
0.720777 0.2575 0.786402
0.965029 0.2575 0.783904
0 0.505 0.785046
0.223422 0.505 0.782547
0.467674 0.505 0.780049
0.711926 0.505 0.777551
0.956178 0.505 0.775053
0 0.7525 0.776195
0.214572 0.7525 0.773697
0.458824 0.7525 0.771199
0.703076 0.7525 0.768701
0.947328 0.7525 0.766203
0 1 0.767344
0.205721 1 0.764846
0.449973 1 0.762348
0.694225 1 0.75985
0.938477 1 0.757352
0 0.01 1
0.240284 0.01 1
0.484536 0.01 1
0.728788 0.01 1
0.97304 0.01 1
0 0.2575 1
0.231434 0.2575 1
0.475686 0.2575 1
0.719938 0.2575 1
0.96419 0.2575 1
0 0.505 1
0.222583 0.505 1
0.466835 0.505 1
0.711087 0.505 1
0.955339 0.505 1
0 0.7525 1
0.213733 0.7525 1
0.457984 0.7525 1
0.702236 0.7525 1
0.946488 0.7525 1
0 1 1
0.204882 1 1
0.449134 1 1
0.693386 1 1
0.937638 1 1
