public/luts/mono.cube
TITLE "Mono"
LUT_3D_SIZE 5
DOMAIN_MIN 0.0 0.0 0.0
DOMAIN_MAX 1.0 1.0 1.0
0 0 0
0.041906 0.041906 0.042325
0.087599 0.087599 0.088475
0.136629 0.136629 0.137995
0.188544 0.188544 0.19043
0.155219 0.155219 0.156771
0.208074 0.208074 0.210154
0.2632 0.2632 0.265832
0.320147 0.320147 0.323349
0.378465 0.378465 0.38225
0.341244 0.341244 0.344656
0.399949 0.399949 0.403949
0.459411 0.459411 0.464005
0.519179 0.519179 0.524371
0.578802 0.578802 0.58459
0.540926 0.540926 0.546335
0.600385 0.600385 0.606389
0.659085 0.659085 0.665675
0.716575 0.716575 0.723741
0.772406 0.772406 0.78013
0.737117 0.737117 0.744488
0.792232 0.792232 0.800154
0.845072 0.845072 0.853523
0.895188 0.895188 0.90414
0.942129 0.942129 0.95155
0.013779 0.013779 0.013917
0.057022 0.057022 0.057592
0.103898 0.103898 0.104937
0.153959 0.153959 0.155498
0.206752 0.206752 0.208819
0.172886 0.172886 0.174615
0.226563 0.226563 0.228828
0.282358 0.282358 0.285181
0.339821 0.339821 0.343219
0.398502 0.398502 0.402487
0.361068 0.361068 0.364678
0.42008 0.42008 0.424281
0.479697 0.479697 0.484494
0.539466 0.539466 0.544861
0.598938 0.598938 0.604927
0.561176 0.561176 0.566787
0.620427 0.620427 0.626631
0.678767 0.678767 0.685554
0.735744 0.735744 0.743102
0.790909 0.790909 0.798818
0.756061 0.756061 0.763622
0.810454 0.810454 0.818559
0.86242 0.86242 0.871044
0.911508 0.911508 0.920623
0.957268 0.957268 0.96684
0.028029 0.028029 0.028309
0.072556 0.072556 0.073282
0.120565 0.120565 0.12177
0.171603 0.171603 0.173319
0.225223 0.225223 0.227475
0.190849 0.190849 0.192758
0.245296 0.245296 0.247749
0.301708 0.301708 0.304725
0.359636 0.359636 0.363232
0.418628 0.418628 0.422814
0.381013 0.381013 0.384823
0.440281 0.440281 0.444684
0.5 0.5 0.505
0.559719 0.559719 0.565316
0.618987 0.618987 0.625177
0.581372 0.581372 0.587186
0.640364 0.640364 0.646768
0.698292 0.698292 0.705275
0.754704 0.754704 0.762251
0.809151 0.809151 0.817242
0.774777 0.774777 0.782525
0.828397 0.828397 0.836681
0.879435 0.879435 0.88823
0.927444 0.927444 0.936718
0.971971 0.971971 0.981691
0.042732 0.042732 0.04316
0.088492 0.088492 0.089377
0.13758 0.13758 0.138956
0.189546 0.189546 0.191441
0.243939 0.243939 0.246378
0.209091 0.209091 0.211182
0.264256 0.264256 0.266898
0.321233 0.321233 0.324446
0.379573 0.379573 0.383369
0.438824 0.438824 0.443213
0.401062 0.401062 0.405073
0.460534 0.460534 0.465139
0.520303 0.520303 0.525506
0.57992 0.57992 0.585719
0.638932 0.638932 0.645322
0.601498 0.601498 0.607513
0.660179 0.660179 0.666781
0.717642 0.717642 0.724819
0.773438 0.773438 0.781172
0.827114 0.827114 0.835385
0.793248 0.793248 0.801181
0.846041 0.846041 0.854502
0.896102 0.896102 0.905063
0.942978 0.942978 0.952408
0.986221 0.986221 0.996083
0.057871 0.057871 0.05845
0.104812 0.104812 0.10586
0.154928 0.154928 0.156477
0.207768 0.207768 0.209846
0.262883 0.262883 0.265512
0.227594 0.227594 0.22987
0.283425 0.283425 0.286259
0.340915 0.340915 0.344325
0.399615 0.399615 0.403611
0.459074 0.459074 0.463665
0.421198 0.421198 0.42541
0.480821 0.480821 0.485629
0.540589 0.540589 0.545995
0.600051 0.600051 0.606051
0.658756 0.658756 0.665344
0.621535 0.621535 0.62775
0.679853 0.679853 0.686651
0.7368 0.7368 0.744168
0.791926 0.791926 0.799846
0.844781 0.844781 0.853229
0.811456 0.811456 0.81957
0.863371 0.863371 0.872005
0.912401 0.912401 0.921525
0.958094 0.958094 0.967675
1 1 1
