public/luts/mono.cube
TITLE "Mono"
LUT_3D_SIZE 9
DOMAIN_MIN 0.0 0.0 0.0
DOMAIN_MAX 1.0 1.0 1.0
0 0 0
0.020452 0.020452 0.020656
0.041906 0.041906 0.042325
0.064307 0.064307 0.064951
0.087599 0.087599 0.088475
0.111725 0.111725 0.112842
0.136629 0.136629 0.137995
0.162254 0.162254 0.163877
0.188544 0.188544 0.19043
0.072687 0.072687 0.073414
0.096289 0.096289 0.097252
0.120705 0.120705 0.121912
0.145877 0.145877 0.147336
0.171751 0.171751 0.173469
0.19827 0.19827 0.200253
0.225377 0.225377 0.227631
0.253016 0.253016 0.255546
0.281131 0.281131 0.283943
0.155219 0.155219 0.156771
0.181334 0.181334 0.183148
0.208074 0.208074 0.210154
0.235381 0.235381 0.237735
0.2632 0.2632 0.265832
0.291474 0.291474 0.294389
0.320147 0.320147 0.323349
0.349163 0.349163 0.352655
0.378465 0.378465 0.38225
0.245452 0.245452 0.247907
0.273444 0.273444 0.276178
0.30187 0.30187 0.304888
0.330674 0.330674 0.333981
0.359801 0.359801 0.363399
0.389193 0.389193 0.393085
0.418796 0.418796 0.422984
0.448551 0.448551 0.453037
0.478404 0.478404 0.483188
0.341244 0.341244 0.344656
0.370474 0.370474 0.374179
0.399949 0.399949 0.403949
0.429614 0.429614 0.43391
0.459411 0.459411 0.464005
0.489285 0.489285 0.494178
0.519179 0.519179 0.524371
0.549037 0.549037 0.554527
0.578802 0.578802 0.58459
0.440449 0.440449 0.444854
0.470281 0.470281 0.474984
0.500169 0.500169 0.50517
0.530056 0.530056 0.535357
0.559887 0.559887 0.565486
0.589605 0.589605 0.595501
0.619153 0.619153 0.625345
0.648476 0.648476 0.654961
0.677517 0.677517 0.684292
0.540926 0.540926 0.546335
0.570722 0.570722 0.576429
0.600385 0.600385 0.606389
0.629858 0.629858 0.636156
0.659085 0.659085 0.665675
0.688009 0.688009 0.694889
0.716575 0.716575 0.723741
0.744726 0.744726 0.752173
0.772406 0.772406 0.78013
0.64053 0.64053 0.646935
0.669653 0.669653 0.676349
0.698453 0.698453 0.705438
0.726875 0.726875 0.734144
0.754861 0.754861 0.762409
0.782355 0.782355 0.790179
0.809301 0.809301 0.817394
0.835643 0.835643 0.843999
0.861324 0.861324 0.869937
0.737117 0.737117 0.744488
0.76493 0.76493 0.77258
0.792232 0.792232 0.800154
0.818964 0.818964 0.827154
0.845072 0.845072 0.853523
0.870499 0.870499 0.879204
0.895188 0.895188 0.90414
0.919083 0.919083 0.928274
0.942129 0.942129 0.95155
0.006829 0.006829 0.006898
0.027628 0.027628 0.027904
0.04941 0.04941 0.049904
0.07212 0.07212 0.072842
0.095702 0.095702 0.096659
0.120098 0.120098 0.121299
0.145253 0.145253 0.146706
0.171111 0.171111 0.172822
0.197614 0.197614 0.19959
0.080608 0.080608 0.081414
0.104492 0.104492 0.105537
0.129171 0.129171 0.130463
0.154589 0.154589 0.156134
0.180688 0.180688 0.182495
0.207413 0.207413 0.209487
0.234707 0.234707 0.237054
0.262514 0.262514 0.265139
0.290777 0.290777 0.293685
0.164014 0.164014 0.165654
0.190348 0.190348 0.192251
0.217286 0.217286 0.219459
0.244774 0.244774 0.247221
0.272754 0.272754 0.275481
0.30117 0.30117 0.304181
0.329966 0.329966 0.333265
0.359085 0.359085 0.362676
0.388472 0.388472 0.392356
0.254906 0.254906 0.257455
0.283051 0.283051 0.285882
0.311612 0.311612 0.314728
0.340532 0.340532 0.343938
0.369756 0.369756 0.373453
0.399226 0.399226 0.403218
0.428886 0.428886 0.433175
0.458681 0.458681 0.463268
0.488554 0.488554 0.493439
0.351139 0.351139 0.354651
0.380459 0.380459 0.384264
0.410005 0.410005 0.414105
0.439721 0.439721 0.444118
0.469551 0.469551 0.474246
0.499438 0.499438 0.504432
0.529326 0.529326 0.534619
0.559158 0.559158 0.56475
0.588879 0.588879 0.594768
0.450571 0.450571 0.455076
0.480428 0.480428 0.485232
0.510321 0.510321 0.515425
0.540196 0.540196 0.545598
0.569995 0.569995 0.575695
0.599661 0.599661 0.605658
0.629139 0.629139 0.635431
0.658373 0.658373 0.664957
0.687306 0.687306 0.694179
0.551056 0.551056 0.556567
0.580813 0.580813 0.586622
0.610418 0.610418 0.616522
0.639814 0.639814 0.646212
0.668944 0.668944 0.675634
0.697753 0.697753 0.704731
0.726185 0.726185 0.733447
0.754182 0.754182 0.761724
0.781689 0.781689 0.789506
0.650453 0.650453 0.656957
0.679473 0.679473 0.686267
0.708151 0.708151 0.715232
0.736431 0.736431 0.743795
0.764256 0.764256 0.771899
0.79157 0.79157 0.799486
0.818318 0.818318 0.826501
0.844441 0.844441 0.852886
0.869885 0.869885 0.878584
0.746616 0.746616 0.754083
0.774262 0.774262 0.782005
0.801377 0.801377 0.80939
0.827903 0.827903 0.836182
0.853786 0.853786 0.862324
0.878969 0.878969 0.887758
0.903395 0.903395 0.912429
0.927008 0.927008 0.936278
0.949752 0.949752 0.959249
0.013779 0.013779 0.013917
0.034918 0.034918 0.035267
0.057022 0.057022 0.057592
0.080034 0.080034 0.080834
0.103898 0.103898 0.104937
0.128559 0.128559 0.129844
0.153959 0.153959 0.155498
0.180042 0.180042 0.181842
0.206752 0.206752 0.208819
0.088626 0.088626 0.089513
0.112787 0.112787 0.113915
0.137723 0.137723 0.1391
0.163378 0.163378 0.165012
0.189696 0.189696 0.191593
0.216621 0.216621 0.218787
0.244095 0.244095 0.246536
0.272064 0.272064 0.274784
0.30047 0.30047 0.303475
0.172886 0.172886 0.174615
0.199431 0.199431 0.201426
0.226563 0.226563 0.228828
0.254223 0.254223 0.256766
0.282358 0.282358 0.285181
0.310909 0.310909 0.314018
0.339821 0.339821 0.343219
0.369038 0.369038 0.372728
0.398502 0.398502 0.402487
0.264414 0.264414 0.267058
0.292707 0.292707 0.295634
0.321396 0.321396 0.32461
0.350426 0.350426 0.35393
0.379739 0.379739 0.383536
0.40928 0.40928 0.413373
0.438993 0.438993 0.443382
0.46882 0.46882 0.473508
0.498706 0.498706 0.503693
0.361068 0.361068 0.364678
0.39047 0.39047 0.394375
0.42008 0.42008 0.424281
0.449841 0.449841 0.45434
0.479697 0.479697 0.484494
0.50959 0.50959 0.514686
0.539466 0.539466 0.544861
0.569267 0.569267 0.57496
0.598938 0.598938 0.604927
0.460703 0.460703 0.46531
0.490578 0.490578 0.495484
0.520472 0.520472 0.525677
0.550327 0.550327 0.55583
0.580087 0.580087 0.585888
0.609696 0.609696 0.615793
0.639098 0.639098 0.645489
0.668235 0.668235 0.674918
0.697053 0.697053 0.704024
0.561176 0.561176 0.566787
0.590887 0.590887 0.596796
0.620427 0.620427 0.626631
0.649739 0.649739 0.656236
0.678767 0.678767 0.685554
0.707454 0.707454 0.714528
0.735744 0.735744 0.743102
0.763581 0.763581 0.771217
0.790909 0.790909 0.798818
0.660343 0.660343 0.666946
0.689253 0.689253 0.696146
0.717802 0.717802 0.72498
0.745934 0.745934 0.753393
0.773592 0.773592 0.781328
0.80072 0.80072 0.808727
0.827262 0.827262 0.835535
0.853161 0.853161 0.861693
0.878362 0.878362 0.887145
0.756061 0.756061 0.763622
0.783533 0.783533 0.791368
0.810454 0.810454 0.818559
0.836768 0.836768 0.845136
0.86242 0.86242 0.871044
0.887352 0.887352 0.896225
0.911508 0.911508 0.920623
0.934832 0.934832 0.94418
0.957268 0.957268 0.96684
0.020846 0.020846 0.021055
0.042319 0.042319 0.042742
0.064738 0.064738 0.065385
0.088046 0.088046 0.088926
0.112187 0.112187 0.113308
0.137104 0.137104 0.138475
0.162743 0.162743 0.16437
0.189045 0.189045 0.190936
0.215955 0.215955 0.218115
0.096741 0.096741 0.097708
0.121171 0.121171 0.122383
0.146358 0.146358 0.147822
0.172245 0.172245 0.173967
0.198775 0.198775 0.200763
0.225892 0.225892 0.228151
0.253541 0.253541 0.256076
0.281664 0.281664 0.284481
0.310206 0.310206 0.313308
0.181832 0.181832 0.18365
0.208582 0.208582 0.210668
0.2359 0.2359 0.238259
0.263728 0.263728 0.266365
0.29201 0.29201 0.29493
0.32069 0.32069 0.323897
0.349712 0.349712 0.353209
0.379019 0.379019 0.382809
0.408555 0.408555 0.412641
0.273975 0.273975 0.276714
0.302408 0.302408 0.305432
0.331219 0.331219 0.334532
0.360352 0.360352 0.363955
0.389749 0.389749 0.393646
0.419354 0.419354 0.423548
0.449112 0.449112 0.453603
0.478966 0.478966 0.483755
0.508859 0.508859 0.513948
0.371026 0.371026 0.374737
0.400506 0.400506 0.404511
0.430173 0.430173 0.434475
0.459973 0.459973 0.464572
0.489847 0.489847 0.494746
0.519741 0.519741 0.524938
0.549598 0.549598 0.555094
0.579361 0.579361 0.585154
0.608974 0.608974 0.615064
0.470843 0.470843 0.475552
0.500731 0.500731 0.505739
0.530618 0.530618 0.535924
0.560447 0.560447 0.566052
0.590162 0.590162 0.596064
0.619707 0.619707 0.625904
0.649025 0.649025 0.655516
0.678061 0.678061 0.684841
0.706757 0.706757 0.713824
0.571282 0.571282 0.576994
0.600941 0.600941 0.606951
0.63041 0.63041 0.636714
0.659632 0.659632 0.666228
0.68855 0.68855 0.695436
0.717109 0.717109 0.72428
0.745251 0.745251 0.752704
0.772922 0.772922 0.780651
0.800064 0.800064 0.808064
0.670198 0.670198 0.6769
0.698992 0.698992 0.705982
0.727406 0.727406 0.73468
0.755383 0.755383 0.762937
0.782867 0.782867 0.790696
0.809803 0.809803 0.817901
0.836132 0.836132 0.844494
0.861801 0.861801 0.870419
0.886751 0.886751 0.895618
0.765449 0.765449 0.773103
0.79274 0.79274 0.800667
0.819461 0.819461 0.827656
0.845557 0.845557 0.854012
0.87097 0.87097 0.87968
0.895645 0.895645 0.904601
0.919525 0.919525 0.92872
0.942554 0.942554 0.951979
0.964675 0.964675 0.974322
0.028029 0.028029 0.028309
0.049829 0.049829 0.050328
0.072556 0.072556 0.073282
0.096153 0.096153 0.097115
0.120565 0.120565 0.12177
0.145733 0.145733 0.147191
0.171603 0.171603 0.173319
0.198119 0.198119 0.2001
0.225223 0.225223 0.227475
0.104949 0.104949 0.105999
0.129643 0.129643 0.130939
0.155073 0.155073 0.156624
0.181185 0.181185 0.182997
0.207921 0.207921 0.21
0.235225 0.235225 0.237577
0.263041 0.263041 0.265672
0.291313 0.291313 0.294226
0.319984 0.319984 0.323184
0.190849 0.190849 0.192758
0.217799 0.217799 0.219977
0.245296 0.245296 0.247749
0.273284 0.273284 0.276017
0.301708 0.301708 0.304725
0.330511 0.330511 0.333816
0.359636 0.359636 0.363232
0.389027 0.389027 0.392917
0.418628 0.418628 0.422814
0.283585 0.283585 0.286421
0.312153 0.312153 0.315275
0.34108 0.34108 0.34449
0.370308 0.370308 0.374011
0.399782 0.399782 0.40378
0.429446 0.429446 0.43374
0.459243 0.459243 0.463835
0.489116 0.489116 0.494007
0.51901 0.51901 0.5242
0.381013 0.381013 0.384823
0.410563 0.410563 0.414668
0.440281 0.440281 0.444684
0.470113 0.470113 0.474814
0.5 0.5 0.505
0.529887 0.529887 0.535186
0.559719 0.559719 0.565316
0.589437 0.589437 0.595332
0.618987 0.618987 0.625177
0.48099 0.48099 0.4858
0.510884 0.510884 0.515993
0.540757 0.540757 0.546165
0.570554 0.570554 0.57626
0.600218 0.600218 0.60622
0.629692 0.629692 0.635989
0.65892 0.65892 0.66551
0.687847 0.687847 0.694725
0.716415 0.716415 0.723579
0.581372 0.581372 0.587186
0.610973 0.610973 0.617083
0.640364 0.640364 0.646768
0.669489 0.669489 0.676184
0.698292 0.698292 0.705275
0.726716 0.726716 0.733983
0.754704 0.754704 0.762251
0.782201 0.782201 0.790023
0.809151 0.809151 0.817242
0.680016 0.680016 0.686816
0.708687 0.708687 0.715774
0.736959 0.736959 0.744328
0.764775 0.764775 0.772423
0.792079 0.792079 0.8
0.818815 0.818815 0.827003
0.844927 0.844927 0.853376
0.870357 0.870357 0.879061
0.895051 0.895051 0.904001
0.774777 0.774777 0.782525
0.801881 0.801881 0.8099
0.828397 0.828397 0.836681
0.854267 0.854267 0.862809
0.879435 0.879435 0.88823
0.903847 0.903847 0.912885
0.927444 0.927444 0.936718
0.950171 0.950171 0.959672
0.971971 0.971971 0.981691
0.035325 0.035325 0.035678
0.057446 0.057446 0.058021
0.080475 0.080475 0.08128
0.104355 0.104355 0.105399
0.12903 0.12903 0.13032
0.154443 0.154443 0.155988
0.180539 0.180539 0.182344
0.20726 0.20726 0.209333
0.234551 0.234551 0.236897
0.113249 0.113249 0.114382
0.138199 0.138199 0.139581
0.163868 0.163868 0.165506
0.190197 0.190197 0.192099
0.217133 0.217133 0.219304
0.244617 0.244617 0.247063
0.272594 0.272594 0.27532
0.301008 0.301008 0.304018
0.329802 0.329802 0.3331
0.199936 0.199936 0.201936
0.227078 0.227078 0.229349
0.254749 0.254749 0.257296
0.282891 0.282891 0.28572
0.31145 0.31145 0.314564
0.340368 0.340368 0.343772
0.36959 0.36959 0.373286
0.399059 0.399059 0.403049
0.428718 0.428718 0.433006
0.293243 0.293243 0.296176
0.321939 0.321939 0.325159
0.350975 0.350975 0.354484
0.380293 0.380293 0.384096
0.409838 0.409838 0.413936
0.439553 0.439553 0.443948
0.469382 0.469382 0.474076
0.499269 0.499269 0.504261
0.529157 0.529157 0.534448
0.391026 0.391026 0.394936
0.420639 0.420639 0.424846
0.450402 0.450402 0.454906
0.480259 0.480259 0.485062
0.510153 0.510153 0.515254
0.540027 0.540027 0.545428
0.569827 0.569827 0.575525
0.599494 0.599494 0.605489
0.628974 0.628974 0.635263
0.491141 0.491141 0.496052
0.521034 0.521034 0.526245
0.550888 0.550888 0.556397
0.580646 0.580646 0.586452
0.610251 0.610251 0.616354
0.639648 0.639648 0.646045
0.668781 0.668781 0.675468
0.697592 0.697592 0.704568
0.726025 0.726025 0.733286
0.591445 0.591445 0.597359
0.620981 0.620981 0.627191
0.650288 0.650288 0.656791
0.67931 0.67931 0.686103
0.70799 0.70799 0.71507
0.736272 0.736272 0.743635
0.7641 0.7641 0.771741
0.791418 0.791418 0.799332
0.818168 0.818168 0.82635
0.689794 0.689794 0.696692
0.718336 0.718336 0.725519
0.746459 0.746459 0.753924
0.774108 0.774108 0.781849
0.801225 0.801225 0.809237
0.827755 0.827755 0.836033
0.853642 0.853642 0.862178
0.878829 0.878829 0.887617
0.903259 0.903259 0.912292
0.784045 0.784045 0.791885
0.810955 0.810955 0.819064
0.837257 0.837257 0.84563
0.862896 0.862896 0.871525
0.887813 0.887813 0.896692
0.911954 0.911954 0.921074
0.935262 0.935262 0.944615
0.957681 0.957681 0.967258
0.979154 0.979154 0.988945
0.042732 0.042732 0.04316
0.065168 0.065168 0.06582
0.088492 0.088492 0.089377
0.112648 0.112648 0.113775
0.13758 0.13758 0.138956
0.163232 0.163232 0.164864
0.189546 0.189546 0.191441
0.216467 0.216467 0.218632
0.243939 0.243939 0.246378
0.121638 0.121638 0.122855
0.146839 0.146839 0.148307
0.172738 0.172738 0.174465
0.19928 0.19928 0.201273
0.226408 0.226408 0.228672
0.254066 0.254066 0.256607
0.282198 0.282198 0.28502
0.310747 0.310747 0.313854
0.339657 0.339657 0.343054
0.209091 0.209091 0.211182
0.236419 0.236419 0.238783
0.264256 0.264256 0.266898
0.292546 0.292546 0.295472
0.321233 0.321233 0.324446
0.350261 0.350261 0.353764
0.379573 0.379573 0.383369
0.409113 0.409113 0.413204
0.438824 0.438824 0.443213
0.302947 0.302947 0.305976
0.331765 0.331765 0.335082
0.360902 0.360902 0.364511
0.390304 0.390304 0.394207
0.419913 0.419913 0.424112
0.449673 0.449673 0.45417
0.479528 0.479528 0.484323
0.509422 0.509422 0.514516
0.539297 0.539297 0.54469
0.401062 0.401062 0.405073
0.430733 0.430733 0.43504
0.460534 0.460534 0.465139
0.49041 0.49041 0.495314
0.520303 0.520303 0.525506
0.550159 0.550159 0.55566
0.57992 0.57992 0.585719
0.60953 0.60953 0.615625
0.638932 0.638932 0.645322
0.501294 0.501294 0.506307
0.53118 0.53118 0.536492
0.561007 0.561007 0.566618
0.59072 0.59072 0.596627
0.620261 0.620261 0.626464
0.649574 0.649574 0.65607
0.678604 0.678604 0.68539
0.707293 0.707293 0.714366
0.735586 0.735586 0.742942
0.601498 0.601498 0.607513
0.630962 0.630962 0.637272
0.660179 0.660179 0.666781
0.689091 0.689091 0.695982
0.717642 0.717642 0.724819
0.745777 0.745777 0.753234
0.773438 0.773438 0.781172
0.800569 0.800569 0.808574
0.827114 0.827114 0.835385
0.69953 0.69953 0.706525
0.727936 0.727936 0.735216
0.755905 0.755905 0.763464
0.783379 0.783379 0.791213
0.810304 0.810304 0.818407
0.836622 0.836622 0.844988
0.862277 0.862277 0.8709
0.887213 0.887213 0.896085
0.911374 0.911374 0.920487
0.793248 0.793248 0.801181
0.819958 0.819958 0.828158
0.846041 0.846041 0.854502
0.871441 0.871441 0.880156
0.896102 0.896102 0.905063
0.919966 0.919966 0.929166
0.942978 0.942978 0.952408
0.965082 0.965082 0.974733
0.986221 0.986221 0.996083
0.050248 0.050248 0.050751
0.072992 0.072992 0.073722
0.096605 0.096605 0.097571
0.121031 0.121031 0.122242
0.146214 0.146214 0.147676
0.172097 0.172097 0.173818
0.198623 0.198623 0.20061
0.225738 0.225738 0.227995
0.253384 0.253384 0.255917
0.130115 0.130115 0.131416
0.155559 0.155559 0.157114
0.181682 0.181682 0.183499
0.20843 0.20843 0.210514
0.235744 0.235744 0.238101
0.263569 0.263569 0.266205
0.291849 0.291849 0.294768
0.320527 0.320527 0.323733
0.349547 0.349547 0.353043
0.218311 0.218311 0.220494
0.245818 0.245818 0.248276
0.273815 0.273815 0.276553
0.302247 0.302247 0.305269
0.331056 0.331056 0.334366
0.360186 0.360186 0.363788
0.389582 0.389582 0.393478
0.419187 0.419187 0.423378
0.448944 0.448944 0.453433
0.312694 0.312694 0.315821
0.341627 0.341627 0.345043
0.370861 0.370861 0.374569
0.400339 0.400339 0.404342
0.430005 0.430005 0.434305
0.459804 0.459804 0.464402
0.489679 0.489679 0.494575
0.519572 0.519572 0.524768
0.549429 0.549429 0.554924
0.411121 0.411121 0.415232
0.440842 0.440842 0.44525
0.470674 0.470674 0.475381
0.500562 0.500562 0.505568
0.530449 0.530449 0.535754
0.560279 0.560279 0.565882
0.589995 0.589995 0.595895
0.619541 0.619541 0.625736
0.648861 0.648861 0.655349
0.511446 0.511446 0.516561
0.541319 0.541319 0.546732
0.571114 0.571114 0.576825
0.600774 0.600774 0.606782
0.630244 0.630244 0.636547
0.659468 0.659468 0.666062
0.688388 0.688388 0.695272
0.716949 0.716949 0.724118
0.745094 0.745094 0.752545
0.611528 0.611528 0.617644
0.640915 0.640915 0.647324
0.670034 0.670034 0.676735
0.69883 0.69883 0.705819
0.727246 0.727246 0.734519
0.755226 0.755226 0.762779
0.782714 0.782714 0.790541
0.809652 0.809652 0.817749
0.835986 0.835986 0.844346
0.709223 0.709223 0.716315
0.737486 0.737486 0.744861
0.765293 0.765293 0.772946
0.792587 0.792587 0.800513
0.819312 0.819312 0.827505
0.845411 0.845411 0.853866
0.870829 0.870829 0.879537
0.895508 0.895508 0.904463
0.919392 0.919392 0.928586
0.802386 0.802386 0.81041
0.828889 0.828889 0.837178
0.854747 0.854747 0.863294
0.879902 0.879902 0.888701
0.904298 0.904298 0.913341
0.92788 0.92788 0.937158
0.95059 0.95059 0.960096
0.972372 0.972372 0.982096
0.993171 0.993171 1
0.057871 0.057871 0.05845
0.080917 0.080917 0.081726
0.104812 0.104812 0.10586
0.129501 0.129501 0.130796
0.154928 0.154928 0.156477
0.181036 0.181036 0.182846
0.207768 0.207768 0.209846
0.23507 0.23507 0.23742
0.262883 0.262883 0.265512
0.138676 0.138676 0.140063
0.164357 0.164357 0.166001
0.190699 0.190699 0.192606
0.217645 0.217645 0.219821
0.245139 0.245139 0.247591
0.273125 0.273125 0.275856
0.301547 0.301547 0.304562
0.330347 0.330347 0.333651
0.35947 0.35947 0.363065
0.227594 0.227594 0.22987
0.255274 0.255274 0.257827
0.283425 0.283425 0.286259
0.311991 0.311991 0.315111
0.340915 0.340915 0.344325
0.370142 0.370142 0.373844
0.399615 0.399615 0.403611
0.429278 0.429278 0.433571
0.459074 0.459074 0.463665
0.322483 0.322483 0.325708
0.351524 0.351524 0.355039
0.380847 0.380847 0.384655
0.410395 0.410395 0.414499
0.440113 0.440113 0.444514
0.469944 0.469944 0.474643
0.499831 0.499831 0.50483
0.529719 0.529719 0.535016
0.559551 0.559551 0.565146
0.421198 0.421198 0.42541
0.450963 0.450963 0.455473
0.480821 0.480821 0.485629
0.510715 0.510715 0.515822
0.540589 0.540589 0.545995
0.570386 0.570386 0.57609
0.600051 0.600051 0.606051
0.629526 0.629526 0.635821
0.658756 0.658756 0.665344
0.521596 0.521596 0.526812
0.551449 0.551449 0.556963
0.581204 0.581204 0.587016
0.610807 0.610807 0.616915
0.640199 0.640199 0.646601
0.669326 0.669326 0.676019
0.69813 0.69813 0.705112
0.726556 0.726556 0.733822
0.754548 0.754548 0.762093
0.621535 0.621535 0.62775
0.650837 0.650837 0.657345
0.679853 0.679853 0.686651
0.708526 0.708526 0.715611
0.7368 0.7368 0.744168
0.764619 0.764619 0.772265
0.791926 0.791926 0.799846
0.818666 0.818666 0.826852
0.844781 0.844781 0.853229
0.718869 0.718869 0.726057
0.746984 0.746984 0.754454
0.774623 0.774623 0.782369
0.80173 0.80173 0.809747
0.828249 0.828249 0.836531
0.854123 0.854123 0.862664
0.879295 0.879295 0.888088
0.903711 0.903711 0.912748
0.927313 0.927313 0.936586
0.811456 0.811456 0.81957
0.837746 0.837746 0.846123
0.863371 0.863371 0.872005
0.888275 0.888275 0.897158
0.912401 0.912401 0.921525
0.935693 0.935693 0.945049
0.958094 0.958094 0.967675
0.979548 0.979548 0.989344
1 1 1
