public/luts/mono.cube
TITLE "Mono"
LUT_3D_SIZE 17
DOMAIN_MIN 0.0 0.0 0.0
DOMAIN_MAX 1.0 1.0 1.0
0 0 0
0.010097 0.010097 0.010198
0.020452 0.020452 0.020656
0.031057 0.031057 0.031368
0.041906 0.041906 0.042325
0.052992 0.052992 0.053522
0.064307 0.064307 0.064951
0.075846 0.075846 0.076604
0.087599 0.087599 0.088475
0.099561 0.099561 0.100557
0.111725 0.111725 0.112842
0.124083 0.124083 0.125324
0.136629 0.136629 0.137995
0.149355 0.149355 0.150848
0.162254 0.162254 0.163877
0.17532 0.17532 0.177073
0.188544 0.188544 0.19043
0.034979 0.034979 0.035329
0.045915 0.045915 0.046374
0.057085 0.057085 0.057656
0.068483 0.068483 0.069167
0.0801 0.0801 0.080901
0.09193 0.09193 0.09285
0.103967 0.103967 0.105006
0.116202 0.116202 0.117364
0.128629 0.128629 0.129916
0.141241 0.141241 0.142654
0.154031 0.154031 0.155571
0.166992 0.166992 0.168662
0.180116 0.180116 0.181917
0.193397 0.193397 0.195331
0.206828 0.206828 0.208896
0.220401 0.220401 0.222605
0.23411 0.23411 0.236452
0.072687 0.072687 0.073414
0.084383 0.084383 0.085227
0.096289 0.096289 0.097252
0.108399 0.108399 0.109483
0.120705 0.120705 0.121912
0.1332 0.1332 0.134532
0.145877 0.145877 0.147336
0.15873 0.15873 0.160318
0.171751 0.171751 0.173469
0.184934 0.184934 0.186783
0.19827 0.19827 0.200253
0.211753 0.211753 0.213871
0.225377 0.225377 0.227631
0.239134 0.239134 0.241525
0.253016 0.253016 0.255546
0.267018 0.267018 0.269688
0.281131 0.281131 0.283943
0.112856 0.112856 0.113985
0.125232 0.125232 0.126484
0.137795 0.137795 0.139173
0.150537 0.150537 0.152042
0.163452 0.163452 0.165086
0.176532 0.176532 0.178298
0.189771 0.189771 0.191669
0.203162 0.203162 0.205194
0.216698 0.216698 0.218864
0.23037 0.23037 0.232674
0.244174 0.244174 0.246615
0.2581 0.2581 0.260681
0.272143 0.272143 0.274865
0.286296 0.286296 0.289159
0.300551 0.300551 0.303556
0.314901 0.314901 0.31805
0.329339 0.329339 0.332632
0.155219 0.155219 0.156771
0.168195 0.168195 0.169877
0.181334 0.181334 0.183148
0.194629 0.194629 0.196576
0.208074 0.208074 0.210154
0.22166 0.22166 0.223876
0.235381 0.235381 0.237735
0.24923 0.24923 0.251722
0.2632 0.2632 0.265832
0.277283 0.277283 0.280056
0.291474 0.291474 0.294389
0.305764 0.305764 0.308822
0.320147 0.320147 0.323349
0.334616 0.334616 0.337962
0.349163 0.349163 0.352655
0.363782 0.363782 0.36742
0.378465 0.378465 0.38225
0.199507 0.199507 0.201502
0.213004 0.213004 0.215134
0.22664 0.22664 0.228906
0.240408 0.240408 0.242812
0.254302 0.254302 0.256845
0.268314 0.268314 0.270997
0.282438 0.282438 0.285262
0.296665 0.296665 0.299632
0.31099 0.31099 0.3141
0.325405 0.325405 0.328659
0.339903 0.339903 0.343302
0.354477 0.354477 0.358022
0.369121 0.369121 0.372812
0.383826 0.383826 0.387664
0.398586 0.398586 0.402572
0.413394 0.413394 0.417528
0.428243 0.428243 0.432525
0.245452 0.245452 0.247907
0.25939 0.25939 0.261984
0.273444 0.273444 0.276178
0.287606 0.287606 0.290482
0.30187 0.30187 0.304888
0.316228 0.316228 0.31939
0.330674 0.330674 0.333981
0.345201 0.345201 0.348653
0.359801 0.359801 0.363399
0.374467 0.374467 0.378212
0.389193 0.389193 0.393085
0.403972 0.403972 0.408012
0.418796 0.418796 0.422984
0.433658 0.433658 0.437994
0.448551 0.448551 0.453037
0.463469 0.463469 0.468103
0.478404 0.478404 0.483188
0.292787 0.292787 0.295715
0.307086 0.307086 0.310157
0.321478 0.321478 0.324692
0.335954 0.335954 0.339313
0.350508 0.350508 0.354013
0.365133 0.365133 0.368784
0.379822 0.379822 0.38362
0.394568 0.394568 0.398514
0.409364 0.409364 0.413457
0.424202 0.424202 0.428444
0.439077 0.439077 0.443467
0.45398 0.45398 0.458519
0.468904 0.468904 0.473593
0.483844 0.483844 0.488682
0.498791 0.498791 0.503779
0.513738 0.513738 0.518876
0.528679 0.528679 0.533966
0.341244 0.341244 0.344656
0.355825 0.355825 0.359383
0.370474 0.370474 0.374179
0.385184 0.385184 0.389036
0.399949 0.399949 0.403949
0.414761 0.414761 0.418909
0.429614 0.429614 0.43391
0.444499 0.444499 0.448944
0.459411 0.459411 0.464005
0.474342 0.474342 0.479085
0.489285 0.489285 0.494178
0.504233 0.504233 0.509275
0.519179 0.519179 0.524371
0.534116 0.534116 0.539457
0.549037 0.549037 0.554527
0.563934 0.563934 0.569574
0.578802 0.578802 0.58459
0.390554 0.390554 0.394459
0.405337 0.405337 0.40939
0.420164 0.420164 0.424366
0.43503 0.43503 0.43938
0.449925 0.449925 0.454425
0.464845 0.464845 0.469493
0.479781 0.479781 0.484579
0.494727 0.494727 0.499674
0.509675 0.509675 0.514771
0.524618 0.524618 0.529864
0.53955 0.53955 0.544946
0.554463 0.554463 0.560008
0.569351 0.569351 0.575045
0.584206 0.584206 0.590048
0.599021 0.599021 0.605011
0.613789 0.613789 0.619927
0.628504 0.628504 0.634789
0.440449 0.440449 0.444854
0.455355 0.455355 0.459908
0.470281 0.470281 0.474984
0.485221 0.485221 0.490074
0.500169 0.500169 0.50517
0.515116 0.515116 0.520267
0.530056 0.530056 0.535357
0.544982 0.544982 0.550432
0.559887 0.559887 0.565486
0.574763 0.574763 0.580511
0.589605 0.589605 0.595501
0.604404 0.604404 0.610448
0.619153 0.619153 0.625345
0.633846 0.633846 0.640185
0.648476 0.648476 0.654961
0.663035 0.663035 0.669666
0.677517 0.677517 0.684292
0.490663 0.490663 0.495569
0.505611 0.505611 0.510667
0.520556 0.520556 0.525762
0.535492 0.535492 0.540847
0.550411 0.550411 0.555915
0.565306 0.565306 0.57096
0.580171 0.580171 0.585973
0.594998 0.594998 0.600948
0.609779 0.609779 0.615877
0.624509 0.624509 0.630754
0.63918 0.63918 0.645572
0.653785 0.653785 0.660323
0.668317 0.668317 0.675
0.682769 0.682769 0.689597
0.697134 0.697134 0.704105
0.711404 0.711404 0.718518
0.725574 0.725574 0.73283
0.540926 0.540926 0.546335
0.555837 0.555837 0.561395
0.570722 0.570722 0.576429
0.585574 0.585574 0.591429
0.600385 0.600385 0.606389
0.615148 0.615148 0.6213
0.629858 0.629858 0.636156
0.644505 0.644505 0.65095
0.659085 0.659085 0.665675
0.673588 0.673588 0.680324
0.688009 0.688009 0.694889
0.70234 0.70234 0.709364
0.716575 0.716575 0.723741
0.730706 0.730706 0.738013
0.744726 0.744726 0.752173
0.758628 0.758628 0.766215
0.772406 0.772406 0.78013
0.590971 0.590971 0.596881
0.605765 0.605765 0.611823
0.62051 0.62051 0.626715
0.635198 0.635198 0.64155
0.649821 0.649821 0.65632
0.664374 0.664374 0.671018
0.678848 0.678848 0.685637
0.693237 0.693237 0.70017
0.707534 0.707534 0.71461
0.721732 0.721732 0.728949
0.735823 0.735823 0.743182
0.749801 0.749801 0.757299
0.763659 0.763659 0.771296
0.777389 0.777389 0.785163
0.790985 0.790985 0.798895
0.804439 0.804439 0.812484
0.817745 0.817745 0.825923
0.64053 0.64053 0.646935
0.655128 0.655128 0.661679
0.669653 0.669653 0.676349
0.684097 0.684097 0.690938
0.698453 0.698453 0.705438
0.712715 0.712715 0.719842
0.726875 0.726875 0.734144
0.740926 0.740926 0.748335
0.754861 0.754861 0.762409
0.768673 0.768673 0.77636
0.782355 0.782355 0.790179
0.7959 0.7959 0.803859
0.809301 0.809301 0.817394
0.822551 0.822551 0.830777
0.835643 0.835643 0.843999
0.84857 0.84857 0.857055
0.861324 0.861324 0.869937
0.689334 0.689334 0.696228
0.703657 0.703657 0.710694
0.717882 0.717882 0.725061
0.732003 0.732003 0.739323
0.746013 0.746013 0.753473
0.759904 0.759904 0.767503
0.77367 0.77367 0.781406
0.787303 0.787303 0.795176
0.800796 0.800796 0.808804
0.814143 0.814143 0.822284
0.827336 0.827336 0.835609
0.840369 0.840369 0.848772
0.853233 0.853233 0.861766
0.865923 0.865923 0.874583
0.878432 0.878432 0.887216
0.890751 0.890751 0.899659
0.902875 0.902875 0.911903
0.737117 0.737117 0.744488
0.751084 0.751084 0.758595
0.76493 0.76493 0.77258
0.778649 0.778649 0.786435
0.792232 0.792232 0.800154
0.805672 0.805672 0.813729
0.818964 0.818964 0.827154
0.8321 0.8321 0.840421
0.845072 0.845072 0.853523
0.857874 0.857874 0.866453
0.870499 0.870499 0.879204
0.882939 0.882939 0.891768
0.895188 0.895188 0.90414
0.907238 0.907238 0.916311
0.919083 0.919083 0.928274
0.930716 0.930716 0.940023
0.942129 0.942129 0.95155
0.0034 0.0034 0.003434
0.013585 0.013585 0.013721
0.024025 0.024025 0.024266
0.034714 0.034714 0.035062
0.045645 0.045645 0.046101
0.056809 0.056809 0.057377
0.068201 0.068201 0.068883
0.079813 0.079813 0.080611
0.091639 0.091639 0.092555
0.10367 0.10367 0.104707
0.115901 0.115901 0.11706
0.128323 0.128323 0.129606
0.140931 0.140931 0.14234
0.153716 0.153716 0.155253
0.166673 0.166673 0.16834
0.179793 0.179793 0.181591
0.193071 0.193071 0.195001
0.038666 0.038666 0.039053
0.049683 0.049683 0.050179
0.060931 0.060931 0.06154
0.072404 0.072404 0.073128
0.084094 0.084094 0.084935
0.095995 0.095995 0.096955
0.1081 0.1081 0.109181
0.120401 0.120401 0.121605
0.132892 0.132892 0.134221
0.145565 0.145565 0.147021
0.158414 0.158414 0.159998
0.171431 0.171431 0.173145
0.184609 0.184609 0.186455
0.197942 0.197942 0.199921
0.211422 0.211422 0.213536
0.225042 0.225042 0.227293
0.238796 0.238796 0.241184
0.076635 0.076635 0.077401
0.088403 0.088403 0.089287
0.100379 0.100379 0.101383
0.112556 0.112556 0.113682
0.124927 0.124927 0.126176
0.137485 0.137485 0.13886
0.150223 0.150223 0.151725
0.163134 0.163134 0.164765
0.17621 0.17621 0.177972
0.189446 0.189446 0.19134
0.202833 0.202833 0.204861
0.216365 0.216365 0.218528
0.230034 0.230034 0.232335
0.243834 0.243834 0.246273
0.257758 0.257758 0.260336
0.271799 0.271799 0.274517
0.285948 0.285948 0.288808
0.117038 0.117038 0.118208
0.129478 0.129478 0.130773
0.142102 0.142102 0.143523
0.154904 0.154904 0.156453
0.167876 0.167876 0.169554
0.181011 0.181011 0.182821
0.194302 0.194302 0.196245
0.207743 0.207743 0.20982
0.221326 0.221326 0.223539
0.235044 0.235044 0.237394
0.24889 0.24889 0.251379
0.262857 0.262857 0.265485
0.276938 0.276938 0.279707
0.291126 0.291126 0.294037
0.305414 0.305414 0.308468
0.319794 0.319794 0.322992
0.334261 0.334261 0.337604
0.159607 0.159607 0.161203
0.172639 0.172639 0.174366
0.185832 0.185832 0.18769
0.199179 0.199179 0.20117
0.212672 0.212672 0.214799
0.226305 0.226305 0.228568
0.24007 0.24007 0.242471
0.253961 0.253961 0.256501
0.26797 0.26797 0.27065
0.282091 0.282091 0.284912
0.296316 0.296316 0.299279
0.310639 0.310639 0.313745
0.325052 0.325052 0.328302
0.339548 0.339548 0.342943
0.35412 0.35412 0.357661
0.368762 0.368762 0.372449
0.383465 0.383465 0.3873
0.204074 0.204074 0.206115
0.217619 0.217619 0.219796
0.231301 0.231301 0.233614
0.245113 0.245113 0.247564
0.259048 0.259048 0.261638
0.273099 0.273099 0.27583
0.287258 0.287258 0.290131
0.30152 0.30152 0.304535
0.315876 0.315876 0.319035
0.33032 0.33032 0.333623
0.344845 0.344845 0.348293
0.359443 0.359443 0.363037
0.374108 0.374108 0.377849
0.388833 0.388833 0.392721
0.40361 0.40361 0.407646
0.418433 0.418433 0.422617
0.433294 0.433294 0.437627
0.250172 0.250172 0.252674
0.26415 0.26415 0.266792
0.278241 0.278241 0.281024
0.292439 0.292439 0.295363
0.306736 0.306736 0.309803
0.321125 0.321125 0.324336
0.335599 0.335599 0.338955
0.350151 0.350151 0.353653
0.364775 0.364775 0.368422
0.379462 0.379462 0.383257
0.394207 0.394207 0.398149
0.409001 0.409001 0.413091
0.423839 0.423839 0.428077
0.438712 0.438712 0.4431
0.453615 0.453615 0.458151
0.468539 0.468539 0.473224
0.483478 0.483478 0.488313
0.297633 0.297633 0.300609
0.311964 0.311964 0.315083
0.326385 0.326385 0.329648
0.340888 0.340888 0.344297
0.355467 0.355467 0.359022
0.370115 0.370115 0.373816
0.384824 0.384824 0.388672
0.399587 0.399587 0.403583
0.414399 0.414399 0.418543
0.42925 0.42925 0.433543
0.444135 0.444135 0.448576
0.459046 0.459046 0.463636
0.473977 0.473977 0.478716
0.488919 0.488919 0.493808
0.503867 0.503867 0.508906
0.518813 0.518813 0.524001
0.533751 0.533751 0.539088
0.346187 0.346187 0.349649
0.360792 0.360792 0.3644
0.375463 0.375463 0.379218
0.390193 0.390193 0.394095
0.404975 0.404975 0.409024
0.419801 0.419801 0.423999
0.434666 0.434666 0.439012
0.449561 0.449561 0.454056
0.46448 0.46448 0.469125
0.479416 0.479416 0.48421
0.494361 0.494361 0.499305
0.509309 0.509309 0.514402
0.524253 0.524253 0.529495
0.539185 0.539185 0.544577
0.554099 0.554099 0.55964
0.568987 0.568987 0.574677
0.583843 0.583843 0.589681
0.395569 0.395569 0.399524
0.410368 0.410368 0.414471
0.425209 0.425209 0.429461
0.440085 0.440085 0.444486
0.45499 0.45499 0.45954
0.469916 0.469916 0.474615
0.484856 0.484856 0.489704
0.499803 0.499803 0.504801
0.51475 0.51475 0.519898
0.529691 0.529691 0.534988
0.544617 0.544617 0.550063
0.559523 0.559523 0.565118
0.5744 0.5744 0.580144
0.589242 0.589242 0.595134
0.604042 0.604042 0.610083
0.618793 0.618793 0.624981
0.633488 0.633488 0.639823
0.445509 0.445509 0.449964
0.460422 0.460422 0.465026
0.475354 0.475354 0.480107
0.490297 0.490297 0.4952
0.505245 0.505245 0.510298
0.520191 0.520191 0.525393
0.535127 0.535127 0.540478
0.550046 0.550046 0.555547
0.564942 0.564942 0.570592
0.579808 0.579808 0.585606
0.594635 0.594635 0.600582
0.609418 0.609418 0.615513
0.62415 0.62415 0.630391
0.638822 0.638822 0.64521
0.653429 0.653429 0.659963
0.667963 0.667963 0.674642
0.682417 0.682417 0.689241
0.495739 0.495739 0.500696
0.510687 0.510687 0.515794
0.52563 0.52563 0.530886
0.540561 0.540561 0.545967
0.555473 0.555473 0.561027
0.570358 0.570358 0.576062
0.585211 0.585211 0.591063
0.600023 0.600023 0.606023
0.614788 0.614788 0.620936
0.629499 0.629499 0.635794
0.644148 0.644148 0.650589
0.658729 0.658729 0.665316
0.673234 0.673234 0.679967
0.687657 0.687657 0.694534
0.701991 0.701991 0.709011
0.716228 0.716228 0.72339
0.730362 0.730362 0.737665
0.545992 0.545992 0.551452
0.560895 0.560895 0.566504
0.57577 0.57577 0.581527
0.590608 0.590608 0.596514
0.605404 0.605404 0.611458
0.62015 0.62015 0.626352
0.634839 0.634839 0.641188
0.649465 0.649465 0.655959
0.664019 0.664019 0.670659
0.678495 0.678495 0.68528
0.692887 0.692887 0.699815
0.707186 0.707186 0.714258
0.721386 0.721386 0.7286
0.73548 0.73548 0.742835
0.749461 0.749461 0.756956
0.763322 0.763322 0.770955
0.777055 0.777055 0.784826
0.596 0.596 0.60196
0.610779 0.610779 0.616887
0.625505 0.625505 0.63176
0.640172 0.640172 0.646573
0.654772 0.654772 0.66132
0.669299 0.669299 0.675992
0.683745 0.683745 0.690582
0.698103 0.698103 0.705084
0.712367 0.712367 0.719491
0.72653 0.72653 0.733795
0.740583 0.740583 0.747989
0.754521 0.754521 0.762067
0.768337 0.768337 0.77602
0.782022 0.782022 0.789842
0.795571 0.795571 0.803526
0.808975 0.808975 0.817065
0.822229 0.822229 0.830451
0.645495 0.645495 0.65195
0.660069 0.660069 0.66667
0.674568 0.674568 0.681313
0.688983 0.688983 0.695873
0.703308 0.703308 0.710341
0.717536 0.717536 0.724711
0.731659 0.731659 0.738976
0.745672 0.745672 0.753128
0.759566 0.759566 0.767161
0.773334 0.773334 0.781068
0.786971 0.786971 0.79484
0.800468 0.800468 0.808472
0.813818 0.813818 0.821956
0.827015 0.827015 0.835285
0.840052 0.840052 0.848452
0.852921 0.852921 0.86145
0.865615 0.865615 0.874271
0.694209 0.694209 0.701151
0.708499 0.708499 0.715584
0.72269 0.72269 0.729917
0.736774 0.736774 0.744142
0.750744 0.750744 0.758251
0.764593 0.764593 0.772239
0.778315 0.778315 0.786098
0.791901 0.791901 0.79982
0.805345 0.805345 0.813399
0.818641 0.818641 0.826827
0.83178 0.83178 0.840098
0.844757 0.844757 0.853204
0.857563 0.857563 0.866139
0.870192 0.870192 0.878894
0.882637 0.882637 0.891463
0.894891 0.894891 0.903839
0.906946 0.906946 0.916015
0.741873 0.741873 0.749292
0.7558 0.7558 0.763358
0.769604 0.769604 0.7773
0.783277 0.783277 0.79111
0.796812 0.796812 0.804781
0.810204 0.810204 0.818306
0.823443 0.823443 0.831677
0.836524 0.836524 0.844889
0.849439 0.849439 0.857933
0.862182 0.862182 0.870803
0.874744 0.874744 0.883492
0.887121 0.887121 0.895992
0.899303 0.899303 0.908296
0.911284 0.911284 0.920397
0.923058 0.923058 0.932288
0.934617 0.934617 0.943963
0.945953 0.945953 0.955413
0.006829 0.006829 0.006898
0.017102 0.017102 0.017273
0.027628 0.027628 0.027904
0.0384 0.0384 0.038784
0.04941 0.04941 0.049904
0.060653 0.060653 0.061259
0.07212 0.07212 0.072842
0.083806 0.083806 0.084644
0.095702 0.095702 0.096659
0.107802 0.107802 0.10888
0.120098 0.120098 0.121299
0.132584 0.132584 0.13391
0.145253 0.145253 0.146706
0.158098 0.158098 0.159679
0.171111 0.171111 0.172822
0.184285 0.184285 0.186128
0.197614 0.197614 0.19959
0.042381 0.042381 0.042805
0.053477 0.053477 0.054012
0.064802 0.064802 0.06545
0.07635 0.07635 0.077113
0.088113 0.088113 0.088994
0.100084 0.100084 0.101084
0.112256 0.112256 0.113378
0.124622 0.124622 0.125869
0.137176 0.137176 0.138548
0.149909 0.149909 0.151408
0.162816 0.162816 0.164444
0.175889 0.175889 0.177648
0.18912 0.18912 0.191011
0.202504 0.202504 0.204529
0.216032 0.216032 0.218192
0.229698 0.229698 0.231995
0.243495 0.243495 0.24593
0.080608 0.080608 0.081414
0.092447 0.092447 0.093372
0.104492 0.104492 0.105537
0.116736 0.116736 0.117903
0.129171 0.129171 0.130463
0.141791 0.141791 0.143209
0.154589 0.154589 0.156134
0.167556 0.167556 0.169232
0.180688 0.180688 0.182495
0.193975 0.193975 0.195915
0.207413 0.207413 0.209487
0.220992 0.220992 0.223202
0.234707 0.234707 0.237054
0.24855 0.24855 0.251035
0.262514 0.262514 0.265139
0.276592 0.276592 0.279358
0.290777 0.290777 0.293685
0.121241 0.121241 0.122454
0.133745 0.133745 0.135082
0.14643 0.14643 0.147894
0.15929 0.15929 0.160883
0.172319 0.172319 0.174042
0.185508 0.185508 0.187363
0.19885 0.19885 0.200839
0.21234 0.21234 0.214464
0.22597 0.22597 0.228229
0.239732 0.239732 0.242129
0.25362 0.25362 0.256156
0.267626 0.267626 0.270302
0.281744 0.281744 0.284562
0.295967 0.295967 0.298927
0.310287 0.310287 0.31339
0.324698 0.324698 0.327945
0.339192 0.339192 0.342584
0.164014 0.164014 0.165654
0.177102 0.177102 0.178873
0.190348 0.190348 0.192251
0.203745 0.203745 0.205782
0.217286 0.217286 0.219459
0.230965 0.230965 0.233275
0.244774 0.244774 0.247221
0.258706 0.258706 0.261293
0.272754 0.272754 0.275481
0.286911 0.286911 0.28978
0.30117 0.30117 0.304181
0.315524 0.315524 0.318679
0.329966 0.329966 0.333265
0.344488 0.344488 0.347933
0.359085 0.359085 0.362676
0.373749 0.373749 0.377486
0.388472 0.388472 0.392356
0.208659 0.208659 0.210745
0.222251 0.222251 0.224473
0.235978 0.235978 0.238337
0.249832 0.249832 0.25233
0.263807 0.263807 0.266445
0.277895 0.277895 0.280674
0.29209 0.29209 0.295011
0.306385 0.306385 0.309449
0.320772 0.320772 0.323979
0.335244 0.335244 0.338596
0.349794 0.349794 0.353292
0.364416 0.364416 0.36806
0.379102 0.379102 0.382893
0.393845 0.393845 0.397784
0.408639 0.408639 0.412725
0.423476 0.423476 0.42771
0.438348 0.438348 0.442732
0.254906 0.254906 0.257455
0.268923 0.268923 0.271612
0.283051 0.283051 0.285882
0.297283 0.297283 0.300256
0.311612 0.311612 0.314728
0.326031 0.326031 0.329291
0.340532 0.340532 0.343938
0.35511 0.35511 0.358661
0.369756 0.369756 0.373453
0.384463 0.384463 0.388308
0.399226 0.399226 0.403218
0.414036 0.414036 0.418176
0.428886 0.428886 0.433175
0.44377 0.44377 0.448208
0.458681 0.458681 0.463268
0.473611 0.473611 0.478347
0.488554 0.488554 0.493439
0.302489 0.302489 0.305514
0.316851 0.316851 0.32002
0.331301 0.331301 0.334614
0.345831 0.345831 0.349289
0.360434 0.360434 0.364039
0.375103 0.375103 0.378855
0.389832 0.389832 0.39373
0.404612 0.404612 0.408659
0.419438 0.419438 0.423632
0.434302 0.434302 0.438645
0.449196 0.449196 0.453688
0.464115 0.464115 0.468756
0.47905 0.47905 0.483841
0.493995 0.493995 0.498935
0.508943 0.508943 0.514033
0.523887 0.523887 0.529126
0.53882 0.53882 0.544208
0.351139 0.351139 0.354651
0.365767 0.365767 0.369425
0.380459 0.380459 0.384264
0.395207 0.395207 0.399159
0.410005 0.410005 0.414105
0.424845 0.424845 0.429094
0.439721 0.439721 0.444118
0.454625 0.454625 0.459171
0.469551 0.469551 0.474246
0.48449 0.48449 0.489335
0.499438 0.499438 0.504432
0.514385 0.514385 0.519529
0.529326 0.529326 0.534619
0.544252 0.544252 0.549695
0.559158 0.559158 0.56475
0.574036 0.574036 0.579777
0.588879 0.588879 0.594768
0.400589 0.400589 0.404595
0.415403 0.415403 0.419557
0.430257 0.430257 0.43456
0.445144 0.445144 0.449596
0.460057 0.460057 0.464657
0.474988 0.474988 0.479738
0.489932 0.489932 0.494831
0.50488 0.50488 0.509928
0.519825 0.519825 0.525024
0.534762 0.534762 0.540109
0.549682 0.549682 0.555179
0.564578 0.564578 0.570224
0.579445 0.579445 0.585239
0.594273 0.594273 0.600216
0.609057 0.609057 0.615148
0.62379 0.62379 0.630028
0.638464 0.638464 0.644849
0.450571 0.450571 0.455076
0.465491 0.465491 0.470146
0.480428 0.480428 0.485232
0.495373 0.495373 0.500327
0.510321 0.510321 0.515425
0.525265 0.525265 0.530517
0.540196 0.540196 0.545598
0.555108 0.555108 0.560659
0.569995 0.569995 0.575695
0.584848 0.584848 0.590696
0.599661 0.599661 0.605658
0.614427 0.614427 0.620572
0.629139 0.629139 0.635431
0.64379 0.64379 0.650228
0.658373 0.658373 0.664957
0.672881 0.672881 0.679609
0.687306 0.687306 0.694179
0.500816 0.500816 0.505824
0.515763 0.515763 0.52092
0.530702 0.530702 0.536009
0.545628 0.545628 0.551084
0.560531 0.560531 0.566137
0.575406 0.575406 0.58116
0.590246 0.590246 0.596148
0.605043 0.605043 0.611093
0.61979 0.61979 0.625988
0.634481 0.634481 0.640826
0.649108 0.649108 0.655599
0.663664 0.663664 0.6703
0.678142 0.678142 0.684924
0.692536 0.692536 0.699461
0.706837 0.706837 0.713906
0.72104 0.72104 0.72825
0.735137 0.735137 0.742488
0.551056 0.551056 0.556567
0.56595 0.56595 0.57161
0.580813 0.580813 0.586622
0.595638 0.595638 0.601595
0.610418 0.610418 0.616522
0.625145 0.625145 0.631397
0.639814 0.639814 0.646212
0.654416 0.654416 0.66096
0.668944 0.668944 0.675634
0.683392 0.683392 0.690226
0.697753 0.697753 0.704731
0.71202 0.71202 0.71914
0.726185 0.726185 0.733447
0.740241 0.740241 0.747644
0.754182 0.754182 0.761724
0.768 0.768 0.77568
0.781689 0.781689 0.789506
0.601025 0.601025 0.607035
0.615786 0.615786 0.621944
0.630493 0.630493 0.636798
0.645138 0.645138 0.651589
0.659714 0.659714 0.666311
0.674214 0.674214 0.680956
0.688631 0.688631 0.695518
0.702959 0.702959 0.709988
0.717189 0.717189 0.724361
0.731315 0.731315 0.738628
0.74533 0.74533 0.752784
0.759227 0.759227 0.76682
0.772999 0.772999 0.780729
0.786639 0.786639 0.794505
0.800139 0.800139 0.808141
0.813494 0.813494 0.821628
0.826694 0.826694 0.834961
0.650453 0.650453 0.656957
0.665002 0.665002 0.671652
0.679473 0.679473 0.686267
0.693858 0.693858 0.700797
0.708151 0.708151 0.715232
0.722344 0.722344 0.729568
0.736431 0.736431 0.743795
0.750404 0.750404 0.757908
0.764256 0.764256 0.771899
0.777981 0.777981 0.78576
0.79157 0.79157 0.799486
0.805018 0.805018 0.813069
0.818318 0.818318 0.826501
0.831461 0.831461 0.839776
0.844441 0.844441 0.852886
0.857252 0.857252 0.865824
0.869885 0.869885 0.878584
0.699073 0.699073 0.706063
0.71333 0.71333 0.720463
0.727485 0.727485 0.73476
0.741531 0.741531 0.748947
0.755461 0.755461 0.763016
0.769268 0.769268 0.77696
0.782944 0.782944 0.790774
0.796483 0.796483 0.804448
0.809878 0.809878 0.817977
0.823121 0.823121 0.831352
0.836206 0.836206 0.844568
0.849125 0.849125 0.857616
0.861872 0.861872 0.870491
0.874439 0.874439 0.883184
0.88682 0.88682 0.895688
0.899007 0.899007 0.907997
0.910994 0.910994 0.920104
0.746616 0.746616 0.754083
0.760502 0.760502 0.768107
0.774262 0.774262 0.782005
0.787889 0.787889 0.795768
0.801377 0.801377 0.80939
0.814717 0.814717 0.822864
0.827903 0.827903 0.836182
0.840929 0.840929 0.849338
0.853786 0.853786 0.862324
0.866469 0.866469 0.875133
0.878969 0.878969 0.887758
0.89128 0.89128 0.900193
0.903395 0.903395 0.912429
0.915306 0.915306 0.924459
0.927008 0.927008 0.936278
0.938492 0.938492 0.947877
0.949752 0.949752 0.959249
0.010289 0.010289 0.010392
0.020649 0.020649 0.020855
0.031259 0.031259 0.031571
0.042113 0.042113 0.042534
0.053203 0.053203 0.053735
0.064522 0.064522 0.065168
0.076065 0.076065 0.076825
0.087822 0.087822 0.088701
0.099788 0.099788 0.100786
0.111956 0.111956 0.113075
0.124318 0.124318 0.125561
0.136867 0.136867 0.138235
0.149596 0.149596 0.151092
0.162498 0.162498 0.164123
0.175567 0.175567 0.177323
0.188795 0.188795 0.190683
0.202175 0.202175 0.204196
0.046123 0.046123 0.046584
0.057298 0.057298 0.057871
0.068699 0.068699 0.069386
0.080321 0.080321 0.081124
0.092155 0.092155 0.093077
0.104195 0.104195 0.105237
0.116434 0.116434 0.117598
0.128865 0.128865 0.130154
0.14148 0.14148 0.142895
0.154273 0.154273 0.155816
0.167237 0.167237 0.16891
0.180365 0.180365 0.182168
0.193649 0.193649 0.195585
0.207082 0.207082 0.209153
