public/luts/vintage.cube
TITLE "Vintage"
LUT_3D_SIZE 5
DOMAIN_MIN 0.0 0.0 0.0
DOMAIN_MAX 1.0 1.0 1.0
0.1 0.048 0
0.301693 0.057108 0.00928
0.503386 0.066216 0.01856
0.705079 0.075323 0.02784
0.906772 0.084431 0.03712
0.130253 0.273799 0.031218
0.331946 0.282907 0.040498
0.533639 0.292015 0.049778
0.735332 0.301123 0.059058
0.937025 0.31023 0.068338
0.160506 0.499598 0.062437
0.362199 0.508706 0.071717
0.563892 0.517814 0.080997
0.765585 0.526922 0.090277
0.967278 0.536029 0.099557
0.190759 0.725398 0.093655
0.392452 0.734505 0.102935
0.594145 0.743613 0.112215
0.795838 0.752721 0.121495
0.997531 0.761829 0.130775
0.221012 0.951197 0.124874
0.422705 0.960304 0.134154
0.624398 0.969412 0.143434
0.826091 0.97852 0.152714
1 0.987628 0.161994
0.103054 0.051093 0.202002
0.304747 0.060201 0.211282
0.50644 0.069309 0.220562
0.708133 0.078416 0.229842
0.909826 0.087524 0.239121
0.133307 0.276892 0.23322
0.335 0.286 0.2425
0.536693 0.295108 0.25178
0.738386 0.304216 0.26106
0.940079 0.313323 0.27034
0.16356 0.502691 0.264438
0.365253 0.511799 0.273718
0.566946 0.520907 0.282998
0.768639 0.530015 0.292278
0.970332 0.539123 0.301558
0.193813 0.728491 0.295657
0.395506 0.737598 0.304937
0.597199 0.746706 0.314217
0.798892 0.755814 0.323497
1 0.764922 0.332777
0.224066 0.95429 0.326875
0.425759 0.963398 0.336155
0.627452 0.972505 0.345435
0.829145 0.981613 0.354715
1 0.990721 0.363995
0.106108 0.054186 0.404003
0.307801 0.063294 0.413283
0.509494 0.072402 0.422563
0.711187 0.081509 0.431843
0.91288 0.090617 0.441123
0.136361 0.279985 0.435222
0.338054 0.289093 0.444502
0.539747 0.298201 0.453782
0.74144 0.307309 0.463062
0.943133 0.316416 0.472341
0.166614 0.505784 0.46644
0.368307 0.514892 0.47572
0.57 0.524 0.485
0.771693 0.533108 0.49428
0.973386 0.542216 0.50356
0.196867 0.731584 0.497659
0.39856 0.740691 0.506938
0.600253 0.749799 0.516218
0.801946 0.758907 0.525498
1 0.768015 0.534778
0.22712 0.957383 0.528877
0.428813 0.966491 0.538157
0.630506 0.975598 0.547437
0.832199 0.984706 0.556717
1 0.993814 0.565997
0.109162 0.057279 0.606005
0.310855 0.066387 0.615285
0.512548 0.075495 0.624565
0.714241 0.084602 0.633845
0.915934 0.09371 0.643125
0.139415 0.283078 0.637223
0.341108 0.292186 0.646503
0.542801 0.301294 0.655783
0.744494 0.310402 0.665063
0.946187 0.319509 0.674343
0.169668 0.508877 0.668442
0.371361 0.517985 0.677722
0.573054 0.527093 0.687002
0.774747 0.536201 0.696282
0.97644 0.545309 0.705562
0.199921 0.734677 0.69966
0.401614 0.743784 0.70894
0.603307 0.752892 0.71822
0.805 0.762 0.7275
1 0.771108 0.73678
0.230174 0.960476 0.730879
0.431867 0.969584 0.740158
0.63356 0.978691 0.749438
0.835253 0.987799 0.758718
1 0.996907 0.767998
0.112216 0.060372 0.808006
0.313909 0.06948 0.817286
0.515602 0.078588 0.826566
0.717295 0.087696 0.835846
0.918988 0.096803 0.845126
0.142469 0.286171 0.839225
0.344162 0.295279 0.848505
0.545855 0.304387 0.857785
0.747548 0.313495 0.867065
0.949241 0.322602 0.876345
0.172722 0.511971 0.870443
0.374415 0.521078 0.879723
0.576108 0.530186 0.889003
0.777801 0.539294 0.898283
0.979494 0.548402 0.907563
0.202975 0.73777 0.901662
0.404668 0.746877 0.910942
0.606361 0.755985 0.920222
0.808054 0.765093 0.929502
1 0.774201 0.938782
0.233228 0.963569 0.93288
0.434921 0.972677 0.94216
0.636614 0.981784 0.95144
0.838307 0.990892 0.96072
1 1 0.97
