public/luts/vintage.cube
TITLE "Vintage"
LUT_3D_SIZE 9
DOMAIN_MIN 0.0 0.0 0.0
DOMAIN_MAX 1.0 1.0 1.0
0.1 0.048 0
0.200846 0.052554 0.00464
0.301693 0.057108 0.00928
0.402539 0.061662 0.01392
0.503386 0.066216 0.01856
0.604232 0.070769 0.0232
0.705079 0.075323 0.02784
0.805925 0.079877 0.03248
0.906772 0.084431 0.03712
0.115126 0.1609 0.015609
0.215973 0.165453 0.020249
0.316819 0.170007 0.024889
0.417666 0.174561 0.029529
0.518512 0.179115 0.034169
0.619359 0.183669 0.038809
0.720205 0.188223 0.043449
0.821052 0.192777 0.048089
0.921898 0.197331 0.052729
0.130253 0.273799 0.031218
0.231099 0.278353 0.035858
0.331946 0.282907 0.040498
0.432792 0.287461 0.045138
0.533639 0.292015 0.049778
0.634485 0.296569 0.054418
0.735332 0.301123 0.059058
0.836178 0.305676 0.063698
0.937025 0.31023 0.068338
0.145379 0.386699 0.046828
0.246226 0.391253 0.051468
0.347072 0.395807 0.056108
0.447919 0.40036 0.060748
0.548765 0.404914 0.065388
0.649612 0.409468 0.070028
0.750458 0.414022 0.074668
0.851305 0.418576 0.079308
0.952151 0.42313 0.083948
0.160506 0.499598 0.062437
0.261352 0.504152 0.067077
0.362199 0.508706 0.071717
0.463045 0.51326 0.076357
0.563892 0.517814 0.080997
0.664738 0.522368 0.085637
0.765585 0.526922 0.090277
0.866431 0.531476 0.094917
0.967278 0.536029 0.099557
0.175632 0.612498 0.078046
0.276479 0.617052 0.082686
0.377325 0.621606 0.087326
0.478172 0.62616 0.091966
0.579018 0.630713 0.096606
0.679865 0.635267 0.101246
0.780711 0.639821 0.105886
0.881558 0.644375 0.110526
0.982404 0.648929 0.115166
0.190759 0.725398 0.093655
0.291605 0.729951 0.098295
0.392452 0.734505 0.102935
0.493298 0.739059 0.107575
0.594145 0.743613 0.112215
0.694991 0.748167 0.116855
0.795838 0.752721 0.121495
0.896684 0.757275 0.126135
0.997531 0.761829 0.130775
0.205885 0.838297 0.109265
0.306732 0.842851 0.113905
0.407578 0.847405 0.118545
0.508425 0.851959 0.123185
0.609271 0.856513 0.127825
0.710118 0.861067 0.132465
0.810964 0.86562 0.137105
0.911811 0.870174 0.141745
1 0.874728 0.146385
0.221012 0.951197 0.124874
0.321858 0.955751 0.129514
0.422705 0.960304 0.134154
0.523551 0.964858 0.138794
0.624398 0.969412 0.143434
0.725244 0.973966 0.148074
0.826091 0.97852 0.152714
0.926937 0.983074 0.157354
1 0.987628 0.161994
0.101527 0.049547 0.101001
0.202374 0.0541 0.105641
0.30322 0.058654 0.110281
0.404066 0.063208 0.114921
0.504913 0.067762 0.119561
0.605759 0.072316 0.124201
0.706606 0.07687 0.128841
0.807452 0.081424 0.133481
0.908299 0.085978 0.138121
0.116654 0.162446 0.11661
0.2175 0.167 0.12125
0.318346 0.171554 0.12589
0.419193 0.176108 0.13053
0.520039 0.180662 0.13517
0.620886 0.185216 0.13981
0.721732 0.189769 0.14445
0.822579 0.194323 0.14909
0.923425 0.198877 0.15373
0.13178 0.275346 0.132219
0.232626 0.2799 0.136859
0.333473 0.284453 0.141499
0.434319 0.289007 0.146139
0.535166 0.293561 0.150779
0.636012 0.298115 0.155419
0.736859 0.302669 0.160059
0.837705 0.307223 0.164699
0.938552 0.311777 0.169339
0.146906 0.388245 0.147828
0.247753 0.392799 0.152468
0.348599 0.397353 0.157108
0.449446 0.401907 0.161748
0.550292 0.406461 0.166388
0.651139 0.411015 0.171028
0.751985 0.415569 0.175668
0.852832 0.420123 0.180308
0.953678 0.424676 0.184948
0.162033 0.501145 0.163438
0.262879 0.505699 0.168078
0.363726 0.510253 0.172718
0.464572 0.514807 0.177358
0.565419 0.51936 0.181998
0.666265 0.523914 0.186638
0.767112 0.528468 0.191278
0.867958 0.533022 0.195918
0.968805 0.537576 0.200558
0.177159 0.614044 0.179047
0.278006 0.618598 0.183687
0.378852 0.623152 0.188327
0.479699 0.627706 0.192967
0.580545 0.63226 0.197607
0.681392 0.636814 0.202247
0.782238 0.641368 0.206887
0.883085 0.645922 0.211527
0.983931 0.650476 0.216167
0.192286 0.726944 0.194656
0.293132 0.731498 0.199296
0.393979 0.736052 0.203936
0.494825 0.740606 0.208576
0.595672 0.74516 0.213216
0.696518 0.749713 0.217856
0.797365 0.754267 0.222496
0.898211 0.758821 0.227136
0.999058 0.763375 0.231776
0.207412 0.839844 0.210265
0.308259 0.844398 0.214905
0.409105 0.848951 0.219545
0.509952 0.853505 0.224185
0.610798 0.858059 0.228825
0.711645 0.862613 0.233465
0.812491 0.867167 0.238105
0.913338 0.871721 0.242745
1 0.876275 0.247385
0.222539 0.952743 0.225875
0.323385 0.957297 0.230515
0.424232 0.961851 0.235155
0.525078 0.966405 0.239795
0.625925 0.970959 0.244435
0.726771 0.975513 0.249075
0.827618 0.980067 0.253715
0.928464 0.98462 0.258355
1 0.989174 0.262995
0.103054 0.051093 0.202002
0.203901 0.055647 0.206642
0.304747 0.060201 0.211282
0.405594 0.064755 0.215922
0.50644 0.069309 0.220562
0.607287 0.073863 0.225202
0.708133 0.078416 0.229842
0.808979 0.08297 0.234481
0.909826 0.087524 0.239121
0.118181 0.163993 0.217611
0.219027 0.168547 0.222251
0.319874 0.1731 0.226891
0.42072 0.177654 0.231531
0.521566 0.182208 0.236171
0.622413 0.186762 0.240811
0.723259 0.191316 0.245451
0.824106 0.19587 0.250091
0.924952 0.200424 0.254731
0.133307 0.276892 0.23322
0.234154 0.281446 0.23786
0.335 0.286 0.2425
0.435846 0.290554 0.24714
0.536693 0.295108 0.25178
0.637539 0.299662 0.25642
0.738386 0.304216 0.26106
0.839232 0.308769 0.2657
0.940079 0.313323 0.27034
0.148434 0.389792 0.248829
0.24928 0.394346 0.253469
0.350126 0.3989 0.258109
0.450973 0.403453 0.262749
0.551819 0.408007 0.267389
0.652666 0.412561 0.272029
0.753512 0.417115 0.276669
0.854359 0.421669 0.281309
0.955205 0.426223 0.285949
0.16356 0.502691 0.264438
0.264406 0.507245 0.269078
0.365253 0.511799 0.273718
0.466099 0.516353 0.278358
0.566946 0.520907 0.282998
0.667792 0.525461 0.287638
0.768639 0.530015 0.292278
0.869485 0.534569 0.296918
0.970332 0.539123 0.301558
0.178686 0.615591 0.280048
0.279533 0.620145 0.284688
0.380379 0.624699 0.289328
0.481226 0.629253 0.293968
0.582072 0.633807 0.298608
0.682919 0.63836 0.303248
0.783765 0.642914 0.307888
0.884612 0.647468 0.312528
0.985458 0.652022 0.317168
0.193813 0.728491 0.295657
0.294659 0.733044 0.300297
0.395506 0.737598 0.304937
0.496352 0.742152 0.309577
0.597199 0.746706 0.314217
0.698045 0.75126 0.318857
0.798892 0.755814 0.323497
0.899738 0.760368 0.328137
1 0.764922 0.332777
0.208939 0.84139 0.311266
0.309786 0.845944 0.315906
0.410632 0.850498 0.320546
0.511479 0.855052 0.325186
0.612325 0.859606 0.329826
0.713172 0.86416 0.334466
0.814018 0.868713 0.339106
0.914865 0.873267 0.343746
1 0.877821 0.348386
0.224066 0.95429 0.326875
0.324912 0.958844 0.331515
0.425759 0.963398 0.336155
0.526605 0.967951 0.340795
0.627452 0.972505 0.345435
0.728298 0.977059 0.350075
0.829145 0.981613 0.354715
0.929991 0.986167 0.359355
1 0.990721 0.363995
0.104581 0.05264 0.303002
0.205428 0.057193 0.307642
0.306274 0.061747 0.312282
0.407121 0.066301 0.316922
0.507967 0.070855 0.321562
0.608814 0.075409 0.326202
0.70966 0.079963 0.330842
0.810507 0.084517 0.335482
0.911353 0.089071 0.340122
0.119708 0.165539 0.318612
0.220554 0.170093 0.323252
0.321401 0.174647 0.327892
0.422247 0.179201 0.332532
0.523094 0.183755 0.337172
0.62394 0.188309 0.341812
0.724787 0.192863 0.346452
0.825633 0.197416 0.351092
0.926479 0.20197 0.355731
0.134834 0.278439 0.334221
0.235681 0.282993 0.338861
0.336527 0.287547 0.343501
0.437374 0.2921 0.348141
0.53822 0.296654 0.352781
0.639066 0.301208 0.357421
0.739913 0.305762 0.362061
0.840759 0.310316 0.366701
0.941606 0.31487 0.371341
0.149961 0.391338 0.34983
0.250807 0.395892 0.35447
0.351654 0.400446 0.35911
0.4525 0.405 0.36375
0.553346 0.409554 0.36839
0.654193 0.414108 0.37303
0.755039 0.418662 0.37767
0.855886 0.423216 0.38231
0.956732 0.427769 0.38695
0.165087 0.504238 0.365439
0.265933 0.508792 0.370079
0.36678 0.513346 0.374719
0.467626 0.5179 0.379359
0.568473 0.522453 0.383999
0.669319 0.527007 0.388639
0.770166 0.531561 0.393279
0.871012 0.536115 0.397919
0.971859 0.540669 0.402559
0.180213 0.617137 0.381048
0.28106 0.621691 0.385688
0.381906 0.626245 0.390328
0.482753 0.630799 0.394968
0.583599 0.635353 0.399608
0.684446 0.639907 0.404248
0.785292 0.644461 0.408888
0.886139 0.649015 0.413528
0.986985 0.653569 0.418168
0.19534 0.730037 0.396658
0.296186 0.734591 0.401298
0.397033 0.739145 0.405938
0.497879 0.743699 0.410578
0.598726 0.748253 0.415218
0.699572 0.752807 0.419858
0.800419 0.75736 0.424498
0.901265 0.761914 0.429138
1 0.766468 0.433778
0.210466 0.842937 0.412267
0.311313 0.847491 0.416907
0.412159 0.852044 0.421547
0.513006 0.856598 0.426187
0.613852 0.861152 0.430827
0.714699 0.865706 0.435467
0.815545 0.87026 0.440107
0.916392 0.874814 0.444747
1 0.879368 0.449387
0.225593 0.955836 0.427876
0.326439 0.96039 0.432516
0.427286 0.964944 0.437156
0.528132 0.969498 0.441796
0.628979 0.974052 0.446436
0.729825 0.978606 0.451076
0.830672 0.98316 0.455716
0.931518 0.987713 0.460356
1 0.992267 0.464996
0.106108 0.054186 0.404003
0.206955 0.05874 0.408643
0.307801 0.063294 0.413283
0.408648 0.067848 0.417923
0.509494 0.072402 0.422563
0.610341 0.076956 0.427203
0.711187 0.081509 0.431843
0.812034 0.086063 0.436483
0.91288 0.090617 0.441123
0.121235 0.167086 0.419612
0.222081 0.17164 0.424252
0.322928 0.176193 0.428892
0.423774 0.180747 0.433532
0.524621 0.185301 0.438172
0.625467 0.189855 0.442812
0.726314 0.194409 0.447452
0.82716 0.198963 0.452092
0.928007 0.203517 0.456732
0.136361 0.279985 0.435222
0.237208 0.284539 0.439862
0.338054 0.289093 0.444502
0.438901 0.293647 0.449142
0.539747 0.298201 0.453782
0.640594 0.302755 0.458422
0.74144 0.307309 0.463062
0.842287 0.311863 0.467702
0.943133 0.316416 0.472341
0.151488 0.392885 0.450831
0.252334 0.397439 0.455471
0.353181 0.401993 0.460111
0.454027 0.406547 0.464751
0.554874 0.4111 0.469391
0.65572 0.415654 0.474031
0.756567 0.420208 0.478671
0.857413 0.424762 0.483311
0.958259 0.429316 0.487951
0.166614 0.505784 0.46644
0.267461 0.510338 0.47108
0.368307 0.514892 0.47572
0.469154 0.519446 0.48036
0.57 0.524 0.485
0.670846 0.528554 0.48964
0.771693 0.533108 0.49428
0.872539 0.537662 0.49892
0.973386 0.542216 0.50356
0.181741 0.618684 0.482049
0.282587 0.623238 0.486689
0.383434 0.627792 0.491329
0.48428 0.632346 0.495969
0.585126 0.6369 0.500609
0.685973 0.641453 0.505249
0.786819 0.646007 0.509889
0.887666 0.650561 0.514529
0.988512 0.655115 0.519169
0.196867 0.731584 0.497659
0.297713 0.736137 0.502298
0.39856 0.740691 0.506938
0.499406 0.745245 0.511578
0.600253 0.749799 0.516218
0.701099 0.754353 0.520858
0.801946 0.758907 0.525498
0.902792 0.763461 0.530138
1 0.768015 0.534778
0.211993 0.844483 0.513268
0.31284 0.849037 0.517908
0.413686 0.853591 0.522548
0.514533 0.858145 0.527188
0.615379 0.862699 0.531828
0.716226 0.867253 0.536468
0.817072 0.871807 0.541108
0.917919 0.87636 0.545748
1 0.880914 0.550388
0.22712 0.957383 0.528877
0.327966 0.961937 0.533517
0.428813 0.966491 0.538157
0.529659 0.971044 0.542797
0.630506 0.975598 0.547437
0.731352 0.980152 0.552077
0.832199 0.984706 0.556717
0.933045 0.98926 0.561357
1 0.993814 0.565997
0.107635 0.055733 0.505004
0.208482 0.060287 0.509644
0.309328 0.06484 0.514284
0.410175 0.069394 0.518924
0.511021 0.073948 0.523564
0.611868 0.078502 0.528204
0.712714 0.083056 0.532844
0.813561 0.08761 0.537484
0.914407 0.092164 0.542124
0.122762 0.168632 0.520613
0.223608 0.173186 0.525253
0.324455 0.17774 0.529893
0.425301 0.182294 0.534533
0.526148 0.186848 0.539173
0.626994 0.191402 0.543813
0.727841 0.195956 0.548453
0.828687 0.200509 0.553093
0.929534 0.205063 0.557733
0.137888 0.281532 0.536222
0.238735 0.286086 0.540862
0.339581 0.29064 0.545502
0.440428 0.295193 0.550142
0.541274 0.299747 0.554782
0.642121 0.304301 0.559422
0.742967 0.308855 0.564062
0.843814 0.313409 0.568702
0.94466 0.317963 0.573342
0.153015 0.394431 0.551832
0.253861 0.398985 0.556472
0.354708 0.403539 0.561112
0.455554 0.408093 0.565752
0.556401 0.412647 0.570392
0.657247 0.417201 0.575032
0.758094 0.421755 0.579672
0.85894 0.426309 0.584312
0.959787 0.430863 0.588952
0.168141 0.507331 0.567441
0.268988 0.511885 0.572081
0.369834 0.516439 0.576721
0.470681 0.520993 0.581361
0.571527 0.525547 0.586001
0.672374 0.5301 0.590641
0.77322 0.534654 0.595281
0.874066 0.539208 0.599921
0.974913 0.543762 0.604561
0.183268 0.620231 0.58305
0.284114 0.624784 0.58769
0.384961 0.629338 0.59233
0.485807 0.633892 0.59697
0.586654 0.638446 0.60161
0.6875 0.643 0.60625
0.788346 0.647554 0.61089
0.889193 0.652108 0.61553
0.990039 0.656662 0.62017
0.198394 0.73313 0.598659
0.299241 0.737684 0.603299
0.400087 0.742238 0.607939
0.500934 0.746792 0.612579
0.60178 0.751346 0.617219
0.702626 0.7559 0.621859
0.803473 0.760453 0.626499
0.904319 0.765007 0.631139
1 0.769561 0.635779
0.213521 0.84603 0.614269
0.314367 0.850584 0.618908
0.415213 0.855137 0.623548
0.51606 0.859691 0.628188
0.616906 0.864245 0.632828
0.717753 0.868799 0.637468
0.818599 0.873353 0.642108
0.919446 0.877907 0.646748
1 0.882461 0.651388
0.228647 0.958929 0.629878
0.329493 0.963483 0.634518
0.43034 0.968037 0.639158
0.531186 0.972591 0.643798
0.632033 0.977145 0.648438
0.732879 0.981699 0.653078
0.833726 0.986253 0.657718
0.934572 0.990807 0.662358
1 0.99536 0.666998
0.109162 0.057279 0.606005
0.210009 0.061833 0.610645
0.310855 0.066387 0.615285
0.411702 0.070941 0.619925
0.512548 0.075495 0.624565
0.613395 0.080049 0.629205
0.714241 0.084602 0.633845
0.815088 0.089156 0.638485
0.915934 0.09371 0.643125
0.124289 0.170179 0.621614
0.225135 0.174733 0.626254
0.325982 0.179287 0.630894
0.426828 0.18384 0.635534
0.527675 0.188394 0.640174
0.628521 0.192948 0.644814
0.729368 0.197502 0.649454
0.830214 0.202056 0.654094
0.931061 0.20661 0.658734
0.139415 0.283078 0.637223
0.240262 0.287632 0.641863
0.341108 0.292186 0.646503
0.441955 0.29674 0.651143
0.542801 0.301294 0.655783
0.643648 0.305848 0.660423
0.744494 0.310402 0.665063
0.845341 0.314956 0.669703
0.946187 0.319509 0.674343
0.154542 0.395978 0.652832
0.255388 0.400532 0.657472
0.356235 0.405086 0.662112
0.457081 0.40964 0.666752
0.557928 0.414193 0.671392
0.658774 0.418747 0.676032
0.759621 0.423301 0.680672
0.860467 0.427855 0.685312
0.961314 0.432409 0.689952
0.169668 0.508877 0.668442
0.270515 0.513431 0.673082
0.371361 0.517985 0.677722
0.472208 0.522539 0.682362
0.573054 0.527093 0.687002
0.673901 0.531647 0.691642
0.774747 0.536201 0.696282
0.875594 0.540755 0.700922
0.97644 0.545309 0.705562
0.184795 0.621777 0.684051
0.285641 0.626331 0.688691
0.386488 0.630885 0.693331
0.487334 0.635439 0.697971
0.588181 0.639993 0.702611
0.689027 0.644547 0.707251
0.789874 0.6491 0.711891
0.89072 0.653654 0.716531
0.991567 0.658208 0.721171
0.199921 0.734677 0.69966
0.300768 0.739231 0.7043
0.401614 0.743784 0.70894
0.502461 0.748338 0.71358
0.603307 0.752892 0.71822
0.704154 0.757446 0.72286
0.805 0.762 0.7275
0.905846 0.766554 0.73214
1 0.771108 0.73678
0.215048 0.847576 0.715269
0.315894 0.85213 0.719909
0.416741 0.856684 0.724549
0.517587 0.861238 0.729189
0.618434 0.865792 0.733829
0.71928 0.870346 0.738469
0.820126 0.8749 0.743109
0.920973 0.879453 0.747749
1 0.884007 0.752389
0.230174 0.960476 0.730879
0.331021 0.96503 0.735519
0.431867 0.969584 0.740158
0.532713 0.974137 0.744798
0.63356 0.978691 0.749438
0.734406 0.983245 0.754078
0.835253 0.987799 0.758718
0.936099 0.992353 0.763358
1 0.996907 0.767998
0.110689 0.058826 0.707005
0.211536 0.06338 0.711645
0.312382 0.067933 0.716285
0.413229 0.072487 0.720925
0.514075 0.077041 0.725565
0.614922 0.081595 0.730205
0.715768 0.086149 0.734845
0.816615 0.090703 0.739485
0.917461 0.095257 0.744125
0.125816 0.171725 0.722615
0.226662 0.176279 0.727255
0.327509 0.180833 0.731895
0.428355 0.185387 0.736535
0.529202 0.189941 0.741175
0.630048 0.194495 0.745815
0.730895 0.199049 0.750455
0.831741 0.203602 0.755095
0.932588 0.208156 0.759735
0.140942 0.284625 0.738224
0.241789 0.289179 0.742864
0.342635 0.293733 0.747504
0.443482 0.298287 0.752144
0.544328 0.30284 0.756784
0.645175 0.307394 0.761424
0.746021 0.311948 0.766064
0.846868 0.316502 0.770704
0.947714 0.321056 0.775344
0.156069 0.397524 0.753833
0.256915 0.402078 0.758473
0.357762 0.406632 0.763113
0.458608 0.411186 0.767753
0.559455 0.41574 0.772393
0.660301 0.420294 0.777033
0.761148 0.424848 0.781673
0.861994 0.429402 0.786313
0.962841 0.433956 0.790953
0.171195 0.510424 0.769442
0.272042 0.514978 0.774082
0.372888 0.519532 0.778722
0.473735 0.524086 0.783362
0.574581 0.52864 0.788002
0.675428 0.533193 0.792642
0.776274 0.537747 0.797282
0.877121 0.542301 0.801922
0.977967 0.546855 0.806562
0.186322 0.623324 0.785052
0.287168 0.627877 0.789692
0.388015 0.632431 0.794332
0.488861 0.636985 0.798972
0.589708 0.641539 0.803612
0.690554 0.646093 0.808252
0.791401 0.650647 0.812892
0.892247 0.655201 0.817532
0.993094 0.659755 0.822172
0.201448 0.736223 0.800661
0.302295 0.740777 0.805301
0.403141 0.745331 0.809941
0.503988 0.749885 0.814581
0.604834 0.754439 0.819221
0.705681 0.758993 0.823861
0.806527 0.763547 0.828501
0.907374 0.7681 0.833141
1 0.772654 0.837781
0.216575 0.849123 0.81627
0.317421 0.853677 0.82091
0.418268 0.858231 0.82555
0.519114 0.862784 0.83019
0.619961 0.867338 0.83483
0.720807 0.871892 0.83947
0.821654 0.876446 0.84411
0.9225 0.881 0.84875
1 0.885554 0.85339
0.231701 0.962022 0.831879
0.332548 0.966576 0.836519
0.433394 0.97113 0.841159
0.534241 0.975684 0.845799
0.635087 0.980238 0.850439
0.735934 0.984792 0.855079
0.83678 0.989346 0.859719
0.937626 0.9939 0.864359
1 0.998453 0.868999
0.112216 0.060372 0.808006
0.213063 0.064926 0.812646
0.313909 0.06948 0.817286
0.414756 0.074034 0.821926
0.515602 0.078588 0.826566
0.616449 0.083142 0.831206
0.717295 0.087696 0.835846
0.818142 0.092249 0.840486
0.918988 0.096803 0.845126
0.127343 0.173272 0.823615
0.228189 0.177826 0.828255
0.329036 0.18238 0.832895
0.429882 0.186933 0.837535
0.530729 0.191487 0.842175
0.631575 0.196041 0.846815
0.732422 0.200595 0.851455
0.833268 0.205149 0.856095
0.934115 0.209703 0.860735
0.142469 0.286171 0.839225
0.243316 0.290725 0.843865
0.344162 0.295279 0.848505
0.445009 0.299833 0.853145
0.545855 0.304387 0.857785
0.646702 0.308941 0.862425
0.747548 0.313495 0.867065
0.848395 0.318049 0.871705
0.949241 0.322602 0.876345
0.157596 0.399071 0.854834
0.258442 0.403625 0.859474
0.359289 0.408179 0.864114
0.460135 0.412733 0.868754
0.560982 0.417287 0.873394
0.661828 0.42184 0.878034
0.762675 0.426394 0.882674
0.863521 0.430948 0.887314
0.964368 0.435502 0.891954
0.172722 0.511971 0.870443
0.273569 0.516524 0.875083
0.374415 0.521078 0.879723
0.475262 0.525632 0.884363
0.576108 0.530186 0.889003
0.676955 0.53474 0.893643
0.777801 0.539294 0.898283
0.878648 0.543848 0.902923
0.979494 0.548402 0.907563
0.187849 0.62487 0.886052
0.288695 0.629424 0.890692
0.389542 0.633978 0.895332
0.490388 0.638532 0.899972
0.591235 0.643086 0.904612
0.692081 0.64764 0.909252
0.792928 0.652193 0.913892
0.893774 0.656747 0.918532
0.994621 0.661301 0.923172
0.202975 0.73777 0.901662
0.303822 0.742324 0.906302
0.404668 0.746877 0.910942
0.505515 0.751431 0.915582
0.606361 0.755985 0.920222
0.707208 0.760539 0.924862
0.808054 0.765093 0.929502
0.908901 0.769647 0.934142
1 0.774201 0.938782
0.218102 0.850669 0.917271
0.318948 0.855223 0.921911
0.419795 0.859777 0.926551
0.520641 0.864331 0.931191
0.621488 0.868885 0.935831
0.722334 0.873439 0.940471
0.823181 0.877993 0.945111
0.924027 0.882547 0.949751
1 0.8871 0.954391
0.233228 0.963569 0.93288
0.334075 0.968123 0.93752
0.434921 0.972677 0.94216
0.535768 0.977231 0.9468
0.636614 0.981784 0.95144
0.737461 0.986338 0.95608
0.838307 0.990892 0.96072
0.939154 0.995446 0.96536
1 1 0.97
