public/luts/vintage.cube
TITLE "Vintage"
LUT_3D_SIZE 17
DOMAIN_MIN 0.0 0.0 0.0
DOMAIN_MAX 1.0 1.0 1.0
0.1 0.048 0
0.150423 0.050277 0.00232
0.200846 0.052554 0.00464
0.25127 0.054831 0.00696
0.301693 0.057108 0.00928
0.352116 0.059385 0.0116
0.402539 0.061662 0.01392
0.452963 0.063939 0.01624
0.503386 0.066216 0.01856
0.553809 0.068493 0.02088
0.604232 0.070769 0.0232
0.654656 0.073046 0.02552
0.705079 0.075323 0.02784
0.755502 0.0776 0.03016
0.805925 0.079877 0.03248
0.856349 0.082154 0.0348
0.906772 0.084431 0.03712
0.107563 0.10445 0.007805
0.157986 0.106727 0.010125
0.20841 0.109004 0.012445
0.258833 0.111281 0.014765
0.309256 0.113558 0.017085
0.359679 0.115835 0.019405
0.410103 0.118111 0.021725
0.460526 0.120388 0.024045
0.510949 0.122665 0.026365
0.561372 0.124942 0.028685
0.611796 0.127219 0.031005
0.662219 0.129496 0.033325
0.712642 0.131773 0.035645
0.763065 0.13405 0.037965
0.813489 0.136327 0.040285
0.863912 0.138604 0.042605
0.914335 0.140881 0.044925
0.115126 0.1609 0.015609
0.16555 0.163177 0.017929
0.215973 0.165453 0.020249
0.266396 0.16773 0.022569
0.316819 0.170007 0.024889
0.367243 0.172284 0.027209
0.417666 0.174561 0.029529
0.468089 0.176838 0.031849
0.518512 0.179115 0.034169
0.568936 0.181392 0.036489
0.619359 0.183669 0.038809
0.669782 0.185946 0.041129
0.720205 0.188223 0.043449
0.770629 0.1905 0.045769
0.821052 0.192777 0.048089
0.871475 0.195054 0.050409
0.921898 0.197331 0.052729
0.12269 0.217349 0.023414
0.173113 0.219626 0.025734
0.223536 0.221903 0.028054
0.273959 0.22418 0.030374
0.324383 0.226457 0.032694
0.374806 0.228734 0.035014
0.425229 0.231011 0.037334
0.475652 0.233288 0.039654
0.526076 0.235565 0.041974
0.576499 0.237842 0.044294
0.626922 0.240119 0.046614
0.677345 0.242396 0.048934
0.727769 0.244673 0.051254
0.778192 0.24695 0.053574
0.828615 0.249227 0.055894
0.879038 0.251504 0.058214
0.929462 0.253781 0.060534
0.130253 0.273799 0.031218
0.180676 0.276076 0.033538
0.231099 0.278353 0.035858
0.281523 0.28063 0.038178
0.331946 0.282907 0.040498
0.382369 0.285184 0.042818
0.432792 0.287461 0.045138
0.483216 0.289738 0.047458
0.533639 0.292015 0.049778
0.584062 0.294292 0.052098
0.634485 0.296569 0.054418
0.684909 0.298846 0.056738
0.735332 0.301123 0.059058
0.785755 0.303399 0.061378
0.836178 0.305676 0.063698
0.886602 0.307953 0.066018
0.937025 0.31023 0.068338
0.137816 0.330249 0.039023
0.188239 0.332526 0.041343
0.238663 0.334803 0.043663
0.289086 0.33708 0.045983
0.339509 0.339357 0.048303
0.389932 0.341634 0.050623
0.440356 0.343911 0.052943
0.490779 0.346188 0.055263
0.541202 0.348465 0.057583
0.591625 0.350741 0.059903
0.642049 0.353018 0.062223
0.692472 0.355295 0.064543
0.742895 0.357572 0.066863
0.793318 0.359849 0.069183
0.843742 0.362126 0.071503
0.894165 0.364403 0.073823
0.944588 0.36668 0.076143
0.145379 0.386699 0.046828
0.195803 0.388976 0.049148
0.246226 0.391253 0.051468
0.296649 0.39353 0.053788
0.347072 0.395807 0.056108
0.397496 0.398083 0.058428
0.447919 0.40036 0.060748
0.498342 0.402637 0.063068
0.548765 0.404914 0.065388
0.599189 0.407191 0.067708
0.649612 0.409468 0.070028
0.700035 0.411745 0.072348
0.750458 0.414022 0.074668
0.800882 0.416299 0.076988
0.851305 0.418576 0.079308
0.901728 0.420853 0.081628
0.952151 0.42313 0.083948
0.152943 0.443149 0.054632
0.203366 0.445425 0.056952
0.253789 0.447702 0.059272
0.304212 0.449979 0.061592
0.354636 0.452256 0.063912
0.405059 0.454533 0.066232
0.455482 0.45681 0.068552
0.505905 0.459087 0.070872
0.556329 0.461364 0.073192
0.606752 0.463641 0.075512
0.657175 0.465918 0.077832
0.707598 0.468195 0.080152
0.758022 0.470472 0.082472
0.808445 0.472749 0.084792
0.858868 0.475026 0.087112
0.909291 0.477303 0.089432
0.959715 0.47958 0.091752
0.160506 0.499598 0.062437
0.210929 0.501875 0.064757
0.261352 0.504152 0.067077
0.311776 0.506429 0.069397
0.362199 0.508706 0.071717
0.412622 0.510983 0.074037
0.463045 0.51326 0.076357
0.513469 0.515537 0.078677
0.563892 0.517814 0.080997
0.614315 0.520091 0.083317
0.664738 0.522368 0.085637
0.715162 0.524645 0.087957
0.765585 0.526922 0.090277
0.816008 0.529199 0.092597
0.866431 0.531476 0.094917
0.916855 0.533753 0.097237
0.967278 0.536029 0.099557
0.168069 0.556048 0.070242
0.218492 0.558325 0.072562
0.268916 0.560602 0.074882
0.319339 0.562879 0.077202
0.369762 0.565156 0.079522
0.420185 0.567433 0.081842
0.470609 0.56971 0.084162
0.521032 0.571987 0.086482
0.571455 0.574264 0.088802
0.621878 0.576541 0.091122
0.672302 0.578818 0.093442
0.722725 0.581095 0.095762
0.773148 0.583371 0.098082
0.823571 0.585648 0.100402
0.873995 0.587925 0.102722
0.924418 0.590202 0.105042
0.974841 0.592479 0.107362
0.175632 0.612498 0.078046
0.226056 0.614775 0.080366
0.276479 0.617052 0.082686
0.326902 0.619329 0.085006
0.377325 0.621606 0.087326
0.427749 0.623883 0.089646
0.478172 0.62616 0.091966
0.528595 0.628437 0.094286
0.579018 0.630713 0.096606
0.629442 0.63299 0.098926
0.679865 0.635267 0.101246
0.730288 0.637544 0.103566
0.780711 0.639821 0.105886
0.831135 0.642098 0.108206
0.881558 0.644375 0.110526
0.931981 0.646652 0.112846
0.982404 0.648929 0.115166
0.183196 0.668948 0.085851
0.233619 0.671225 0.088171
0.284042 0.673502 0.090491
0.334465 0.675779 0.092811
0.384889 0.678055 0.095131
0.435312 0.680332 0.097451
0.485735 0.682609 0.099771
0.536158 0.684886 0.102091
0.586582 0.687163 0.104411
0.637005 0.68944 0.106731
0.687428 0.691717 0.109051
0.737851 0.693994 0.111371
0.788275 0.696271 0.113691
0.838698 0.698548 0.116011
0.889121 0.700825 0.118331
0.939544 0.703102 0.120651
0.989968 0.705379 0.122971
0.190759 0.725398 0.093655
0.241182 0.727674 0.095975
0.291605 0.729951 0.098295
0.342029 0.732228 0.100615
0.392452 0.734505 0.102935
0.442875 0.736782 0.105255
0.493298 0.739059 0.107575
0.543722 0.741336 0.109895
0.594145 0.743613 0.112215
0.644568 0.74589 0.114535
0.694991 0.748167 0.116855
0.745415 0.750444 0.119175
0.795838 0.752721 0.121495
0.846261 0.754998 0.123815
0.896684 0.757275 0.126135
0.947108 0.759552 0.128455
0.997531 0.761829 0.130775
0.198322 0.781847 0.10146
0.248745 0.784124 0.10378
0.299169 0.786401 0.1061
0.349592 0.788678 0.10842
0.400015 0.790955 0.11074
0.450438 0.793232 0.11306
0.500862 0.795509 0.11538
0.551285 0.797786 0.1177
0.601708 0.800063 0.12002
0.652131 0.80234 0.12234
0.702555 0.804617 0.12466
0.752978 0.806894 0.12698
0.803401 0.809171 0.1293
0.853824 0.811448 0.13162
0.904248 0.813725 0.13394
0.954671 0.816001 0.13626
1 0.818278 0.13858
0.205885 0.838297 0.109265
0.256309 0.840574 0.111585
0.306732 0.842851 0.113905
0.357155 0.845128 0.116225
0.407578 0.847405 0.118545
0.458002 0.849682 0.120865
0.508425 0.851959 0.123185
0.558848 0.854236 0.125505
0.609271 0.856513 0.127825
0.659695 0.85879 0.130145
0.710118 0.861067 0.132465
0.760541 0.863343 0.134785
0.810964 0.86562 0.137105
0.861388 0.867897 0.139425
0.911811 0.870174 0.141745
0.962234 0.872451 0.144065
1 0.874728 0.146385
0.213449 0.894747 0.117069
0.263872 0.897024 0.119389
0.314295 0.899301 0.121709
0.364718 0.901578 0.124029
0.415142 0.903855 0.126349
0.465565 0.906132 0.128669
0.515988 0.908409 0.130989
0.566411 0.910686 0.133309
0.616835 0.912962 0.135629
0.667258 0.915239 0.137949
0.717681 0.917516 0.140269
0.768104 0.919793 0.142589
0.818528 0.92207 0.144909
0.868951 0.924347 0.147229
0.919374 0.926624 0.149549
0.969797 0.928901 0.151869
1 0.931178 0.154189
0.221012 0.951197 0.124874
0.271435 0.953474 0.127194
0.321858 0.955751 0.129514
0.372282 0.958028 0.131834
0.422705 0.960304 0.134154
0.473128 0.962581 0.136474
0.523551 0.964858 0.138794
0.573975 0.967135 0.141114
0.624398 0.969412 0.143434
0.674821 0.971689 0.145754
0.725244 0.973966 0.148074
0.775668 0.976243 0.150394
0.826091 0.97852 0.152714
0.876514 0.980797 0.155034
0.926937 0.983074 0.157354
0.977361 0.985351 0.159674
1 0.987628 0.161994
0.100764 0.048773 0.0505
0.151187 0.05105 0.05282
0.20161 0.053327 0.05514
0.252033 0.055604 0.05746
0.302456 0.057881 0.05978
0.35288 0.060158 0.0621
0.403303 0.062435 0.06442
0.453726 0.064712 0.06674
0.504149 0.066989 0.06906
0.554573 0.069266 0.07138
0.604996 0.071543 0.0737
0.655419 0.07382 0.07602
0.705842 0.076097 0.07834
0.756266 0.078374 0.08066
0.806689 0.080651 0.08298
0.857112 0.082927 0.0853
0.907535 0.085204 0.08762
0.108327 0.105223 0.058305
0.15875 0.1075 0.060625
0.209173 0.109777 0.062945
0.259596 0.112054 0.065265
0.31002 0.114331 0.067585
0.360443 0.116608 0.069905
0.410866 0.118885 0.072225
0.461289 0.121162 0.074545
0.511713 0.123439 0.076865
0.562136 0.125716 0.079185
0.612559 0.127993 0.081505
0.662982 0.130269 0.083825
0.713406 0.132546 0.086145
0.763829 0.134823 0.088465
0.814252 0.1371 0.090785
0.864675 0.139377 0.093105
0.915099 0.141654 0.095425
0.11589 0.161673 0.06611
0.166313 0.16395 0.06843
0.216736 0.166227 0.07075
0.26716 0.168504 0.07307
0.317583 0.170781 0.07539
0.368006 0.173058 0.07771
0.418429 0.175335 0.08003
0.468853 0.177611 0.08235
0.519276 0.179888 0.08467
0.569699 0.182165 0.08699
0.620122 0.184442 0.08931
0.670546 0.186719 0.09163
0.720969 0.188996 0.09395
0.771392 0.191273 0.09627
0.821815 0.19355 0.09859
0.872239 0.195827 0.10091
0.922662 0.198104 0.10323
0.123453 0.218123 0.073914
0.173876 0.2204 0.076234
0.2243 0.222677 0.078554
0.274723 0.224953 0.080874
0.325146 0.22723 0.083194
0.375569 0.229507 0.085514
0.425993 0.231784 0.087834
0.476416 0.234061 0.090154
0.526839 0.236338 0.092474
0.577262 0.238615 0.094794
0.627686 0.240892 0.097114
0.678109 0.243169 0.099434
0.728532 0.245446 0.101754
0.778955 0.247723 0.104074
0.829379 0.25 0.106394
0.879802 0.252277 0.108714
0.930225 0.254554 0.111034
0.131016 0.274572 0.081719
0.18144 0.276849 0.084039
0.231863 0.279126 0.086359
0.282286 0.281403 0.088679
0.332709 0.28368 0.090999
0.383133 0.285957 0.093319
0.433556 0.288234 0.095639
0.483979 0.290511 0.097959
0.534402 0.292788 0.100279
0.584826 0.295065 0.102599
0.635249 0.297342 0.104919
0.685672 0.299619 0.107239
0.736095 0.301896 0.109559
0.786519 0.304173 0.111879
0.836942 0.30645 0.114199
0.887365 0.308727 0.116519
0.937788 0.311004 0.118839
0.13858 0.331022 0.089523
0.189003 0.333299 0.091843
0.239426 0.335576 0.094163
0.289849 0.337853 0.096483
0.340273 0.34013 0.098803
0.390696 0.342407 0.101123
0.441119 0.344684 0.103443
0.491542 0.346961 0.105763
0.541966 0.349238 0.108083
0.592389 0.351515 0.110403
0.642812 0.353792 0.112723
0.693235 0.356069 0.115043
0.743659 0.358346 0.117363
0.794082 0.360623 0.119683
0.844505 0.362899 0.122003
0.894928 0.365176 0.124323
0.945352 0.367453 0.126643
0.146143 0.387472 0.097328
0.196566 0.389749 0.099648
0.246989 0.392026 0.101968
0.297413 0.394303 0.104288
0.347836 0.39658 0.106608
0.398259 0.398857 0.108928
0.448682 0.401134 0.111248
0.499106 0.403411 0.113568
0.549529 0.405688 0.115888
0.599952 0.407965 0.118208
0.650375 0.410241 0.120528
0.700799 0.412518 0.122848
0.751222 0.414795 0.125168
0.801645 0.417072 0.127488
0.852068 0.419349 0.129808
0.902492 0.421626 0.132128
0.952915 0.423903 0.134448
0.153706 0.443922 0.105133
0.204129 0.446199 0.107453
0.254553 0.448476 0.109773
0.304976 0.450753 0.112093
0.355399 0.45303 0.114413
0.405822 0.455307 0.116733
0.456246 0.457583 0.119053
0.506669 0.45986 0.121373
0.557092 0.462137 0.123693
0.607515 0.464414 0.126013
0.657939 0.466691 0.128333
0.708362 0.468968 0.130653
0.758785 0.471245 0.132973
0.809208 0.473522 0.135293
0.859632 0.475799 0.137613
0.910055 0.478076 0.139933
0.960478 0.480353 0.142253
0.161269 0.500372 0.112937
0.211693 0.502649 0.115257
0.262116 0.504925 0.117577
0.312539 0.507202 0.119897
0.362962 0.509479 0.122217
0.413386 0.511756 0.124537
0.463809 0.514033 0.126857
0.514232 0.51631 0.129177
0.564655 0.518587 0.131497
0.615079 0.520864 0.133817
0.665502 0.523141 0.136137
0.715925 0.525418 0.138457
0.766348 0.527695 0.140777
0.816772 0.529972 0.143097
0.867195 0.532249 0.145417
0.917618 0.534526 0.147737
0.968041 0.536803 0.150057
0.168833 0.556821 0.120742
0.219256 0.559098 0.123062
0.269679 0.561375 0.125382
0.320102 0.563652 0.127702
0.370526 0.565929 0.130022
0.420949 0.568206 0.132342
0.471372 0.570483 0.134662
0.521795 0.57276 0.136982
0.572219 0.575037 0.139302
0.622642 0.577314 0.141622
0.673065 0.579591 0.143942
0.723488 0.581868 0.146262
0.773912 0.584145 0.148582
0.824335 0.586422 0.150902
0.874758 0.588699 0.153222
0.925181 0.590976 0.155542
0.975605 0.593253 0.157862
0.176396 0.613271 0.128547
0.226819 0.615548 0.130867
0.277242 0.617825 0.133187
0.327666 0.620102 0.135507
0.378089 0.622379 0.137827
0.428512 0.624656 0.140147
0.478935 0.626933 0.142467
0.529359 0.62921 0.144787
0.579782 0.631487 0.147107
0.630205 0.633764 0.149427
0.680628 0.636041 0.151747
0.731052 0.638318 0.154067
0.781475 0.640595 0.156387
0.831898 0.642871 0.158707
0.882321 0.645148 0.161027
0.932745 0.647425 0.163347
0.983168 0.649702 0.165667
0.183959 0.669721 0.136351
0.234382 0.671998 0.138671
0.284806 0.674275 0.140991
0.335229 0.676552 0.143311
0.385652 0.678829 0.145631
0.436075 0.681106 0.147951
0.486499 0.683383 0.150271
0.536922 0.68566 0.152591
0.587345 0.687937 0.154911
0.637768 0.690213 0.157231
0.688192 0.69249 0.159551
0.738615 0.694767 0.161871
0.789038 0.697044 0.164191
0.839461 0.699321 0.166511
0.889885 0.701598 0.168831
0.940308 0.703875 0.171151
0.990731 0.706152 0.173471
0.191522 0.726171 0.144156
0.241946 0.728448 0.146476
0.292369 0.730725 0.148796
0.342792 0.733002 0.151116
0.393215 0.735279 0.153436
0.443639 0.737555 0.155756
0.494062 0.739832 0.158076
0.544485 0.742109 0.160396
0.594908 0.744386 0.162716
0.645332 0.746663 0.165036
0.695755 0.74894 0.167356
0.746178 0.751217 0.169676
0.796601 0.753494 0.171996
0.847025 0.755771 0.174316
0.897448 0.758048 0.176636
0.947871 0.760325 0.178956
0.998294 0.762602 0.181276
0.199086 0.782621 0.15196
0.249509 0.784898 0.15428
0.299932 0.787174 0.1566
0.350355 0.789451 0.15892
0.400779 0.791728 0.16124
0.451202 0.794005 0.16356
0.501625 0.796282 0.16588
0.552048 0.798559 0.1682
0.602472 0.800836 0.17052
0.652895 0.803113 0.17284
0.703318 0.80539 0.17516
0.753741 0.807667 0.17748
0.804165 0.809944 0.1798
0.854588 0.812221 0.18212
0.905011 0.814498 0.18444
0.955434 0.816775 0.18676
1 0.819052 0.18908
0.206649 0.83907 0.159765
0.257072 0.841347 0.162085
0.307495 0.843624 0.164405
0.357919 0.845901 0.166725
0.408342 0.848178 0.169045
0.458765 0.850455 0.171365
0.509188 0.852732 0.173685
0.559612 0.855009 0.176005
0.610035 0.857286 0.178325
0.660458 0.859563 0.180645
0.710881 0.86184 0.182965
0.761305 0.864117 0.185285
0.811728 0.866394 0.187605
0.862151 0.868671 0.189925
0.912574 0.870948 0.192245
0.962998 0.873225 0.194565
1 0.875501 0.196885
0.214212 0.89552 0.16757
0.264635 0.897797 0.16989
0.315059 0.900074 0.17221
0.365482 0.902351 0.17453
0.415905 0.904628 0.17685
0.466328 0.906905 0.17917
0.516752 0.909182 0.18149
0.567175 0.911459 0.18381
0.617598 0.913736 0.18613
0.668021 0.916013 0.18845
0.718445 0.91829 0.19077
0.768868 0.920567 0.19309
0.819291 0.922843 0.19541
0.869714 0.92512 0.19773
0.920138 0.927397 0.20005
0.970561 0.929674 0.20237
1 0.931951 0.20469
0.221775 0.95197 0.175374
0.272199 0.954247 0.177694
0.322622 0.956524 0.180014
0.373045 0.958801 0.182334
0.423468 0.961078 0.184654
0.473892 0.963355 0.186974
0.524315 0.965632 0.189294
0.574738 0.967909 0.191614
0.625161 0.970186 0.193934
0.675585 0.972462 0.196254
0.726008 0.974739 0.198574
0.776431 0.977016 0.200894
0.826854 0.979293 0.203214
0.877278 0.98157 0.205534
0.927701 0.983847 0.207854
0.978124 0.986124 0.210174
1 0.988401 0.212494
0.101527 0.049547 0.101001
0.15195 0.051823 0.103321
0.202374 0.0541 0.105641
0.252797 0.056377 0.107961
0.30322 0.058654 0.110281
0.353643 0.060931 0.112601
0.404066 0.063208 0.114921
0.45449 0.065485 0.117241
0.504913 0.067762 0.119561
0.555336 0.070039 0.121881
0.605759 0.072316 0.124201
0.656183 0.074593 0.126521
0.706606 0.07687 0.128841
0.757029 0.079147 0.131161
0.807452 0.081424 0.133481
0.857876 0.083701 0.135801
0.908299 0.085978 0.138121
0.10909 0.105996 0.108805
0.159514 0.108273 0.111125
0.209937 0.11055 0.113445
0.26036 0.112827 0.115765
0.310783 0.115104 0.118085
0.361206 0.117381 0.120405
0.41163 0.119658 0.122725
0.462053 0.121935 0.125045
0.512476 0.124212 0.127365
0.562899 0.126489 0.129685
0.613323 0.128766 0.132005
0.663746 0.131043 0.134325
0.714169 0.13332 0.136645
0.764592 0.135597 0.138965
0.815016 0.137874 0.141285
0.865439 0.140151 0.143605
0.915862 0.142427 0.145925
0.116654 0.162446 0.11661
0.167077 0.164723 0.11893
0.2175 0.167 0.12125
0.267923 0.169277 0.12357
0.318346 0.171554 0.12589
0.36877 0.173831 0.12821
0.419193 0.176108 0.13053
0.469616 0.178385 0.13285
0.520039 0.180662 0.13517
0.570463 0.182939 0.13749
0.620886 0.185216 0.13981
0.671309 0.187493 0.14213
0.721732 0.189769 0.14445
0.772156 0.192046 0.14677
0.822579 0.194323 0.14909
0.873002 0.1966 0.15141
0.923425 0.198877 0.15373
0.124217 0.218896 0.124415
0.17464 0.221173 0.126735
0.225063 0.22345 0.129055
0.275486 0.225727 0.131375
0.32591 0.228004 0.133695
0.376333 0.230281 0.136015
0.426756 0.232558 0.138335
0.477179 0.234835 0.140655
0.527603 0.237111 0.142975
0.578026 0.239388 0.145295
0.628449 0.241665 0.147615
0.678872 0.243942 0.149935
0.729296 0.246219 0.152255
0.779719 0.248496 0.154575
0.830142 0.250773 0.156895
0.880565 0.25305 0.159215
0.930989 0.255327 0.161535
0.13178 0.275346 0.132219
0.182203 0.277623 0.134539
0.232626 0.2799 0.136859
0.28305 0.282177 0.139179
0.333473 0.284453 0.141499
0.383896 0.28673 0.143819
0.434319 0.289007 0.146139
0.484743 0.291284 0.148459
0.535166 0.293561 0.150779
0.585589 0.295838 0.153099
0.636012 0.298115 0.155419
0.686436 0.300392 0.157739
0.736859 0.302669 0.160059
0.787282 0.304946 0.162379
0.837705 0.307223 0.164699
0.888129 0.3095 0.167019
0.938552 0.311777 0.169339
0.139343 0.331795 0.140024
0.189766 0.334072 0.142344
0.24019 0.336349 0.144664
0.290613 0.338626 0.146984
0.341036 0.340903 0.149304
0.391459 0.34318 0.151624
0.441883 0.345457 0.153944
0.492306 0.347734 0.156264
0.542729 0.350011 0.158584
0.593152 0.352288 0.160904
0.643576 0.354565 0.163224
0.693999 0.356842 0.165544
0.744422 0.359119 0.167864
0.794845 0.361396 0.170184
0.845269 0.363673 0.172504
0.895692 0.36595 0.174824
0.946115 0.368227 0.177144
0.146906 0.388245 0.147828
0.19733 0.390522 0.150148
0.247753 0.392799 0.152468
0.298176 0.395076 0.154788
0.348599 0.397353 0.157108
0.399023 0.39963 0.159428
0.449446 0.401907 0.161748
0.499869 0.404184 0.164068
0.550292 0.406461 0.166388
0.600716 0.408738 0.168708
0.651139 0.411015 0.171028
0.701562 0.413292 0.173348
0.751985 0.415569 0.175668
0.802409 0.417846 0.177988
0.852832 0.420123 0.180308
0.903255 0.422399 0.182628
0.953678 0.424676 0.184948
0.15447 0.444695 0.155633
0.204893 0.446972 0.157953
0.255316 0.449249 0.160273
0.305739 0.451526 0.162593
0.356163 0.453803 0.164913
0.406586 0.45608 0.167233
0.457009 0.458357 0.169553
0.507432 0.460634 0.171873
0.557856 0.462911 0.174193
0.608279 0.465188 0.176513
0.658702 0.467465 0.178833
0.709125 0.469741 0.181153
0.759549 0.472018 0.183473
0.809972 0.474295 0.185793
0.860395 0.476572 0.188113
0.910818 0.478849 0.190433
0.961242 0.481126 0.192753
0.162033 0.501145 0.163438
0.212456 0.503422 0.165758
0.262879 0.505699 0.168078
0.313303 0.507976 0.170398
0.363726 0.510253 0.172718
0.414149 0.51253 0.175038
0.464572 0.514807 0.177358
0.514996 0.517083 0.179678
0.565419 0.51936 0.181998
0.615842 0.521637 0.184318
0.666265 0.523914 0.186638
0.716689 0.526191 0.188958
0.767112 0.528468 0.191278
0.817535 0.530745 0.193598
0.867958 0.533022 0.195918
0.918382 0.535299 0.198238
0.968805 0.537576 0.200558
0.169596 0.557595 0.171242
0.220019 0.559872 0.173562
0.270443 0.562149 0.175882
0.320866 0.564425 0.178202
0.371289 0.566702 0.180522
0.421712 0.568979 0.182842
0.472136 0.571256 0.185162
0.522559 0.573533 0.187482
0.572982 0.57581 0.189802
0.623405 0.578087 0.192122
0.673829 0.580364 0.194442
0.724252 0.582641 0.196762
0.774675 0.584918 0.199082
0.825098 0.587195 0.201402
0.875522 0.589472 0.203722
0.925945 0.591749 0.206042
0.976368 0.594026 0.208362
0.177159 0.614044 0.179047
0.227583 0.616321 0.181367
0.278006 0.618598 0.183687
0.328429 0.620875 0.186007
0.378852 0.623152 0.188327
0.429276 0.625429 0.190647
0.479699 0.627706 0.192967
0.530122 0.629983 0.195287
0.580545 0.63226 0.197607
0.630969 0.634537 0.199927
0.681392 0.636814 0.202247
0.731815 0.639091 0.204567
0.782238 0.641368 0.206887
0.832662 0.643645 0.209207
0.883085 0.645922 0.211527
0.933508 0.648199 0.213847
0.983931 0.650476 0.216167
0.184723 0.670494 0.186852
0.235146 0.672771 0.189172
0.285569 0.675048 0.191492
0.335992 0.677325 0.193812
0.386416 0.679602 0.196132
0.436839 0.681879 0.198452
0.487262 0.684156 0.200772
0.537685 0.686433 0.203092
0.588109 0.68871 0.205412
0.638532 0.690987 0.207732
0.688955 0.693264 0.210052
0.739378 0.695541 0.212372
0.789802 0.697818 0.214692
0.840225 0.700095 0.217012
0.890648 0.702371 0.219332
0.941071 0.704648 0.221652
0.991495 0.706925 0.223972
0.192286 0.726944 0.194656
0.242709 0.729221 0.196976
0.293132 0.731498 0.199296
0.343556 0.733775 0.201616
0.393979 0.736052 0.203936
0.444402 0.738329 0.206256
0.494825 0.740606 0.208576
0.545249 0.742883 0.210896
0.595672 0.74516 0.213216
0.646095 0.747437 0.215536
0.696518 0.749713 0.217856
0.746942 0.75199 0.220176
0.797365 0.754267 0.222496
0.847788 0.756544 0.224816
0.898211 0.758821 0.227136
0.948635 0.761098 0.229456
0.999058 0.763375 0.231776
0.199849 0.783394 0.202461
0.250272 0.785671 0.204781
0.300696 0.787948 0.207101
0.351119 0.790225 0.209421
0.401542 0.792502 0.211741
0.451965 0.794779 0.214061
0.502389 0.797055 0.216381
0.552812 0.799332 0.218701
0.603235 0.801609 0.221021
0.653658 0.803886 0.223341
0.704082 0.806163 0.225661
0.754505 0.80844 0.227981
0.804928 0.810717 0.230301
0.855351 0.812994 0.232621
0.905775 0.815271 0.234941
0.956198 0.817548 0.237261
1 0.819825 0.239581
0.207412 0.839844 0.210265
0.257836 0.842121 0.212585
0.308259 0.844398 0.214905
0.358682 0.846674 0.217225
0.409105 0.848951 0.219545
0.459529 0.851228 0.221865
0.509952 0.853505 0.224185
0.560375 0.855782 0.226505
0.610798 0.858059 0.228825
0.661222 0.860336 0.231145
0.711645 0.862613 0.233465
0.762068 0.86489 0.235785
0.812491 0.867167 0.238105
0.862915 0.869444 0.240425
0.913338 0.871721 0.242745
0.963761 0.873998 0.245065
1 0.876275 0.247385
0.214976 0.896293 0.21807
0.265399 0.89857 0.22039
0.315822 0.900847 0.22271
0.366245 0.903124 0.22503
0.416669 0.905401 0.22735
0.467092 0.907678 0.22967
0.517515 0.909955 0.23199
0.567938 0.912232 0.23431
0.618362 0.914509 0.23663
0.668785 0.916786 0.23895
0.719208 0.919063 0.24127
0.769631 0.92134 0.24359
0.820055 0.923617 0.24591
0.870478 0.925894 0.24823
0.920901 0.928171 0.25055
0.971324 0.930448 0.25287
1 0.932725 0.25519
0.222539 0.952743 0.225875
0.272962 0.95502 0.228195
0.323385 0.957297 0.230515
0.373809 0.959574 0.232835
0.424232 0.961851 0.235155
0.474655 0.964128 0.237475
0.525078 0.966405 0.239795
0.575502 0.968682 0.242115
0.625925 0.970959 0.244435
0.676348 0.973236 0.246755
0.726771 0.975513 0.249075
0.777195 0.97779 0.251395
0.827618 0.980067 0.253715
0.878041 0.982343 0.256035
0.928464 0.98462 0.258355
0.978888 0.986897 0.260675
1 0.989174 0.262995
0.102291 0.05032 0.151501
0.152714 0.052597 0.153821
0.203137 0.054874 0.156141
0.25356 0.057151 0.158461
0.303984 0.059428 0.160781
0.354407 0.061705 0.163101
0.40483 0.063981 0.165421
0.455253 0.066258 0.167741
0.505677 0.068535 0.170061
0.5561 0.070812 0.172381
0.606523 0.073089 0.174701
0.656946 0.075366 0.177021
0.707369 0.077643 0.179341
0.757793 0.07992 0.181661
0.808216 0.082197 0.183981
0.858639 0.084474 0.186301
0.909062 0.086751 0.188621
0.109854 0.10677 0.159306
0.160277 0.109047 0.161626
0.2107 0.111323 0.163946
0.261124 0.1136 0.166266
0.311547 0.115877 0.168586
0.36197 0.118154 0.170906
0.412393 0.120431 0.173226
0.462816 0.122708 0.175546
0.51324 0.124985 0.177866
0.563663 0.127262 0.180186
0.614086 0.129539 0.182506
0.664509 0.131816 0.184826
0.714933 0.134093 0.187146
0.765356 0.13637 0.189466
0.815779 0.138647 0.191786
0.866202 0.140924 0.194106
