public/luts/warm.cube
TITLE "Warm"
LUT_3D_SIZE 5
DOMAIN_MIN 0.0 0.0 0.0
DOMAIN_MAX 1.0 1.0 1.0
0.062635 0.019435 0
0.312438 0.015438 0
0.562241 0.011441 0
0.812045 0.007445 0
1 0.003448 0
0.048617 0.270017 0
0.29842 0.26602 0
0.548224 0.262024 0
0.798027 0.258027 0
1 0.25403 0
0.034599 0.520599 0
0.284402 0.516602 0
0.534206 0.512606 0
0.784009 0.508609 0
1 0.504612 0
0.020581 0.771181 0
0.270385 0.767185 0
0.520188 0.763188 0
0.769991 0.759191 0
1 0.755194 0
0.006564 1 0
0.256367 1 0
0.50617 1 0
0.755973 1 0
1 1 0
0.061278 0.018078 0.250278
0.311081 0.014081 0.246281
0.560884 0.010084 0.242284
0.810687 0.006087 0.238287
1 0.00209 0.23429
0.04726 0.26866 0.23626
0.297063 0.264663 0.232263
0.546866 0.260666 0.228266
0.796669 0.256669 0.224269
1 0.252672 0.220272
0.033242 0.519242 0.222242
0.283045 0.515245 0.218245
0.532848 0.511248 0.214248
0.782651 0.507251 0.210251
1 0.503254 0.206254
0.019224 0.769824 0.208224
0.269027 0.765827 0.204227
0.51883 0.76183 0.20023
0.768633 0.757833 0.196233
1 0.753837 0.192237
0.005206 1 0.194206
0.255009 1 0.190209
0.504812 1 0.186212
0.754616 1 0.182216
1 1 0.178219
0.05992 0.01672 0.50272
0.309724 0.012724 0.498724
0.559527 0.008727 0.494727
0.80933 0.00473 0.49073
1 0.000733 0.486733
0.045903 0.267303 0.488703
0.295706 0.263306 0.484706
0.545509 0.259309 0.480709
0.795312 0.255312 0.476712
1 0.251315 0.472715
0.031885 0.517885 0.474685
0.281688 0.513888 0.470688
0.531491 0.509891 0.466691
0.781294 0.505894 0.462694
1 0.501897 0.458697
0.017867 0.768467 0.460667
0.26767 0.76447 0.45667
0.517473 0.760473 0.452673
0.767276 0.756476 0.448676
1 0.752479 0.444679
0.003849 1 0.446649
0.253652 1 0.442652
0.503455 1 0.438655
0.753258 1 0.434658
1 1 0.430661
0.058563 0.015363 0.755163
0.308366 0.011366 0.751166
0.558169 0.007369 0.747169
0.807972 0.003372 0.743172
1 0 0.739176
0.044545 0.265945 0.741145
0.294348 0.261948 0.737148
0.544151 0.257951 0.733151
0.793955 0.253955 0.729155
1 0.249958 0.725158
0.030527 0.516527 0.727127
0.28033 0.51253 0.72313
0.530134 0.508534 0.719134
0.779937 0.504537 0.715137
1 0.50054 0.71114
0.016509 0.767109 0.713109
0.266312 0.763112 0.709112
0.516116 0.759116 0.705116
0.765919 0.755119 0.701119
1 0.751122 0.697122
0.002491 1 0.699091
0.252295 1 0.695095
0.502098 1 0.691098
0.751901 1 0.687101
1 1 0.683104
0.057206 0.014006 1
0.307009 0.010009 1
0.556812 0.006012 0.999612
0.806615 0.002015 0.995615
1 0 0.991618
0.043188 0.264588 0.993588
0.292991 0.260591 0.989591
0.542794 0.256594 0.985594
0.792597 0.252597 0.981597
1 0.2486 0.9776
0.02917 0.51517 0.97957
0.278973 0.511173 0.975573
0.528776 0.507176 0.971576
0.778579 0.503179 0.967579
1 0.499182 0.963582
0.015152 0.765752 0.965552
0.264955 0.761755 0.961555
0.514758 0.757758 0.957558
0.764561 0.753761 0.953561
1 0.749764 0.949564
0.001134 1 0.951534
0.250937 1 0.947537
0.50074 1 0.94354
0.750543 1 0.939543
1 1 0.935547
