public/luts/warm.cube
TITLE "Warm"
LUT_3D_SIZE 9
DOMAIN_MIN 0.0 0.0 0.0
DOMAIN_MAX 1.0 1.0 1.0
0.062635 0.019435 0
0.187537 0.017437 0
0.312438 0.015438 0
0.43734 0.01344 0
0.562241 0.011441 0
0.687143 0.009443 0
0.812045 0.007445 0
0.936946 0.005446 0
1 0.003448 0
0.055626 0.144726 0
0.180528 0.142728 0
0.305429 0.140729 0
0.430331 0.138731 0
0.555232 0.136732 0
0.680134 0.134734 0
0.805036 0.132736 0
0.929937 0.130737 0
1 0.128739 0
0.048617 0.270017 0
0.173519 0.268019 0
0.29842 0.26602 0
0.423322 0.264022 0
0.548224 0.262024 0
0.673125 0.260025 0
0.798027 0.258027 0
0.922928 0.256028 0
1 0.25403 0
0.041608 0.395308 0
0.16651 0.39331 0
0.291411 0.391311 0
0.416313 0.389313 0
0.541215 0.387315 0
0.666116 0.385316 0
0.791018 0.383318 0
0.915919 0.381319 0
1 0.379321 0
0.034599 0.520599 0
0.159501 0.518601 0
0.284402 0.516602 0
0.409304 0.514604 0
0.534206 0.512606 0
0.659107 0.510607 0
0.784009 0.508609 0
0.90891 0.50661 0
1 0.504612 0
0.02759 0.64589 0
0.152492 0.643892 0
0.277394 0.641894 0
0.402295 0.639895 0
0.527197 0.637897 0
0.652098 0.635898 0
0.777 0.6339 0
0.901901 0.631901 0
1 0.629903 0
0.020581 0.771181 0
0.145483 0.769183 0
0.270385 0.767185 0
0.395286 0.765186 0
0.520188 0.763188 0
0.645089 0.761189 0
0.769991 0.759191 0
0.894892 0.757192 0
1 0.755194 0
0.013572 0.896472 0
0.138474 0.894474 0
0.263376 0.892476 0
0.388277 0.890477 0
0.513179 0.888479 0
0.63808 0.88648 0
0.762982 0.884482 0
0.887883 0.882483 0
1 0.880485 0
0.006564 1 0
0.131465 1 0
0.256367 1 0
0.381268 1 0
0.50617 1 0
0.631071 1 0
0.755973 1 0
0.880874 1 0
1 1 0
0.061957 0.018757 0.124057
0.186858 0.016758 0.122058
0.31176 0.01476 0.12006
0.436661 0.012761 0.118061
0.561563 0.010763 0.116063
0.686464 0.008764 0.114064
0.811366 0.006766 0.112066
0.936267 0.004767 0.110067
1 0.002769 0.108069
0.054948 0.144048 0.117048
0.179849 0.142049 0.115049
0.304751 0.140051 0.113051
0.429652 0.138052 0.111052
0.554554 0.136054 0.109054
0.679455 0.134055 0.107055
0.804357 0.132057 0.105057
0.929258 0.130058 0.103058
1 0.12806 0.10106
0.047939 0.269339 0.110039
0.17284 0.26734 0.10804
0.297742 0.265342 0.106042
0.422643 0.263343 0.104043
0.547545 0.261345 0.102045
0.672446 0.259346 0.100046
0.797348 0.257348 0.098048
0.92225 0.25535 0.09605
1 0.253351 0.094051
0.04093 0.39463 0.10303
0.165831 0.392631 0.101031
0.290733 0.390633 0.099033
0.415634 0.388634 0.097034
0.540536 0.386636 0.095036
0.665437 0.384637 0.093037
0.790339 0.382639 0.091039
0.915241 0.380641 0.089041
1 0.378642 0.087042
0.033921 0.519921 0.096021
0.158822 0.517922 0.094022
0.283724 0.515924 0.092024
0.408625 0.513925 0.090025
0.533527 0.511927 0.088027
0.658428 0.509928 0.086028
0.78333 0.50793 0.08403
0.908232 0.505932 0.082032
1 0.503933 0.080033
0.026912 0.645212 0.089012
0.151813 0.643213 0.087013
0.276715 0.641215 0.085015
0.401616 0.639216 0.083016
0.526518 0.637218 0.081018
0.65142 0.63522 0.07902
0.776321 0.633221 0.077021
0.901223 0.631223 0.075023
1 0.629224 0.073024
0.019903 0.770503 0.082003
0.144804 0.768504 0.080004
0.269706 0.766506 0.078006
0.394607 0.764507 0.076007
0.519509 0.762509 0.074009
0.644411 0.760511 0.072011
0.769312 0.758512 0.070012
0.894214 0.756514 0.068014
1 0.754515 0.066015
0.012894 0.895794 0.074994
0.137795 0.893795 0.072995
0.262697 0.891797 0.070997
0.387598 0.889798 0.068998
0.5125 0.8878 0.067
0.637402 0.885802 0.065002
0.762303 0.883803 0.063003
0.887205 0.881805 0.061005
1 0.879806 0.059006
0.005885 1 0.067985
0.130786 1 0.065986
0.255688 1 0.063988
0.38059 1 0.06199
0.505491 1 0.059991
0.630393 1 0.057993
0.755294 1 0.055994
0.880196 1 0.053996
1 1 0.051997
0.061278 0.018078 0.250278
0.186179 0.016079 0.248279
0.311081 0.014081 0.246281
0.435983 0.012083 0.244283
0.560884 0.010084 0.242284
0.685786 0.008086 0.240286
0.810687 0.006087 0.238287
0.935589 0.004089 0.236289
1 0.00209 0.23429
0.054269 0.143369 0.243269
0.17917 0.14137 0.24127
0.304072 0.139372 0.239272
0.428974 0.137374 0.237274
0.553875 0.135375 0.235275
0.678777 0.133377 0.233277
0.803678 0.131378 0.231278
0.92858 0.12938 0.22928
1 0.127381 0.227281
0.04726 0.26866 0.23626
0.172161 0.266661 0.234261
0.297063 0.264663 0.232263
0.421965 0.262665 0.230265
0.546866 0.260666 0.228266
0.671768 0.258668 0.226268
0.796669 0.256669 0.224269
0.921571 0.254671 0.222271
1 0.252672 0.220272
0.040251 0.393951 0.229251
0.165153 0.391953 0.227253
0.290054 0.389954 0.225254
0.414956 0.387956 0.223256
0.539857 0.385957 0.221257
0.664759 0.383959 0.219259
0.78966 0.38196 0.21726
0.914562 0.379962 0.215262
1 0.377963 0.213263
0.033242 0.519242 0.222242
0.158144 0.517244 0.220244
0.283045 0.515245 0.218245
0.407947 0.513247 0.216247
0.532848 0.511248 0.214248
0.65775 0.50925 0.21225
0.782651 0.507251 0.210251
0.907553 0.505253 0.208253
1 0.503254 0.206254
0.026233 0.644533 0.215233
0.151135 0.642535 0.213235
0.276036 0.640536 0.211236
0.400938 0.638538 0.209238
0.525839 0.636539 0.207239
0.650741 0.634541 0.205241
0.775642 0.632542 0.203242
0.900544 0.630544 0.201244
1 0.628546 0.199246
0.019224 0.769824 0.208224
0.144126 0.767826 0.206226
0.269027 0.765827 0.204227
0.393929 0.763829 0.202229
0.51883 0.76183 0.20023
0.643732 0.759832 0.198232
0.768633 0.757833 0.196233
0.893535 0.755835 0.194235
1 0.753837 0.192237
0.012215 0.895115 0.201215
0.137117 0.893117 0.199217
0.262018 0.891118 0.197218
0.38692 0.88912 0.19522
0.511821 0.887121 0.193221
0.636723 0.885123 0.191223
0.761624 0.883124 0.189224
0.886526 0.881126 0.187226
1 0.879128 0.185228
0.005206 1 0.194206
0.130108 1 0.192208
0.255009 1 0.190209
0.379911 1 0.188211
0.504812 1 0.186212
0.629714 1 0.184214
0.754616 1 0.182216
0.879517 1 0.180217
1 1 0.178219
0.060599 0.017399 0.376499
0.185501 0.015401 0.374501
0.310402 0.013402 0.372502
0.435304 0.011404 0.370504
0.560205 0.009405 0.368505
0.685107 0.007407 0.366507
0.810009 0.005409 0.364509
0.93491 0.00341 0.36251
1 0.001412 0.360512
0.05359 0.14269 0.36949
0.178492 0.140692 0.367492
0.303393 0.138693 0.365493
0.428295 0.136695 0.363495
0.553196 0.134696 0.361496
0.678098 0.132698 0.359498
0.803 0.1307 0.3575
0.927901 0.128701 0.355501
1 0.126703 0.353503
0.046581 0.267981 0.362481
0.171483 0.265983 0.360483
0.296384 0.263984 0.358484
0.421286 0.261986 0.356486
0.546187 0.259987 0.354487
0.671089 0.257989 0.352489
0.795991 0.255991 0.350491
0.920892 0.253992 0.348492
1 0.251994 0.346494
0.039572 0.393272 0.355472
0.164474 0.391274 0.353474
0.289375 0.389275 0.351475
0.414277 0.387277 0.349477
0.539179 0.385279 0.347479
0.66408 0.38328 0.34548
0.788982 0.381282 0.343482
0.913883 0.379283 0.341483
1 0.377285 0.339485
0.032563 0.518563 0.348463
0.157465 0.516565 0.346465
0.282366 0.514566 0.344466
0.407268 0.512568 0.342468
0.53217 0.51057 0.34047
0.657071 0.508571 0.338471
0.781973 0.506573 0.336473
0.906874 0.504574 0.334474
1 0.502576 0.332476
0.025554 0.643854 0.341454
0.150456 0.641856 0.339456
0.275357 0.639857 0.337457
0.400259 0.637859 0.335459
0.525161 0.635861 0.333461
0.650062 0.633862 0.331462
0.774964 0.631864 0.329464
0.899865 0.629865 0.327465
1 0.627867 0.325467
0.018545 0.769145 0.334445
0.143447 0.767147 0.332447
0.268349 0.765149 0.330449
0.39325 0.76315 0.32845
0.518152 0.761152 0.326452
0.643053 0.759153 0.324453
0.767955 0.757155 0.322455
0.892856 0.755156 0.320456
1 0.753158 0.318458
0.011536 0.894436 0.327436
0.136438 0.892438 0.325438
0.26134 0.89044 0.32344
0.386241 0.888441 0.321441
0.511143 0.886443 0.319443
0.636044 0.884444 0.317444
0.760946 0.882446 0.315446
0.885847 0.880447 0.313447
1 0.878449 0.311449
0.004527 1 0.320427
0.129429 1 0.318429
0.254331 1 0.316431
0.379232 1 0.314432
0.504134 1 0.312434
0.629035 1 0.310435
0.753937 1 0.308437
0.878838 1 0.306438
1 1 0.30444
0.05992 0.01672 0.50272
0.184822 0.014722 0.500722
0.309724 0.012724 0.498724
0.434625 0.010725 0.496725
0.559527 0.008727 0.494727
0.684428 0.006728 0.492728
0.80933 0.00473 0.49073
0.934231 0.002731 0.488731
1 0.000733 0.486733
0.052912 0.142012 0.495712
0.177813 0.140013 0.493713
0.302715 0.138015 0.491715
0.427616 0.136016 0.489716
0.552518 0.134018 0.487718
0.677419 0.132019 0.485719
0.802321 0.130021 0.483721
0.927222 0.128022 0.481722
1 0.126024 0.479724
0.045903 0.267303 0.488703
0.170804 0.265304 0.486704
0.295706 0.263306 0.484706
0.420607 0.261307 0.482707
0.545509 0.259309 0.480709
0.67041 0.25731 0.47871
0.795312 0.255312 0.476712
0.920213 0.253313 0.474713
1 0.251315 0.472715
0.038894 0.392594 0.481694
0.163795 0.390595 0.479695
0.288697 0.388597 0.477697
0.413598 0.386598 0.475698
0.5385 0.3846 0.4737
0.663401 0.382601 0.471701
0.788303 0.380603 0.469703
0.913205 0.378605 0.467705
1 0.376606 0.465706
0.031885 0.517885 0.474685
0.156786 0.515886 0.472686
0.281688 0.513888 0.470688
0.406589 0.511889 0.468689
0.531491 0.509891 0.466691
0.656392 0.507892 0.464692
0.781294 0.505894 0.462694
0.906196 0.503896 0.460696
1 0.501897 0.458697
0.024876 0.643176 0.467676
0.149777 0.641177 0.465677
0.274679 0.639179 0.463679
0.39958 0.63718 0.46168
0.524482 0.635182 0.459682
0.649383 0.633183 0.457683
0.774285 0.631185 0.455685
0.899187 0.629187 0.453687
1 0.627188 0.451688
0.017867 0.768467 0.460667
0.142768 0.766468 0.458668
0.26767 0.76447 0.45667
0.392571 0.762471 0.454671
0.517473 0.760473 0.452673
0.642375 0.758475 0.450675
0.767276 0.756476 0.448676
0.892178 0.754478 0.446678
1 0.752479 0.444679
0.010858 0.893758 0.453658
0.135759 0.891759 0.451659
0.260661 0.889761 0.449661
0.385562 0.887762 0.447662
0.510464 0.885764 0.445664
0.635366 0.883766 0.443666
0.760267 0.881767 0.441667
0.885169 0.879769 0.439669
1 0.87777 0.43767
0.003849 1 0.446649
0.12875 1 0.44465
0.253652 1 0.442652
0.378553 1 0.440653
0.503455 1 0.438655
0.628357 1 0.436657
0.753258 1 0.434658
0.87816 1 0.43266
1 1 0.430661
0.059242 0.016042 0.628942
0.184143 0.014043 0.626943
0.309045 0.012045 0.624945
0.433946 0.010046 0.622946
0.558848 0.008048 0.620948
0.68375 0.00605 0.61895
0.808651 0.004051 0.616951
0.933553 0.002053 0.614953
1 0.000054 0.612954
0.052233 0.141333 0.621933
0.177134 0.139334 0.619934
0.302036 0.137336 0.617936
0.426938 0.135338 0.615938
0.551839 0.133339 0.613939
0.676741 0.131341 0.611941
0.801642 0.129342 0.609942
0.926544 0.127344 0.607944
1 0.125345 0.605945
0.045224 0.266624 0.614924
0.170125 0.264625 0.612925
0.295027 0.262627 0.610927
0.419929 0.260629 0.608929
0.54483 0.25863 0.60693
0.669732 0.256632 0.604932
0.794633 0.254633 0.602933
0.919535 0.252635 0.600935
1 0.250636 0.598936
0.038215 0.391915 0.607915
0.163116 0.389916 0.605916
0.288018 0.387918 0.603918
0.41292 0.38592 0.60192
0.537821 0.383921 0.599921
0.662723 0.381923 0.597923
0.787624 0.379924 0.595924
0.912526 0.377926 0.593926
1 0.375927 0.591927
0.031206 0.517206 0.600906
0.156108 0.515208 0.598908
0.281009 0.513209 0.596909
0.405911 0.511211 0.594911
0.530812 0.509212 0.592912
0.655714 0.507214 0.590914
0.780615 0.505215 0.588915
0.905517 0.503217 0.586917
1 0.501218 0.584918
0.024197 0.642497 0.593897
0.149099 0.640499 0.591899
0.274 0.6385 0.5899
0.398902 0.636502 0.587902
0.523803 0.634503 0.585903
0.648705 0.632505 0.583905
0.773606 0.630506 0.581906
0.898508 0.628508 0.579908
1 0.626509 0.577909
0.017188 0.767788 0.586888
0.14209 0.76579 0.58489
0.266991 0.763791 0.582891
0.391893 0.761793 0.580893
0.516794 0.759794 0.578894
0.641696 0.757796 0.576896
0.766597 0.755797 0.574897
0.891499 0.753799 0.572899
1 0.751801 0.570901
0.010179 0.893079 0.579879
0.135081 0.891081 0.577881
0.259982 0.889082 0.575882
0.384884 0.887084 0.573884
0.509785 0.885085 0.571885
0.634687 0.883087 0.569887
0.759588 0.881088 0.567888
0.88449 0.87909 0.56589
1 0.877092 0.563892
0.00317 1 0.57287
0.128072 1 0.570872
0.252973 1 0.568873
0.377875 1 0.566875
0.502776 1 0.564876
0.627678 1 0.562878
0.752579 1 0.560879
0.877481 1 0.558881
1 1 0.556883
0.058563 0.015363 0.755163
0.183465 0.013365 0.753165
0.308366 0.011366 0.751166
0.433268 0.009368 0.749168
0.558169 0.007369 0.747169
0.683071 0.005371 0.745171
0.807972 0.003372 0.743172
0.932874 0.001374 0.741174
1 0 0.739176
0.051554 0.140654 0.748154
0.176456 0.138656 0.746156
0.301357 0.136657 0.744157
0.426259 0.134659 0.742159
0.55116 0.13266 0.74016
0.676062 0.130662 0.738162
0.800964 0.128664 0.736164
0.925865 0.126665 0.734165
1 0.124667 0.732167
0.044545 0.265945 0.741145
0.169447 0.263947 0.739147
0.294348 0.261948 0.737148
0.41925 0.25995 0.73515
0.544151 0.257951 0.733151
0.669053 0.255953 0.731153
0.793955 0.253955 0.729155
0.918856 0.251956 0.727156
1 0.249958 0.725158
0.037536 0.391236 0.734136
0.162438 0.389238 0.732138
0.287339 0.387239 0.730139
0.412241 0.385241 0.728141
0.537142 0.383242 0.726142
0.662044 0.381244 0.724144
0.786946 0.379246 0.722146
0.911847 0.377247 0.720147
1 0.375249 0.718149
0.030527 0.516527 0.727127
0.155429 0.514529 0.725129
0.28033 0.51253 0.72313
0.405232 0.510532 0.721132
0.530134 0.508534 0.719134
0.655035 0.506535 0.717135
0.779937 0.504537 0.715137
0.904838 0.502538 0.713138
1 0.50054 0.71114
0.023518 0.641818 0.720118
0.14842 0.63982 0.71812
0.273321 0.637821 0.716121
0.398223 0.635823 0.714123
0.523125 0.633825 0.712125
0.648026 0.631826 0.710126
0.772928 0.629828 0.708128
0.897829 0.627829 0.706129
1 0.625831 0.704131
0.016509 0.767109 0.713109
0.141411 0.765111 0.711111
0.266312 0.763112 0.709112
0.391214 0.761114 0.707114
0.516116 0.759116 0.705116
0.641017 0.757117 0.703117
0.765919 0.755119 0.701119
0.89082 0.75312 0.69912
1 0.751122 0.697122
0.0095 0.8924 0.7061
0.134402 0.890402 0.704102
0.259304 0.888404 0.702104
0.384205 0.886405 0.700105
0.509107 0.884407 0.698107
0.634008 0.882408 0.696108
0.75891 0.88041 0.69411
0.883811 0.878411 0.692111
1 0.876413 0.690113
0.002491 1 0.699091
0.127393 1 0.697093
0.252295 1 0.695095
0.377196 1 0.693096
0.502098 1 0.691098
0.626999 1 0.689099
0.751901 1 0.687101
0.876802 1 0.685102
1 1 0.683104
0.057884 0.014684 0.881384
0.182786 0.012686 0.879386
0.307688 0.010688 0.877388
0.432589 0.008689 0.875389
0.557491 0.006691 0.873391
0.682392 0.004692 0.871392
0.807294 0.002694 0.869394
0.932195 0.000695 0.867395
1 0 0.865397
0.050875 0.139975 0.874375
0.175777 0.137977 0.872377
0.300679 0.135979 0.870379
0.42558 0.13398 0.86838
0.550482 0.131982 0.866382
0.675383 0.129983 0.864383
0.800285 0.127985 0.862385
0.925186 0.125986 0.860386
1 0.123988 0.858388
0.043867 0.265267 0.867367
0.168768 0.263268 0.865368
0.29367 0.26127 0.86337
0.418571 0.259271 0.861371
0.543473 0.257273 0.859373
0.668374 0.255274 0.857374
0.793276 0.253276 0.855376
0.918177 0.251277 0.853377
1 0.249279 0.851379
0.036858 0.390558 0.860358
0.161759 0.388559 0.858359
0.286661 0.386561 0.856361
0.411562 0.384562 0.854362
0.536464 0.382564 0.852364
0.661365 0.380565 0.850365
0.786267 0.378567 0.848367
0.911168 0.376568 0.846368
1 0.37457 0.84437
0.029849 0.515849 0.853349
0.15475 0.51385 0.85135
0.279652 0.511852 0.849352
0.404553 0.509853 0.847353
0.529455 0.507855 0.845355
0.654356 0.505856 0.843356
0.779258 0.503858 0.841358
0.90416 0.50186 0.83936
1 0.499861 0.837361
0.02284 0.64114 0.84634
0.147741 0.639141 0.844341
0.272643 0.637143 0.842343
0.397544 0.635144 0.840344
0.522446 0.633146 0.838346
0.647347 0.631147 0.836347
0.772249 0.629149 0.834349
0.897151 0.627151 0.832351
1 0.625152 0.830352
0.015831 0.766431 0.839331
0.140732 0.764432 0.837332
0.265634 0.762434 0.835334
0.390535 0.760435 0.833335
0.515437 0.758437 0.831337
0.640338 0.756438 0.829338
0.76524 0.75444 0.82734
0.890142 0.752442 0.825342
1 0.750443 0.823343
0.008822 0.891722 0.832322
0.133723 0.889723 0.830323
0.258625 0.887725 0.828325
0.383526 0.885726 0.826326
0.508428 0.883728 0.824328
0.63333 0.88173 0.82233
0.758231 0.879731 0.820331
0.883133 0.877733 0.818333
1 0.875734 0.816334
0.001813 1 0.825313
0.126714 1 0.823314
0.251616 1 0.821316
0.376517 1 0.819317
0.501419 1 0.817319
0.626321 1 0.815321
0.751222 1 0.813322
0.876124 1 0.811324
1 1 0.809325
0.057206 0.014006 1
0.182107 0.012007 1
0.307009 0.010009 1
0.43191 0.00801 1
0.556812 0.006012 0.999612
0.681714 0.004014 0.997614
0.806615 0.002015 0.995615
0.931517 0.000017 0.993617
1 0 0.991618
0.050197 0.139297 1
0.175098 0.137298 0.998598
0.3 0.1353 0.9966
0.424901 0.133301 0.994601
0.549803 0.131303 0.992603
0.674705 0.129305 0.990605
0.799606 0.127306 0.988606
0.924508 0.125308 0.986608
1 0.123309 0.984609
0.043188 0.264588 0.993588
0.168089 0.262589 0.991589
0.292991 0.260591 0.989591
0.417893 0.258593 0.987593
0.542794 0.256594 0.985594
0.667696 0.254596 0.983596
0.792597 0.252597 0.981597
0.917499 0.250599 0.979599
1 0.2486 0.9776
0.036179 0.389879 0.986579
0.16108 0.38788 0.98458
0.285982 0.385882 0.982582
0.410884 0.383884 0.980584
0.535785 0.381885 0.978585
0.660687 0.379887 0.976587
0.785588 0.377888 0.974588
0.91049 0.37589 0.97259
1 0.373891 0.970591
0.02917 0.51517 0.97957
0.154071 0.513171 0.977571
0.278973 0.511173 0.975573
0.403875 0.509175 0.973575
0.528776 0.507176 0.971576
0.653678 0.505178 0.969578
0.778579 0.503179 0.967579
0.903481 0.501181 0.965581
1 0.499182 0.963582
0.022161 0.640461 0.972561
0.147063 0.638463 0.970563
0.271964 0.636464 0.968564
0.396866 0.634466 0.966566
0.521767 0.632467 0.964567
0.646669 0.630469 0.962569
0.77157 0.62847 0.96057
0.896472 0.626472 0.958572
1 0.624473 0.956573
0.015152 0.765752 0.965552
0.140054 0.763754 0.963554
0.264955 0.761755 0.961555
0.389857 0.759757 0.959557
0.514758 0.757758 0.957558
0.63966 0.75576 0.95556
0.764561 0.753761 0.953561
0.889463 0.751763 0.951563
1 0.749764 0.949564
0.008143 0.891043 0.958543
0.133045 0.889045 0.956545
0.257946 0.887046 0.954546
0.382848 0.885048 0.952548
0.507749 0.883049 0.950549
0.632651 0.881051 0.948551
0.757552 0.879052 0.946552
0.882454 0.877054 0.944554
1 0.875056 0.942556
0.001134 1 0.951534
0.126036 1 0.949536
0.250937 1 0.947537
0.375839 1 0.945539
0.50074 1 0.94354
0.625642 1 0.941542
0.750543 1 0.939543
0.875445 1 0.937545
1 1 0.935547
