public/luts/warm.cube
TITLE "Warm"
LUT_3D_SIZE 17
DOMAIN_MIN 0.0 0.0 0.0
DOMAIN_MAX 1.0 1.0 1.0
0.062635 0.019435 0
0.125086 0.018436 0
0.187537 0.017437 0
0.249988 0.016438 0
0.312438 0.015438 0
0.374889 0.014439 0
0.43734 0.01344 0
0.499791 0.012441 0
0.562241 0.011441 0
0.624692 0.010442 0
0.687143 0.009443 0
0.749594 0.008444 0
0.812045 0.007445 0
0.874495 0.006445 0
0.936946 0.005446 0
0.999397 0.004447 0
1 0.003448 0
0.059131 0.082081 0
0.121581 0.081082 0
0.184032 0.080082 0
0.246483 0.079083 0
0.308934 0.078084 0
0.371385 0.077085 0
0.433835 0.076085 0
0.496286 0.075086 0
0.558737 0.074087 0
0.621188 0.073088 0
0.683639 0.072089 0
0.746089 0.071089 0
0.80854 0.07009 0
0.870991 0.069091 0
0.933442 0.068092 0
0.995892 0.067092 0
1 0.066093 0
0.055626 0.144726 0
0.118077 0.143727 0
0.180528 0.142728 0
0.242979 0.141729 0
0.305429 0.140729 0
0.36788 0.13973 0
0.430331 0.138731 0
0.492782 0.137732 0
0.555232 0.136732 0
0.617683 0.135733 0
0.680134 0.134734 0
0.742585 0.133735 0
0.805036 0.132736 0
0.867486 0.131736 0
0.929937 0.130737 0
0.992388 0.129738 0
1 0.128739 0
0.052122 0.207372 0
0.114573 0.206373 0
0.177023 0.205373 0
0.239474 0.204374 0
0.301925 0.203375 0
0.364376 0.202376 0
0.426826 0.201376 0
0.489277 0.200377 0
0.551728 0.199378 0
0.614179 0.198379 0
0.67663 0.19738 0
0.73908 0.19638 0
0.801531 0.195381 0
0.863982 0.194382 0
0.926433 0.193383 0
0.988883 0.192383 0
1 0.191384 0
0.048617 0.270017 0
0.111068 0.269018 0
0.173519 0.268019 0
0.23597 0.26702 0
0.29842 0.26602 0
0.360871 0.265021 0
0.423322 0.264022 0
0.485773 0.263023 0
0.548224 0.262024 0
0.610674 0.261024 0
0.673125 0.260025 0
0.735576 0.259026 0
0.798027 0.258027 0
0.860477 0.257027 0
0.922928 0.256028 0
0.985379 0.255029 0
1 0.25403 0
0.045113 0.332663 0
0.107564 0.331664 0
0.170014 0.330664 0
0.232465 0.329665 0
0.294916 0.328666 0
0.357367 0.327667 0
0.419817 0.326667 0
0.482268 0.325668 0
0.544719 0.324669 0
0.60717 0.32367 0
0.669621 0.322671 0
0.732071 0.321671 0
0.794522 0.320672 0
0.856973 0.319673 0
0.919424 0.318674 0
0.981874 0.317674 0
1 0.316675 0
0.041608 0.395308 0
0.104059 0.394309 0
0.16651 0.39331 0
0.228961 0.392311 0
0.291411 0.391311 0
0.353862 0.390312 0
0.416313 0.389313 0
0.478764 0.388314 0
0.541215 0.387315 0
0.603665 0.386315 0
0.666116 0.385316 0
0.728567 0.384317 0
0.791018 0.383318 0
0.853468 0.382318 0
0.915919 0.381319 0
0.97837 0.38032 0
1 0.379321 0
0.038104 0.457954 0
0.100555 0.456955 0
0.163005 0.455955 0
0.225456 0.454956 0
0.287907 0.453957 0
0.350358 0.452958 0
0.412809 0.451959 0
0.475259 0.450959 0
0.53771 0.44996 0
0.600161 0.448961 0
0.662612 0.447962 0
0.725062 0.446962 0
0.787513 0.445963 0
0.849964 0.444964 0
0.912415 0.443965 0
0.974866 0.442966 0
1 0.441966 0
0.034599 0.520599 0
0.09705 0.5196 0
0.159501 0.518601 0
0.221952 0.517602 0
0.284402 0.516602 0
0.346853 0.515603 0
0.409304 0.514604 0
0.471755 0.513605 0
0.534206 0.512606 0
0.596656 0.511606 0
0.659107 0.510607 0
0.721558 0.509608 0
0.784009 0.508609 0
0.84646 0.50761 0
0.90891 0.50661 0
0.971361 0.505611 0
1 0.504612 0
0.031095 0.583245 0
0.093546 0.582246 0
0.155996 0.581246 0
0.218447 0.580247 0
0.280898 0.579248 0
0.343349 0.578249 0
0.4058 0.57725 0
0.46825 0.57625 0
0.530701 0.575251 0
0.593152 0.574252 0
0.655603 0.573253 0
0.718053 0.572253 0
0.780504 0.571254 0
0.842955 0.570255 0
0.905406 0.569256 0
0.967857 0.568257 0
1 0.567257 0
0.02759 0.64589 0
0.090041 0.644891 0
0.152492 0.643892 0
0.214943 0.642893 0
0.277394 0.641894 0
0.339844 0.640894 0
0.402295 0.639895 0
0.464746 0.638896 0
0.527197 0.637897 0
0.589647 0.636897 0
0.652098 0.635898 0
0.714549 0.634899 0
0.777 0.6339 0
0.839451 0.632901 0
0.901901 0.631901 0
0.964352 0.630902 0
1 0.629903 0
0.024086 0.708536 0
0.086537 0.707537 0
0.148987 0.706537 0
0.211438 0.705538 0
0.273889 0.704539 0
0.33634 0.70354 0
0.398791 0.702541 0
0.461241 0.701541 0
0.523692 0.700542 0
0.586143 0.699543 0
0.648594 0.698544 0
0.711045 0.697544 0
0.773495 0.696545 0
0.835946 0.695546 0
0.898397 0.694547 0
0.960848 0.693548 0
1 0.692548 0
0.020581 0.771181 0
0.083032 0.770182 0
0.145483 0.769183 0
0.207934 0.768184 0
0.270385 0.767185 0
0.332835 0.766185 0
0.395286 0.765186 0
0.457737 0.764187 0
0.520188 0.763188 0
0.582638 0.762188 0
0.645089 0.761189 0
0.70754 0.76019 0
0.769991 0.759191 0
0.832442 0.758192 0
0.894892 0.757192 0
0.957343 0.756193 0
1 0.755194 0
0.017077 0.833827 0
0.079528 0.832828 0
0.141979 0.831829 0
0.204429 0.830829 0
0.26688 0.82983 0
0.329331 0.828831 0
0.391782 0.827832 0
0.454232 0.826832 0
0.516683 0.825833 0
0.579134 0.824834 0
0.641585 0.823835 0
0.704036 0.822836 0
0.766486 0.821836 0
0.828937 0.820837 0
0.891388 0.819838 0
0.953839 0.818839 0
1 0.817839 0
0.013572 0.896472 0
0.076023 0.895473 0
0.138474 0.894474 0
0.200925 0.893475 0
0.263376 0.892476 0
0.325826 0.891476 0
0.388277 0.890477 0
0.450728 0.889478 0
0.513179 0.888479 0
0.57563 0.887479 0
0.63808 0.88648 0
0.700531 0.885481 0
0.762982 0.884482 0
0.825433 0.883483 0
0.887883 0.882483 0
0.950334 0.881484 0
1 0.880485 0
0.010068 0.959118 0
0.072519 0.958119 0
0.13497 0.95712 0
0.19742 0.95612 0
0.259871 0.955121 0
0.322322 0.954122 0
0.384773 0.953123 0
0.447223 0.952123 0
0.509674 0.951124 0
0.572125 0.950125 0
0.634576 0.949126 0
0.697027 0.948127 0
0.759477 0.947127 0
0.821928 0.946128 0
0.884379 0.945129 0
0.94683 0.94413 0
1 0.94313 0
0.006564 1 0
0.069014 1 0
0.131465 1 0
0.193916 1 0
0.256367 1 0
0.318817 1 0
0.381268 1 0
0.443719 1 0
0.50617 1 0
0.568621 1 0
0.631071 1 0
0.693522 1 0
0.755973 1 0
0.818424 1 0
0.880874 1 0
0.943325 1 0
1 1 0
0.062296 0.019096 0.060946
0.124747 0.018097 0.059947
0.187197 0.017097 0.058947
0.249648 0.016098 0.057948
0.312099 0.015099 0.056949
0.37455 0.0141 0.05595
0.437001 0.013101 0.054951
0.499451 0.012101 0.053951
0.561902 0.011102 0.052952
0.624353 0.010103 0.051953
0.686804 0.009104 0.050954
0.749254 0.008104 0.049954
0.811705 0.007105 0.048955
0.874156 0.006106 0.047956
0.936607 0.005107 0.046957
0.999058 0.004108 0.045958
1 0.003108 0.044958
0.058791 0.081741 0.057441
0.121242 0.080742 0.056442
0.183693 0.079743 0.055443
0.246144 0.078744 0.054444
0.308594 0.077744 0.053444
0.371045 0.076745 0.052445
0.433496 0.075746 0.051446
0.495947 0.074747 0.050447
0.558398 0.073748 0.049448
0.620848 0.072748 0.048448
0.683299 0.071749 0.047449
0.74575 0.07075 0.04645
0.808201 0.069751 0.045451
0.870652 0.068752 0.044452
0.933102 0.067752 0.043452
0.995553 0.066753 0.042453
1 0.065754 0.041454
0.055287 0.144387 0.053937
0.117738 0.143388 0.052938
0.180188 0.142388 0.051938
0.242639 0.141389 0.050939
0.30509 0.14039 0.04994
0.367541 0.139391 0.048941
0.429992 0.138392 0.047942
0.492442 0.137392 0.046942
0.554893 0.136393 0.045943
0.617344 0.135394 0.044944
0.679795 0.134395 0.043945
0.742245 0.133395 0.042945
0.804696 0.132396 0.041946
0.867147 0.131397 0.040947
0.929598 0.130398 0.039948
0.992049 0.129399 0.038949
1 0.128399 0.037949
0.051782 0.207032 0.050432
0.114233 0.206033 0.049433
0.176684 0.205034 0.048434
0.239135 0.204035 0.047435
0.301586 0.203036 0.046436
0.364036 0.202036 0.045436
0.426487 0.201037 0.044437
0.488938 0.200038 0.043438
0.551389 0.199039 0.042439
0.613839 0.198039 0.041439
0.67629 0.19704 0.04044
0.738741 0.196041 0.039441
0.801192 0.195042 0.038442
0.863643 0.194043 0.037443
0.926093 0.193043 0.036443
0.988544 0.192044 0.035444
1 0.191045 0.034445
0.048278 0.269678 0.046928
0.110729 0.268679 0.045929
0.173179 0.26768 0.044929
0.23563 0.26668 0.04393
0.298081 0.265681 0.042931
0.360532 0.264682 0.041932
0.422983 0.263683 0.040933
0.485433 0.262683 0.039933
0.547884 0.261684 0.038934
0.610335 0.260685 0.037935
0.672786 0.259686 0.036936
0.735237 0.258687 0.035937
0.797687 0.257687 0.034937
0.860138 0.256688 0.033938
0.922589 0.255689 0.032939
0.98504 0.25469 0.03194
1 0.25369 0.03094
0.044773 0.332323 0.043423
0.107224 0.331324 0.042424
0.169675 0.330325 0.041425
0.232126 0.329326 0.040426
0.294577 0.328327 0.039427
0.357027 0.327327 0.038427
0.419478 0.326328 0.037428
0.481929 0.325329 0.036429
0.54438 0.32433 0.03543
0.60683 0.32333 0.03443
0.669281 0.322331 0.033431
0.731732 0.321332 0.032432
0.794183 0.320333 0.031433
0.856634 0.319334 0.030434
0.919084 0.318334 0.029434
0.981535 0.317335 0.028435
1 0.316336 0.027436
0.041269 0.394969 0.039919
0.10372 0.39397 0.03892
0.166171 0.392971 0.037921
0.228621 0.391971 0.036921
0.291072 0.390972 0.035922
0.353523 0.389973 0.034923
0.415974 0.388974 0.033924
0.478424 0.387974 0.032924
0.540875 0.386975 0.031925
0.603326 0.385976 0.030926
0.665777 0.384977 0.029927
0.728228 0.383978 0.028928
0.790678 0.382978 0.027928
0.853129 0.381979 0.026929
0.91558 0.38098 0.02593
0.978031 0.379981 0.024931
1 0.378981 0.023931
0.037764 0.457615 0.036414
0.100215 0.456615 0.035415
0.162666 0.455616 0.034416
0.225117 0.454617 0.033417
0.287568 0.453618 0.032418
0.350018 0.452618 0.031418
0.412469 0.451619 0.030419
0.47492 0.45062 0.02942
0.537371 0.449621 0.028421
0.599822 0.448622 0.027422
0.662272 0.447622 0.026422
0.724723 0.446623 0.025423
0.787174 0.445624 0.024424
0.849625 0.444625 0.023425
0.912075 0.443625 0.022425
0.974526 0.442626 0.021426
1 0.441627 0.020427
0.03426 0.52026 0.03291
0.096711 0.519261 0.031911
0.159162 0.518262 0.030912
0.221612 0.517262 0.029912
0.284063 0.516263 0.028913
0.346514 0.515264 0.027914
0.408965 0.514265 0.026915
0.471415 0.513265 0.025915
0.533866 0.512266 0.024916
0.596317 0.511267 0.023917
0.658768 0.510268 0.022918
0.721219 0.509269 0.021919
0.783669 0.508269 0.020919
0.84612 0.50727 0.01992
0.908571 0.506271 0.018921
0.971022 0.505272 0.017922
1 0.504273 0.016922
0.030756 0.582906 0.029406
0.093206 0.581906 0.028406
0.155657 0.580907 0.027407
0.218108 0.579908 0.026408
0.280559 0.578909 0.025409
0.343009 0.577909 0.024409
0.40546 0.57691 0.02341
0.467911 0.575911 0.022411
0.530362 0.574912 0.021412
0.592813 0.573913 0.020413
0.655263 0.572913 0.019413
0.717714 0.571914 0.018414
0.780165 0.570915 0.017415
0.842616 0.569916 0.016416
0.905066 0.568916 0.015416
0.967517 0.567917 0.014417
1 0.566918 0.013418
0.027251 0.645551 0.025901
0.089702 0.644552 0.024902
0.152153 0.643553 0.023903
0.214603 0.642553 0.022903
0.277054 0.641554 0.021904
0.339505 0.640555 0.020905
0.401956 0.639556 0.019906
0.464407 0.638557 0.018907
0.526857 0.637557 0.017907
0.589308 0.636558 0.016908
0.651759 0.635559 0.015909
0.71421 0.63456 0.01491
0.77666 0.63356 0.01391
0.839111 0.632561 0.012911
0.901562 0.631562 0.011912
0.964013 0.630563 0.010913
1 0.629564 0.009914
0.023747 0.708197 0.022397
0.086197 0.707197 0.021397
0.148648 0.706198 0.020398
0.211099 0.705199 0.019399
0.27355 0.7042 0.0184
0.336 0.7032 0.0174
0.398451 0.702201 0.016401
0.460902 0.701202 0.015402
0.523353 0.700203 0.014403
0.585804 0.699204 0.013404
0.648254 0.698204 0.012404
0.710705 0.697205 0.011405
0.773156 0.696206 0.010406
0.835607 0.695207 0.009407
0.898057 0.694207 0.008407
0.960508 0.693208 0.007408
1 0.692209 0.006409
0.020242 0.770842 0.018892
0.082693 0.769843 0.017893
0.145144 0.768844 0.016894
0.207594 0.767844 0.015894
0.270045 0.766845 0.014895
0.332496 0.765846 0.013896
0.394947 0.764847 0.012897
0.457398 0.763848 0.011898
0.519848 0.762848 0.010898
0.582299 0.761849 0.009899
0.64475 0.76085 0.0089
0.707201 0.759851 0.007901
0.769651 0.758851 0.006901
0.832102 0.757852 0.005902
0.894553 0.756853 0.004903
0.957004 0.755854 0.003904
1 0.754855 0.002905
0.016738 0.833488 0.015388
0.079188 0.832488 0.014388
0.141639 0.831489 0.013389
0.20409 0.83049 0.01239
0.266541 0.829491 0.011391
0.328992 0.828492 0.010392
0.391442 0.827492 0.009392
0.453893 0.826493 0.008393
0.516344 0.825494 0.007394
0.578795 0.824495 0.006395
0.641245 0.823495 0.005395
0.703696 0.822496 0.004396
0.766147 0.821497 0.003397
0.828598 0.820498 0.002398
0.891049 0.819499 0.001399
0.953499 0.818499 0.000399
1 0.8175 0
0.013233 0.896133 0.011883
0.075684 0.895134 0.010884
0.138135 0.894135 0.009885
0.200585 0.893135 0.008885
0.263036 0.892136 0.007886
0.325487 0.891137 0.006887
0.387938 0.890138 0.005888
0.450389 0.889139 0.004889
0.512839 0.888139 0.003889
0.57529 0.88714 0.00289
0.637741 0.886141 0.001891
0.700192 0.885142 0.000892
0.762643 0.884142 0
0.825093 0.883143 0
0.887544 0.882144 0
0.949995 0.881145 0
1 0.880146 0
0.009729 0.958779 0.008379
0.072179 0.957779 0.007379
0.13463 0.95678 0.00638
0.197081 0.955781 0.005381
0.259532 0.954782 0.004382
0.321983 0.953783 0.003383
0.384433 0.952783 0.002383
0.446884 0.951784 0.001384
0.509335 0.950785 0.000385
0.571786 0.949786 0
0.634236 0.948786 0
0.696687 0.947787 0
0.759138 0.946788 0
0.821589 0.945789 0
0.88404 0.94479 0
0.94649 0.94379 0
1 0.942791 0
0.006224 1 0.004874
0.068675 1 0.003875
0.131126 1 0.002876
0.193577 1 0.001877
0.256027 1 0.000877
0.318478 1 0
0.380929 1 0
0.44338 1 0
0.50583 1 0
0.568281 1 0
0.630732 1 0
0.693183 1 0
0.755634 1 0
0.818084 1 0
0.880535 1 0
0.942986 1 0
1 1 0
0.061957 0.018757 0.124057
0.124407 0.017757 0.123057
0.186858 0.016758 0.122058
0.249309 0.015759 0.121059
0.31176 0.01476 0.12006
0.37421 0.01376 0.11906
0.436661 0.012761 0.118061
0.499112 0.011762 0.117062
0.561563 0.010763 0.116063
0.624014 0.009764 0.115064
0.686464 0.008764 0.114064
0.748915 0.007765 0.113065
0.811366 0.006766 0.112066
0.873817 0.005767 0.111067
0.936267 0.004767 0.110067
0.998718 0.003768 0.109068
1 0.002769 0.108069
0.058452 0.081402 0.120552
0.120903 0.080403 0.119553
0.183354 0.079404 0.118554
0.245804 0.078404 0.117554
0.308255 0.077405 0.116555
0.370706 0.076406 0.115556
0.433157 0.075407 0.114557
0.495607 0.074407 0.113558
0.558058 0.073408 0.112558
0.620509 0.072409 0.111559
0.68296 0.07141 0.11056
0.745411 0.070411 0.109561
0.807861 0.069411 0.108561
0.870312 0.068412 0.107562
0.932763 0.067413 0.106563
0.995214 0.066414 0.105564
1 0.065415 0.104565
0.054948 0.144048 0.117048
0.117398 0.143048 0.116048
0.179849 0.142049 0.115049
0.2423 0.14105 0.11405
0.304751 0.140051 0.113051
0.367201 0.139051 0.112051
0.429652 0.138052 0.111052
0.492103 0.137053 0.110053
0.554554 0.136054 0.109054
0.617005 0.135055 0.108055
0.679455 0.134055 0.107055
0.741906 0.133056 0.106056
0.804357 0.132057 0.105057
0.866808 0.131058 0.104058
0.929258 0.130058 0.103058
0.991709 0.129059 0.102059
1 0.12806 0.10106
0.051443 0.206693 0.113543
0.113894 0.205694 0.112544
0.176345 0.204695 0.111545
0.238795 0.203695 0.110545
0.301246 0.202696 0.109546
0.363697 0.201697 0.108547
0.426148 0.200698 0.107548
0.488599 0.199699 0.106549
0.551049 0.198699 0.105549
0.6135 0.1977 0.10455
0.675951 0.196701 0.103551
0.738402 0.195702 0.102552
0.800852 0.194702 0.101552
0.863303 0.193703 0.100553
0.925754 0.192704 0.099554
0.988205 0.191705 0.098555
1 0.190706 0.097556
0.047939 0.269339 0.110039
0.110389 0.268339 0.109039
0.17284 0.26734 0.10804
0.235291 0.266341 0.107041
0.297742 0.265342 0.106042
0.360193 0.264342 0.105042
0.422643 0.263343 0.104043
0.485094 0.262344 0.103044
0.547545 0.261345 0.102045
0.609996 0.260346 0.101046
0.672446 0.259346 0.100046
0.734897 0.258347 0.099047
0.797348 0.257348 0.098048
0.859799 0.256349 0.097049
0.92225 0.25535 0.09605
0.9847 0.25435 0.09505
1 0.253351 0.094051
0.044434 0.331984 0.106534
0.106885 0.330985 0.105535
0.169336 0.329986 0.104536
0.231786 0.328986 0.103536
0.294237 0.327987 0.102537
0.356688 0.326988 0.101538
0.419139 0.325989 0.100539
0.48159 0.32499 0.09954
0.54404 0.32399 0.09854
0.606491 0.322991 0.097541
0.668942 0.321992 0.096542
0.731393 0.320993 0.095543
0.793843 0.319993 0.094543
0.856294 0.318994 0.093544
0.918745 0.317995 0.092545
0.981196 0.316996 0.091546
1 0.315997 0.090547
0.04093 0.39463 0.10303
0.10338 0.39363 0.10203
0.165831 0.392631 0.101031
0.228282 0.391632 0.100032
0.290733 0.390633 0.099033
0.353184 0.389634 0.098034
0.415634 0.388634 0.097034
0.478085 0.387635 0.096035
0.540536 0.386636 0.095036
0.602987 0.385637 0.094037
0.665437 0.384637 0.093037
0.727888 0.383638 0.092038
0.790339 0.382639 0.091039
0.85279 0.38164 0.09004
0.915241 0.380641 0.089041
0.977691 0.379641 0.088041
1 0.378642 0.087042
0.037425 0.457275 0.099525
0.099876 0.456276 0.098526
0.162327 0.455277 0.097527
0.224778 0.454278 0.096527
0.287228 0.453278 0.095528
0.349679 0.452279 0.094529
0.41213 0.45128 0.09353
0.474581 0.450281 0.092531
0.537031 0.449281 0.091531
0.599482 0.448282 0.090532
0.661933 0.447283 0.089533
0.724384 0.446284 0.088534
0.786835 0.445285 0.087535
0.849285 0.444285 0.086535
0.911736 0.443286 0.085536
0.974187 0.442287 0.084537
1 0.441288 0.083538
0.033921 0.519921 0.096021
0.096371 0.518921 0.095021
0.158822 0.517922 0.094022
0.221273 0.516923 0.093023
0.283724 0.515924 0.092024
0.346175 0.514925 0.091025
0.408625 0.513925 0.090025
0.471076 0.512926 0.089026
0.533527 0.511927 0.088027
0.595978 0.510928 0.087028
0.658428 0.509928 0.086028
0.720879 0.508929 0.085029
0.78333 0.50793 0.08403
0.845781 0.506931 0.083031
0.908232 0.505932 0.082032
0.970682 0.504932 0.081032
1 0.503933 0.080033
0.030416 0.582566 0.092516
0.092867 0.581567 0.091517
0.155318 0.580568 0.090518
0.217769 0.579569 0.089519
0.280219 0.578569 0.088519
0.34267 0.57757 0.08752
0.405121 0.576571 0.086521
0.467572 0.575572 0.085522
0.530022 0.574572 0.084522
0.592473 0.573573 0.083523
0.654924 0.572574 0.082524
0.717375 0.571575 0.081525
0.779826 0.570576 0.080526
0.842276 0.569576 0.079526
0.904727 0.568577 0.078527
0.967178 0.567578 0.077528
1 0.566579 0.076529
0.026912 0.645212 0.089012
0.089362 0.644212 0.088012
0.151813 0.643213 0.087013
0.214264 0.642214 0.086014
0.276715 0.641215 0.085015
0.339166 0.640216 0.084016
0.401616 0.639216 0.083016
0.464067 0.638217 0.082017
0.526518 0.637218 0.081018
0.588969 0.636219 0.080019
0.65142 0.63522 0.07902
0.71387 0.63422 0.07802
0.776321 0.633221 0.077021
0.838772 0.632222 0.076022
0.901223 0.631223 0.075023
0.963673 0.630223 0.074023
1 0.629224 0.073024
0.023407 0.707857 0.085507
0.085858 0.706858 0.084508
0.148309 0.705859 0.083509
0.21076 0.70486 0.08251
0.27321 0.70386 0.08151
0.335661 0.702861 0.080511
0.398112 0.701862 0.079512
0.460563 0.700863 0.078513
0.523013 0.699863 0.077513
0.585464 0.698864 0.076514
0.647915 0.697865 0.075515
0.710366 0.696866 0.074516
0.772817 0.695867 0.073517
0.835267 0.694867 0.072517
0.897718 0.693868 0.071518
0.960169 0.692869 0.070519
1 0.69187 0.06952
0.019903 0.770503 0.082003
0.082354 0.769504 0.081004
0.144804 0.768504 0.080004
0.207255 0.767505 0.079005
0.269706 0.766506 0.078006
0.332157 0.765507 0.077007
0.394607 0.764507 0.076007
0.457058 0.763508 0.075008
0.519509 0.762509 0.074009
0.58196 0.76151 0.07301
0.644411 0.760511 0.072011
0.706861 0.759511 0.071011
0.769312 0.758512 0.070012
0.831763 0.757513 0.069013
0.894214 0.756514 0.068014
0.956664 0.755514 0.067014
1 0.754515 0.066015
0.016398 0.833148 0.078498
0.078849 0.832149 0.077499
0.1413 0.83115 0.0765
0.203751 0.830151 0.075501
0.266201 0.829151 0.074501
0.328652 0.828152 0.073502
0.391103 0.827153 0.072503
0.453554 0.826154 0.071504
0.516005 0.825155 0.070505
0.578455 0.824155 0.069505
0.640906 0.823156 0.068506
0.703357 0.822157 0.067507
0.765808 0.821158 0.066508
0.828258 0.820158 0.065508
0.890709 0.819159 0.064509
0.95316 0.81816 0.06351
1 0.817161 0.062511
0.012894 0.895794 0.074994
0.075345 0.894795 0.073995
0.137795 0.893795 0.072995
0.200246 0.892796 0.071996
0.262697 0.891797 0.070997
0.325148 0.890798 0.069998
0.387598 0.889798 0.068998
0.450049 0.888799 0.067999
0.5125 0.8878 0.067
0.574951 0.886801 0.066001
0.637402 0.885802 0.065002
0.699852 0.884802 0.064002
0.762303 0.883803 0.063003
0.824754 0.882804 0.062004
0.887205 0.881805 0.061005
0.949655 0.880805 0.060005
1 0.879806 0.059006
0.009389 0.958439 0.071489
0.07184 0.95744 0.07049
0.134291 0.956441 0.069491
0.196742 0.955442 0.068492
0.259192 0.954442 0.067492
0.321643 0.953443 0.066493
0.384094 0.952444 0.065494
0.446545 0.951445 0.064495
0.508996 0.950446 0.063496
0.571446 0.949446 0.062496
0.633897 0.948447 0.061497
0.696348 0.947448 0.060498
0.758799 0.946449 0.059499
0.821249 0.945449 0.058499
0.8837 0.94445 0.0575
0.946151 0.943451 0.056501
1 0.942452 0.055502
0.005885 1 0.067985
0.068336 1 0.066986
0.130786 1 0.065986
0.193237 1 0.064987
0.255688 1 0.063988
0.318139 1 0.062989
0.38059 1 0.06199
0.44304 1 0.06099
0.505491 1 0.059991
0.567942 1 0.058992
0.630393 1 0.057993
0.692843 1 0.056993
0.755294 1 0.055994
0.817745 1 0.054995
0.880196 1 0.053996
0.942647 1 0.052997
1 1 0.051997
0.061617 0.018417 0.187167
0.124068 0.017418 0.186168
0.186519 0.016419 0.185169
0.24897 0.01542 0.18417
0.31142 0.01442 0.18317
0.373871 0.013421 0.182171
0.436322 0.012422 0.181172
0.498773 0.011423 0.180173
0.561223 0.010423 0.179173
0.623674 0.009424 0.178174
0.686125 0.008425 0.177175
0.748576 0.007426 0.176176
0.811027 0.006427 0.175177
0.873477 0.005427 0.174177
0.935928 0.004428 0.173178
0.998379 0.003429 0.172179
1 0.00243 0.17118
0.058113 0.081063 0.183663
0.120563 0.080063 0.182663
0.183014 0.079064 0.181664
0.245465 0.078065 0.180665
0.307916 0.077066 0.179666
0.370367 0.076067 0.178667
0.432817 0.075067 0.177667
0.495268 0.074068 0.176668
0.557719 0.073069 0.175669
0.62017 0.07207 0.17467
0.682621 0.07107 0.17367
0.745071 0.070071 0.172671
0.807522 0.069072 0.171672
0.869973 0.068073 0.170673
0.932424 0.067074 0.169674
0.994874 0.066074 0.168674
